; generated by PrusaSlicer 2.0.0+win64 on 2020-09-25 at 10:20:19

; 

; external perimeters extrusion width = 0.60mm
; perimeters extrusion width = 0.50mm
; infill extrusion width = 0.50mm
; solid infill extrusion width = 0.50mm
; top infill extrusion width = 0.45mm
; first layer extrusion width = 0.42mm

M73 P0 R170
M73 Q0 S172
M201 X1000 Y1000 Z1000 E5000 ; sets maximum accelerations, mm/sec^2
M203 X200 Y200 Z12 E120 ; sets maximum feedrates, mm/sec
M204 P1250 R1250 T1250 ; sets acceleration (P, T) and retract acceleration (R), mm/sec^2
M205 X8.00 Y8.00 Z0.40 E1.50 ; sets the jerk limits, mm/sec
M205 S0 T0 ; sets the minimum extruding and travel feed rate, mm/sec
M107
M115 U3.8.0 ; tell printer latest fw version
G90 ; use absolute coordinates
M83 ; extruder relative mode
M104 S215 ; set extruder temp
M140 S67 ; set bed temp
M190 S67 ; wait for bed temp
M109 S215 ; wait for extruder temp
G28 W ; home all without mesh bed level
G80 ; mesh bed leveling
G1 Y-3.0 F1000.0 ; go outside print area
G92 E0.0
G1 X60.0 E9.0 F1000.0 ; intro line
M73 Q0 S172
M73 P0 R170
G1 X100.0 E12.5 F1000.0 ; intro line
G92 E0.0
M221 S95
M900 K30 ; Filament gcode
G21 ; set units to millimeters
G90 ; use absolute coordinates
M83 ; use relative distances for extrusion
;BEFORE_LAYER_CHANGE
G92 E0.0
;0.2


G1 E-0.80000 F2100.00000
G1 Z0.600 F10800.000
;AFTER_LAYER_CHANGE
;0.2
G1 X16.710 Y35.608
G1 Z0.200
G1 E0.80000 F2100.00000
M204 S1000
G1 F1200
G1 X30.190 Y35.608 E0.42266
G1 X30.190 Y67.806 E1.00954
G1 X30.210 Y68.411 E0.01899
G1 X30.270 Y69.017 E0.01910
G1 X30.369 Y69.618 E0.01910
G1 X30.507 Y70.212 E0.01910
G1 X30.684 Y70.795 E0.01910
G1 X30.899 Y71.365 E0.01910
G1 X31.150 Y71.920 E0.01910
G1 X31.437 Y72.457 E0.01910
G1 X31.759 Y72.975 E0.01911
G1 X32.127 Y73.485 E0.01972
G1 X32.500 Y73.941 E0.01847
G1 X32.917 Y74.385 E0.01910
G1 X33.361 Y74.802 E0.01910
G1 X33.832 Y75.188 E0.01910
G1 X34.328 Y75.543 E0.01910
G1 X34.845 Y75.865 E0.01910
G1 X35.382 Y76.152 E0.01910
G1 X35.937 Y76.404 E0.01910
G1 X36.507 Y76.618 E0.01910
G1 X37.090 Y76.795 E0.01910
G1 X37.684 Y76.933 E0.01910
G1 X38.285 Y77.033 E0.01910
G1 X38.891 Y77.092 E0.01910
G1 X39.497 Y77.112 E0.01899
G1 X41.497 Y77.112 E0.06271
G1 X42.108 Y77.131 E0.01919
G1 X42.714 Y77.189 E0.01909
G1 X43.316 Y77.284 E0.01909
G1 X43.910 Y77.417 E0.01909
G1 X44.494 Y77.587 E0.01909
G1 X45.067 Y77.793 E0.01909
G1 X45.626 Y78.034 E0.01909
G1 X46.168 Y78.311 E0.01909
G1 X46.692 Y78.621 E0.01909
G1 X47.196 Y78.963 E0.01909
G1 X47.677 Y79.336 E0.01909
G1 X48.133 Y79.739 E0.01909
G1 X48.564 Y80.169 E0.01909
G1 X48.966 Y80.625 E0.01908
G1 X49.351 Y81.124 E0.01974
G1 X49.681 Y81.610 E0.01844
G1 X49.991 Y82.134 E0.01909
G1 X50.268 Y82.676 E0.01909
G1 X50.509 Y83.235 E0.01909
G1 X50.716 Y83.808 E0.01909
G1 X50.885 Y84.392 E0.01909
G1 X51.018 Y84.986 E0.01908
G1 X51.115 Y85.608 E0.01974
G1 X51.171 Y86.194 E0.01844
G1 X51.190 Y86.805 E0.01919
G1 X51.190 Y114.112 E0.85618
G1 X90.810 Y114.112 E1.24226
G1 X90.810 Y86.605 E0.86245
G1 X90.829 Y85.994 E0.01919
G1 X90.887 Y85.388 E0.01909
G1 X90.982 Y84.786 E0.01909
G1 X91.115 Y84.192 E0.01909
G1 X91.284 Y83.608 E0.01909
G1 X91.491 Y83.035 E0.01909
G1 X91.732 Y82.476 E0.01909
G1 X92.009 Y81.934 E0.01909
G1 X92.319 Y81.410 E0.01909
G1 X92.661 Y80.907 E0.01909
G1 X93.034 Y80.426 E0.01909
G1 X93.436 Y79.969 E0.01909
G1 X93.867 Y79.539 E0.01909
G1 X94.323 Y79.136 E0.01909
G1 X94.804 Y78.763 E0.01909
G1 X95.308 Y78.421 E0.01909
G1 X95.832 Y78.111 E0.01909
G1 X96.374 Y77.834 E0.01909
G1 X96.933 Y77.593 E0.01909
G1 X97.506 Y77.387 E0.01909
G1 X98.090 Y77.217 E0.01909
G1 X98.684 Y77.084 E0.01909
G1 X99.286 Y76.989 E0.01909
G1 X99.892 Y76.931 E0.01909
G1 X100.503 Y76.912 E0.01919
G1 X175.503 Y76.912 E2.35156
G1 X176.158 Y76.893 E0.02054
G1 X176.835 Y76.833 E0.02130
G1 X177.464 Y76.740 E0.01995
G1 X178.108 Y76.607 E0.02063
G1 X178.744 Y76.437 E0.02063
G1 X179.388 Y76.222 E0.02130
G1 X179.980 Y75.987 E0.01995
G1 X180.576 Y75.709 E0.02063
G1 X181.155 Y75.397 E0.02063
G1 X181.715 Y75.052 E0.02063
G1 X182.254 Y74.674 E0.02063
G1 X182.786 Y74.252 E0.02130
G1 X183.261 Y73.829 E0.01995
G1 X183.727 Y73.364 E0.02063
G1 X184.164 Y72.872 E0.02063
G1 X184.572 Y72.356 E0.02063
G1 X184.949 Y71.817 E0.02063
G1 X185.295 Y71.257 E0.02063
G1 X185.607 Y70.678 E0.02063
G1 X185.885 Y70.082 E0.02063
G1 X186.135 Y69.450 E0.02130
G1 X186.335 Y68.846 E0.01995
G1 X186.505 Y68.210 E0.02063
G1 X186.638 Y67.566 E0.02063
G1 X186.736 Y66.894 E0.02130
G1 X186.791 Y66.260 E0.01995
G1 X186.810 Y65.605 E0.02053
G1 X186.810 Y35.608 E0.94055
G1 X233.290 Y35.608 E1.45735
G1 X233.290 Y174.392 E4.35148
G1 X204.860 Y174.392 E0.89140
G1 X204.860 Y169.658 E0.14843
G1 X171.340 Y169.658 E1.05100
G1 X171.340 Y174.392 E0.14843
G1 X131.913 Y174.392 E1.23621
G1 X131.914 Y167.824 E0.20595
G1 X128.556 Y167.819 E0.10528
G1 X101.086 Y167.823 E0.86128
G1 X101.087 Y174.392 E0.20596
G1 X78.660 Y174.392 E0.70319
G1 X78.660 Y169.659 E0.14840
G1 X47.441 Y169.659 E0.97886
G1 X45.140 Y169.659 E0.07214
G1 X45.140 Y174.392 E0.14840
G1 X16.710 Y174.392 E0.89140
G1 X16.710 Y35.668 E4.34960
G1 X17.069 Y35.784 F10800.000
G1 X17.087 Y35.985
G1 F1200
G1 X29.813 Y35.985 E0.39901
G1 X29.813 Y67.812 E0.99791
G1 X29.833 Y68.436 E0.01957
G1 X29.895 Y69.067 E0.01988
G1 X29.999 Y69.692 E0.01988
G1 X30.143 Y70.309 E0.01988
G1 X30.327 Y70.916 E0.01988
G1 X30.550 Y71.509 E0.01988
G1 X30.812 Y72.087 E0.01988
G1 X31.110 Y72.646 E0.01988
G1 X31.446 Y73.185 E0.01990
G1 X31.827 Y73.715 E0.02050
G1 X32.217 Y74.189 E0.01923
G1 X32.650 Y74.652 E0.01988
G1 X33.113 Y75.086 E0.01988
G1 X33.603 Y75.488 E0.01988
G1 X34.118 Y75.857 E0.01988
G1 X34.656 Y76.192 E0.01988
G1 X35.215 Y76.491 E0.01988
G1 X35.793 Y76.752 E0.01988
G1 X36.386 Y76.975 E0.01988
G1 X36.993 Y77.159 E0.01988
G1 X37.610 Y77.303 E0.01988
G1 X38.236 Y77.407 E0.01988
G1 X38.866 Y77.469 E0.01988
G1 X39.490 Y77.489 E0.01958
G1 X41.491 Y77.489 E0.06272
G1 X42.085 Y77.508 E0.01863
G1 X42.667 Y77.563 E0.01834
G1 X43.245 Y77.654 E0.01834
G1 X43.816 Y77.782 E0.01834
G1 X44.378 Y77.945 E0.01834
G1 X44.928 Y78.143 E0.01834
G1 X45.465 Y78.376 E0.01834
G1 X45.986 Y78.641 E0.01834
G1 X46.490 Y78.939 E0.01834
G1 X46.974 Y79.268 E0.01834
G1 X47.436 Y79.627 E0.01834
G1 X47.875 Y80.014 E0.01834
G1 X48.289 Y80.427 E0.01834
G1 X48.675 Y80.866 E0.01832
G1 X49.045 Y81.345 E0.01899
G1 X49.363 Y81.812 E0.01771
G1 X49.661 Y82.316 E0.01834
G1 X49.926 Y82.837 E0.01834
G1 X50.159 Y83.374 E0.01834
G1 X50.357 Y83.924 E0.01834
G1 X50.520 Y84.486 E0.01834
G1 X50.648 Y85.057 E0.01832
G1 X50.741 Y85.655 E0.01899
G1 X50.794 Y86.217 E0.01771
G1 X50.813 Y86.811 E0.01863
G1 X50.813 Y114.489 E0.86782
G1 X91.187 Y114.489 E1.26590
G1 X91.187 Y86.611 E0.87409
G1 X91.206 Y86.017 E0.01863
G1 X91.261 Y85.435 E0.01834
G1 X91.352 Y84.857 E0.01834
G1 X91.480 Y84.286 E0.01834
G1 X91.643 Y83.724 E0.01834
G1 X91.841 Y83.174 E0.01834
G1 X92.074 Y82.637 E0.01834
G1 X92.339 Y82.116 E0.01834
G1 X92.637 Y81.612 E0.01834
G1 X92.966 Y81.128 E0.01834
G1 X93.324 Y80.666 E0.01834
G1 X93.711 Y80.227 E0.01834
G1 X94.125 Y79.814 E0.01834
G1 X94.564 Y79.427 E0.01834
G1 X95.026 Y79.068 E0.01834
G1 X95.510 Y78.739 E0.01834
G1 X96.014 Y78.441 E0.01834
G1 X96.535 Y78.176 E0.01834
G1 X97.072 Y77.943 E0.01834
G1 X97.622 Y77.745 E0.01834
G1 X98.184 Y77.582 E0.01834
G1 X98.755 Y77.454 E0.01834
G1 X99.333 Y77.363 E0.01834
G1 X99.915 Y77.308 E0.01834
G1 X100.509 Y77.289 E0.01863
G1 X175.509 Y77.289 E2.35155
M73 Q0 S171
M73 P0 R169
G1 X176.180 Y77.270 E0.02107
G1 X176.879 Y77.207 E0.02199
G1 X177.529 Y77.112 E0.02062
G1 X178.195 Y76.974 E0.02132
G1 X178.852 Y76.798 E0.02133
G1 X179.518 Y76.576 E0.02199
G1 X180.129 Y76.334 E0.02062
G1 X180.745 Y76.046 E0.02132
G1 X181.344 Y75.724 E0.02132
G1 X181.922 Y75.367 E0.02132
G1 X182.480 Y74.977 E0.02133
G1 X183.029 Y74.540 E0.02199
G1 X183.520 Y74.103 E0.02062
G1 X184.001 Y73.622 E0.02132
G1 X184.453 Y73.115 E0.02132
G1 X184.875 Y72.581 E0.02132
G1 X185.265 Y72.024 E0.02132
G1 X185.622 Y71.446 E0.02132
G1 X185.944 Y70.847 E0.02132
G1 X186.232 Y70.231 E0.02133
G1 X186.489 Y69.579 E0.02199
G1 X186.696 Y68.954 E0.02062
G1 X186.872 Y68.297 E0.02132
G1 X187.010 Y67.631 E0.02133
G1 X187.110 Y66.937 E0.02199
G1 X187.168 Y66.282 E0.02062
G1 X187.187 Y65.611 E0.02105
G1 X187.187 Y35.985 E0.92890
G1 X232.913 Y35.985 E1.43370
G1 X232.913 Y174.015 E4.32784
G1 X205.237 Y174.015 E0.86776
G1 X205.237 Y169.281 E0.14843
G1 X170.963 Y169.281 E1.07464
G1 X170.963 Y174.015 E0.14843
G1 X132.290 Y174.015 E1.21256
G1 X132.291 Y167.447 E0.20594
G1 X128.556 Y167.442 E0.11710
G1 X100.709 Y167.446 E0.87311
G1 X100.710 Y174.015 E0.20596
G1 X79.037 Y174.015 E0.67954
G1 X79.037 Y169.282 E0.14840
G1 X47.441 Y169.282 E0.99068
G1 X44.763 Y169.282 E0.08396
G1 X44.763 Y174.015 E0.14839
G1 X17.087 Y174.015 E0.86776
G1 X17.087 Y36.045 E4.32596
G1 X17.464 Y36.362 F10800.000
G1 F1200
G1 X29.436 Y36.362 E0.37536
G1 X29.436 Y67.818 E0.98628
G1 X29.457 Y68.460 E0.02016
G1 X29.521 Y69.116 E0.02065
G1 X29.629 Y69.766 E0.02065
G1 X29.778 Y70.407 E0.02065
G1 X29.969 Y71.037 E0.02065
G1 X30.201 Y71.654 E0.02065
G1 X30.473 Y72.254 E0.02065
G1 X30.784 Y72.834 E0.02065
G1 X31.132 Y73.395 E0.02068
G1 X31.528 Y73.945 E0.02127
G1 X31.933 Y74.438 E0.02000
G1 X32.383 Y74.919 E0.02065
G1 X32.864 Y75.369 E0.02065
G1 X33.373 Y75.787 E0.02065
G1 X33.908 Y76.171 E0.02065
G1 X34.468 Y76.518 E0.02065
G1 X35.049 Y76.829 E0.02065
G1 X35.648 Y77.101 E0.02065
G1 X36.265 Y77.333 E0.02065
G1 X36.895 Y77.524 E0.02065
G1 X37.536 Y77.673 E0.02065
G1 X38.186 Y77.781 E0.02065
G1 X38.842 Y77.845 E0.02065
G1 X39.484 Y77.866 E0.02016
G1 X41.485 Y77.866 E0.06273
G1 X42.061 Y77.884 E0.01808
G1 X42.620 Y77.937 E0.01760
G1 X43.174 Y78.025 E0.01760
G1 X43.722 Y78.148 E0.01760
G1 X44.261 Y78.304 E0.01760
G1 X44.789 Y78.494 E0.01760
G1 X45.304 Y78.717 E0.01760
G1 X45.805 Y78.972 E0.01760
G1 X46.288 Y79.258 E0.01760
G1 X46.752 Y79.573 E0.01760
G1 X47.196 Y79.917 E0.01760
G1 X47.617 Y80.289 E0.01760
G1 X48.014 Y80.685 E0.01760
G1 X48.384 Y81.106 E0.01757
G1 X48.740 Y81.566 E0.01825
G1 X49.044 Y82.014 E0.01698
G1 X49.330 Y82.498 E0.01760
G1 X49.585 Y82.998 E0.01760
G1 X49.808 Y83.513 E0.01760
G1 X49.998 Y84.041 E0.01760
G1 X50.155 Y84.580 E0.01760
G1 X50.277 Y85.127 E0.01757
G1 X50.367 Y85.702 E0.01825
G1 X50.418 Y86.241 E0.01698
G1 X50.436 Y86.817 E0.01808
G1 X50.436 Y114.866 E0.87946
G1 X91.564 Y114.866 E1.28955
G1 X91.564 Y86.617 E0.88573
G1 X91.582 Y86.041 E0.01808
G1 X91.635 Y85.482 E0.01760
G1 X91.723 Y84.928 E0.01760
G1 X91.845 Y84.380 E0.01760
G1 X92.002 Y83.841 E0.01760
G1 X92.192 Y83.313 E0.01760
G1 X92.415 Y82.798 E0.01760
G1 X92.670 Y82.298 E0.01760
G1 X92.956 Y81.814 E0.01760
G1 X93.271 Y81.350 E0.01760
G1 X93.615 Y80.907 E0.01760
G1 X93.986 Y80.485 E0.01760
G1 X94.383 Y80.089 E0.01760
G1 X94.804 Y79.717 E0.01760
G1 X95.248 Y79.373 E0.01760
G1 X95.712 Y79.058 E0.01760
G1 X96.195 Y78.772 E0.01760
G1 X96.696 Y78.517 E0.01760
G1 X97.211 Y78.294 E0.01760
G1 X97.739 Y78.104 E0.01760
G1 X98.278 Y77.948 E0.01760
G1 X98.826 Y77.825 E0.01760
G1 X99.380 Y77.737 E0.01760
G1 X99.939 Y77.684 E0.01760
G1 X100.515 Y77.666 E0.01808
G1 X175.514 Y77.666 E2.35154
G1 X176.202 Y77.646 E0.02159
G1 X176.923 Y77.582 E0.02268
G1 X177.595 Y77.483 E0.02130
G1 X178.282 Y77.342 E0.02200
G1 X178.961 Y77.160 E0.02203
G1 X179.647 Y76.931 E0.02268
G1 X180.279 Y76.680 E0.02130
G1 X180.915 Y76.383 E0.02200
G1 X181.532 Y76.050 E0.02200
G1 X182.130 Y75.682 E0.02200
G1 X182.705 Y75.279 E0.02203
G1 X183.272 Y74.829 E0.02268
G1 X183.779 Y74.378 E0.02130
G1 X184.275 Y73.881 E0.02200
G1 X184.742 Y73.357 E0.02200
G1 X185.177 Y72.807 E0.02200
G1 X185.580 Y72.232 E0.02200
G1 X185.948 Y71.634 E0.02200
G1 X186.281 Y71.017 E0.02200
G1 X186.578 Y70.380 E0.02203
G1 X186.844 Y69.707 E0.02268
G1 X187.058 Y69.062 E0.02130
G1 X187.239 Y68.384 E0.02200
G1 X187.381 Y67.696 E0.02203
G1 X187.485 Y66.980 E0.02268
G1 X187.544 Y66.304 E0.02130
G1 X187.564 Y65.616 E0.02156
G1 X187.564 Y36.362 E0.91724
G1 X232.536 Y36.362 E1.41006
G1 X232.536 Y173.638 E4.30419
G1 X205.614 Y173.638 E0.84411
G1 X205.614 Y168.904 E0.14843
G1 X170.586 Y168.904 E1.09829
G1 X170.586 Y173.638 E0.14843
G1 X132.667 Y173.638 E1.18892
M73 Q1 S170
M73 P1 R168
G1 X132.668 Y167.070 E0.20592
G1 X128.556 Y167.065 E0.12892
G1 X100.332 Y167.069 E0.88494
G1 X100.333 Y173.638 E0.20595
G1 X79.414 Y173.638 E0.65589
G1 X79.414 Y168.905 E0.14840
G1 X47.441 Y168.904 E1.00251
G1 X44.386 Y168.905 E0.09578
G1 X44.386 Y173.638 E0.14839
G1 X17.464 Y173.638 E0.84411
G1 X17.464 Y36.422 E4.30231
G1 X17.841 Y36.739 F10800.000
G1 F1200
G1 X29.059 Y36.739 E0.35172
G1 X29.059 Y67.824 E0.97465
G1 X29.080 Y68.485 E0.02074
G1 X29.147 Y69.165 E0.02142
G1 X29.259 Y69.839 E0.02142
G1 X29.414 Y70.505 E0.02142
G1 X29.612 Y71.159 E0.02142
G1 X29.853 Y71.798 E0.02142
G1 X30.135 Y72.421 E0.02142
G1 X30.457 Y73.023 E0.02142
G1 X30.819 Y73.605 E0.02147
G1 X31.229 Y74.175 E0.02205
G1 X31.649 Y74.687 E0.02076
G1 X32.116 Y75.186 E0.02142
G1 X32.615 Y75.653 E0.02142
G1 X33.143 Y76.086 E0.02142
G1 X33.699 Y76.484 E0.02142
G1 X34.279 Y76.845 E0.02142
G1 X34.882 Y77.167 E0.02142
G1 X35.504 Y77.449 E0.02142
G1 X36.144 Y77.690 E0.02142
G1 X36.797 Y77.888 E0.02142
G1 X37.463 Y78.043 E0.02142
G1 X38.137 Y78.155 E0.02142
G1 X38.817 Y78.222 E0.02142
G1 X39.478 Y78.243 E0.02074
G1 X41.479 Y78.243 E0.06274
G1 X42.037 Y78.261 E0.01752
G1 X42.573 Y78.312 E0.01686
G1 X43.104 Y78.396 E0.01686
G1 X43.628 Y78.513 E0.01686
G1 X44.145 Y78.663 E0.01686
G1 X44.650 Y78.845 E0.01686
G1 X45.144 Y79.059 E0.01686
G1 X45.623 Y79.303 E0.01686
G1 X46.086 Y79.576 E0.01686
G1 X46.530 Y79.879 E0.01686
G1 X46.955 Y80.208 E0.01686
G1 X47.358 Y80.564 E0.01686
G1 X47.739 Y80.944 E0.01686
G1 X48.093 Y81.346 E0.01681
G1 X48.435 Y81.788 E0.01751
G1 X48.726 Y82.216 E0.01625
G1 X49.000 Y82.679 E0.01686
G1 X49.244 Y83.158 E0.01686
G1 X49.457 Y83.652 E0.01686
G1 X49.639 Y84.158 E0.01686
G1 X49.789 Y84.674 E0.01686
G1 X49.906 Y85.197 E0.01681
G1 X49.992 Y85.749 E0.01751
G1 X50.041 Y86.265 E0.01625
G1 X50.059 Y86.823 E0.01752
G1 X50.059 Y115.243 E0.89109
G1 X91.941 Y115.243 E1.31320
G1 X91.941 Y86.623 E0.89737
G1 X91.959 Y86.065 E0.01752
G1 X92.009 Y85.530 E0.01686
G1 X92.093 Y84.999 E0.01686
G1 X92.211 Y84.474 E0.01686
G1 X92.361 Y83.958 E0.01686
G1 X92.543 Y83.452 E0.01686
G1 X92.756 Y82.958 E0.01686
G1 X93.000 Y82.479 E0.01686
G1 X93.274 Y82.016 E0.01686
G1 X93.576 Y81.572 E0.01686
G1 X93.906 Y81.147 E0.01686
G1 X94.261 Y80.744 E0.01686
G1 X94.642 Y80.364 E0.01686
G1 X95.045 Y80.008 E0.01686
G1 X95.470 Y79.679 E0.01686
G1 X95.914 Y79.376 E0.01686
G1 X96.377 Y79.103 E0.01686
G1 X96.856 Y78.859 E0.01686
G1 X97.350 Y78.645 E0.01686
G1 X97.855 Y78.463 E0.01686
G1 X98.372 Y78.313 E0.01686
G1 X98.896 Y78.196 E0.01686
G1 X99.427 Y78.112 E0.01686
G1 X99.963 Y78.061 E0.01686
G1 X100.521 Y78.043 E0.01752
G1 X175.520 Y78.043 E2.35152
G1 X176.225 Y78.023 E0.02212
G1 X176.967 Y77.957 E0.02337
G1 X177.661 Y77.855 E0.02198
G1 X178.369 Y77.709 E0.02269
G1 X179.070 Y77.521 E0.02273
G1 X179.777 Y77.285 E0.02337
G1 X180.428 Y77.026 E0.02198
G1 X181.084 Y76.721 E0.02269
G1 X181.721 Y76.377 E0.02269
G1 X182.337 Y75.997 E0.02269
G1 X182.931 Y75.581 E0.02273
G1 X183.514 Y75.118 E0.02337
G1 X184.038 Y74.652 E0.02198
G1 X184.550 Y74.140 E0.02269
G1 X185.031 Y73.600 E0.02269
G1 X185.480 Y73.032 E0.02269
G1 X185.895 Y72.439 E0.02269
G1 X186.275 Y71.823 E0.02269
G1 X186.618 Y71.186 E0.02269
G1 X186.925 Y70.529 E0.02273
G1 X187.199 Y69.836 E0.02337
G1 X187.419 Y69.171 E0.02198
G1 X187.606 Y68.471 E0.02269
G1 X187.753 Y67.761 E0.02273
G1 X187.860 Y67.024 E0.02337
G1 X187.921 Y66.326 E0.02198
G1 X187.941 Y65.622 E0.02208
G1 X187.941 Y36.739 E0.90559
G1 X232.159 Y36.739 E1.38641
G1 X232.159 Y173.261 E4.28055
G1 X205.991 Y173.261 E0.82046
G1 X205.991 Y168.527 E0.14843
G1 X170.209 Y168.527 E1.12193
G1 X170.209 Y173.261 E0.14843
G1 X133.044 Y173.261 E1.16527
G1 X133.045 Y166.694 E0.20590
G1 X128.556 Y166.688 E0.14074
G1 X99.955 Y166.692 E0.89677
G1 X99.956 Y173.261 E0.20595
G1 X79.791 Y173.261 E0.63224
G1 X79.791 Y168.528 E0.14840
G1 X47.441 Y168.527 E1.01433
G1 X44.009 Y168.528 E0.10760
