; generated by PrusaSlicer 2.0.0+win64 on 2020-09-17 at 10:59:05

; 

; external perimeters extrusion width = 0.60mm
; perimeters extrusion width = 0.50mm
; infill extrusion width = 0.50mm
; solid infill extrusion width = 0.50mm
; top infill extrusion width = 0.45mm
; first layer extrusion width = 0.42mm

M73 P0 R131
M73 Q0 S131
M201 X1000 Y1000 Z1000 E5000 ; sets maximum accelerations, mm/sec^2
M203 X200 Y200 Z12 E120 ; sets maximum feedrates, mm/sec
M204 P1250 R1250 T1250 ; sets acceleration (P, T) and retract acceleration (R), mm/sec^2
M205 X8.00 Y8.00 Z0.40 E1.50 ; sets the jerk limits, mm/sec
M205 S0 T0 ; sets the minimum extruding and travel feed rate, mm/sec
M107
M115 U3.8.0 ; tell printer latest fw version
G90 ; use absolute coordinates
M83 ; extruder relative mode
M104 S215 ; set extruder temp
M140 S67 ; set bed temp
M190 S67 ; wait for bed temp
M109 S215 ; wait for extruder temp
G28 W ; home all without mesh bed level
G80 ; mesh bed leveling
G1 Y-3.0 F1000.0 ; go outside print area
G92 E0.0
G1 X60.0 E9.0 F1000.0 ; intro line
M73 Q0 S131
M73 P0 R130
G1 X100.0 E12.5 F1000.0 ; intro line
G92 E0.0
M221 S95
M900 K30 ; Filament gcode
G21 ; set units to millimeters
G90 ; use absolute coordinates
M83 ; use relative distances for extrusion
;BEFORE_LAYER_CHANGE
G92 E0.0
;0.2


G1 E-0.80000 F2100.00000
G1 Z0.600 F10800.000
;AFTER_LAYER_CHANGE
;0.2
G1 X58.457 Y64.205
G1 Z0.200
G1 E0.80000 F2100.00000
M204 S1000
G1 F1200
G1 X76.007 Y64.205 E0.55027
G1 X76.007 Y59.005 E0.16304
G1 X90.243 Y59.005 E0.44638
G1 X90.243 Y45.705 E0.41701
G1 X174.475 Y45.705 E2.64103
G1 X174.475 Y59.005 E0.41701
G1 X183.335 Y59.005 E0.27780
G1 X183.335 Y145.333 E2.70676
G1 X76.007 Y145.333 E3.36520
G1 X76.007 Y142.133 E0.10033
G1 X58.457 Y142.133 E0.55027
G1 X58.457 Y130.205 E0.37400
G1 X76.007 Y130.205 E0.55027
G1 X76.007 Y76.133 E1.69538
G1 X58.457 Y76.133 E0.55027
G1 X58.457 Y64.265 E0.37212
G1 F8640
G1 X61.748 Y64.253 E-0.76000
G1 E-0.04000 F2100.00000
G1 Z0.800 F10800.000
G1 X90.620 Y46.082
G1 Z0.200
G1 E0.80000 F2100.00000
G1 F1200
G1 X174.098 Y46.082 E2.61738
G1 X174.098 Y59.382 E0.41701
G1 X182.958 Y59.382 E0.27780
G1 X182.958 Y144.956 E2.68312
G1 X76.384 Y144.956 E3.34156
G1 X76.384 Y59.382 E2.68312
G1 X90.620 Y59.382 E0.44638
G1 X90.620 Y46.142 E0.41513
G1 X90.997 Y46.459 F10800.000
G1 F1200
G1 X173.721 Y46.459 E2.59374
G1 X173.721 Y59.759 E0.41701
G1 X182.581 Y59.759 E0.27780
G1 X182.581 Y144.579 E2.65947
G1 X76.761 Y144.579 E3.31791
M73 Q0 S130
M73 P0 R129
G1 X76.761 Y59.759 E2.65947
G1 X90.997 Y59.759 E0.44638
G1 X90.997 Y46.519 E0.41513
G1 X91.105 Y46.074 F10800.000
G1 F8640
G1 X94.289 Y46.516 E-0.76000
G1 E-0.04000 F2100.00000
G1 Z0.800 F10800.000
G1 X76.008 Y64.582
G1 Z0.200
G1 E0.80000 F2100.00000
G1 F1200
G1 X76.008 Y75.756 E0.35036
G1 X58.834 Y75.756 E0.53848
G1 X58.834 Y64.582 E0.35036
G1 X75.948 Y64.582 E0.53660
G1 X75.631 Y64.959 F10800.000
G1 F1200
G1 X75.631 Y75.379 E0.32671
G1 X59.211 Y75.379 E0.51484
G1 X59.211 Y64.959 E0.32671
G1 X75.571 Y64.959 E0.51296
G1 X76.024 Y64.884 F10800.000
G1 F8640
G1 X75.590 Y68.250 E-0.76000
G1 E-0.04000 F2100.00000
G1 Z0.800 F10800.000
G1 X58.834 Y130.582
G1 Z0.200
G1 E0.80000 F2100.00000
G1 F1200
G1 X76.008 Y130.582 E0.53848
G1 X76.008 Y141.756 E0.35036
G1 X58.834 Y141.756 E0.53848
G1 X58.834 Y130.642 E0.34848
G1 X59.211 Y130.959 F10800.000
G1 F1200
G1 X75.631 Y130.959 E0.51484
G1 X75.631 Y141.379 E0.32671
G1 X59.211 Y141.379 E0.51484
G1 X59.211 Y131.019 E0.32483
G1 X59.079 Y130.581 F10800.000
G1 F8640
G1 X62.502 Y131.007 E-0.76000
G1 E-0.04000 F2100.00000
G1 Z0.800 F10800.000
G1 X184.079 Y129.828
G1 Z0.200
G1 E0.80000 F2100.00000
G1 F1200
G1 X202.762 Y129.828 E0.58578
G1 X202.762 Y142.510 E0.39765
G1 X184.079 Y142.510 E0.58578
G1 X184.079 Y129.888 E0.39577
G1 X184.457 Y130.205 F10800.000
G1 F1200
G1 X202.385 Y130.205 E0.56213
G1 X202.385 Y142.133 E0.37400
G1 X184.457 Y142.133 E0.56213
G1 X184.457 Y130.265 E0.37212
G1 X184.834 Y130.582 F10800.000
G1 F1200
G1 X202.008 Y130.582 E0.53848
G1 X202.008 Y141.756 E0.35036
G1 X184.834 Y141.756 E0.53848
G1 X184.834 Y130.642 E0.34848
G1 X185.211 Y130.959 F10800.000
G1 F1200
G1 X201.631 Y130.959 E0.51484
G1 X201.631 Y141.379 E0.32671
G1 X185.211 Y141.379 E0.51484
G1 X185.211 Y131.019 E0.32483
G1 X185.079 Y130.581 F10800.000
G1 F8640
G1 X188.502 Y131.007 E-0.76000
G1 E-0.04000 F2100.00000
G1 Z0.800 F10800.000
G1 X184.079 Y63.828
G1 Z0.200
G1 E0.80000 F2100.00000
G1 F1200
G1 X202.762 Y63.828 E0.58578
G1 X202.762 Y76.510 E0.39765
G1 X184.079 Y76.510 E0.58578
G1 X184.079 Y63.888 E0.39577
G1 X184.457 Y64.205 F10800.000
G1 F1200
G1 X202.385 Y64.205 E0.56213
G1 X202.385 Y76.133 E0.37400
G1 X184.457 Y76.133 E0.56213
G1 X184.457 Y64.265 E0.37212
G1 X184.834 Y64.582 F10800.000
G1 F1200
G1 X202.008 Y64.582 E0.53848
G1 X202.008 Y75.756 E0.35036
G1 X184.834 Y75.756 E0.53848
G1 X184.834 Y64.642 E0.34848
G1 X185.211 Y64.959 F10800.000
G1 F1200
G1 X201.631 Y64.959 E0.51484
G1 X201.631 Y75.379 E0.32671
G1 X185.211 Y75.379 E0.51484
G1 X185.211 Y65.019 E0.32483
G1 X185.079 Y64.581 F10800.000
G1 F8640
G1 X188.502 Y65.007 E-0.76000
G1 E-0.04000 F2100.00000
G1 Z0.800 F10800.000
G1 X75.629 Y58.628
G1 Z0.200
G1 E0.80000 F2100.00000
G1 F1200
G1 X75.629 Y63.828 E0.16304
G1 X58.079 Y63.828 E0.55027
G1 X58.079 Y76.510 E0.39765
G1 X75.629 Y76.510 E0.55027
G1 X75.629 Y129.828 E1.67173
G1 X58.079 Y129.828 E0.55027
G1 X58.079 Y142.510 E0.39765
G1 X75.629 Y142.510 E0.55027
G1 X75.629 Y145.710 E0.10033
G1 X183.712 Y145.710 E3.38885
G1 X183.712 Y58.628 E2.73041
M73 Q1 S129
M73 P1 R128
G1 X174.852 Y58.628 E0.27780
G1 X174.852 Y46.011 E0.39558
G1 X219.933 Y46.012 E1.41348
G1 X220.568 Y46.035 E0.01992
G1 X221.211 Y46.108 E0.02030
G1 X221.847 Y46.228 E0.02030
G1 X222.473 Y46.396 E0.02030
G1 X223.084 Y46.610 E0.02030
G1 X223.677 Y46.868 E0.02030
G1 X224.250 Y47.171 E0.02030
G1 X224.798 Y47.515 E0.02030
G1 X225.319 Y47.900 E0.02030
G1 X225.810 Y48.322 E0.02030
G1 X226.267 Y48.780 E0.02030
G1 X226.690 Y49.271 E0.02030
G1 X227.074 Y49.792 E0.02030
G1 X227.419 Y50.340 E0.02030
G1 X227.721 Y50.912 E0.02030
G1 X227.979 Y51.504 E0.02022
G1 X228.203 Y52.151 E0.02147
G1 X228.361 Y52.742 E0.01920
G1 X228.482 Y53.379 E0.02030
G1 X228.554 Y54.022 E0.02030
G1 X228.579 Y54.694 E0.02109
G1 X228.579 Y150.444 E3.00217
G1 X228.554 Y151.116 E0.02109
G1 X228.482 Y151.759 E0.02030
G1 X228.361 Y152.395 E0.02030
G1 X228.194 Y153.021 E0.02030
G1 X227.980 Y153.632 E0.02030
G1 X227.721 Y154.225 E0.02030
G1 X227.419 Y154.798 E0.02030
G1 X227.074 Y155.346 E0.02030
G1 X226.690 Y155.867 E0.02030
G1 X226.267 Y156.358 E0.02030
G1 X225.810 Y156.816 E0.02030
G1 X225.319 Y157.238 E0.02030
G1 X224.798 Y157.622 E0.02030
G1 X224.250 Y157.967 E0.02030
G1 X223.677 Y158.269 E0.02030
G1 X223.084 Y158.528 E0.02030
G1 X222.473 Y158.742 E0.02030
G1 X221.847 Y158.910 E0.02030
G1 X221.211 Y159.030 E0.02030
G1 X220.568 Y159.102 E0.02030
G1 X219.896 Y159.128 E0.02109
G1 X40.946 Y159.128 E5.61085
G1 X40.274 Y159.102 E0.02109
G1 X39.630 Y159.030 E0.02030
G1 X38.994 Y158.910 E0.02030
G1 X38.369 Y158.742 E0.02030
G1 X37.758 Y158.528 E0.02030
G1 X37.164 Y158.269 E0.02030
G1 X36.592 Y157.967 E0.02030
G1 X36.044 Y157.622 E0.02030
G1 X35.523 Y157.238 E0.02030
G1 X35.032 Y156.816 E0.02030
G1 X34.574 Y156.358 E0.02030
G1 X34.152 Y155.867 E0.02030
G1 X33.767 Y155.346 E0.02030
G1 X33.423 Y154.798 E0.02030
G1 X33.120 Y154.225 E0.02030
G1 X32.861 Y153.632 E0.02030
G1 X32.648 Y153.021 E0.02030
G1 X32.480 Y152.395 E0.02030
G1 X32.360 Y151.759 E0.02030
G1 X32.287 Y151.116 E0.02030
G1 X32.262 Y150.444 E0.02109
G1 X32.262 Y54.694 E3.00217
G1 X32.287 Y54.022 E0.02109
G1 X32.360 Y53.378 E0.02030
G1 X32.480 Y52.742 E0.02030
G1 X32.648 Y52.117 E0.02030
G1 X32.861 Y51.506 E0.02030
G1 X33.120 Y50.912 E0.02030
G1 X33.423 Y50.340 E0.02030
G1 X33.767 Y49.792 E0.02030
G1 X34.152 Y49.271 E0.02030
G1 X34.574 Y48.780 E0.02030
G1 X35.032 Y48.322 E0.02030
G1 X35.523 Y47.900 E0.02030
G1 X36.044 Y47.515 E0.02030
G1 X36.592 Y47.171 E0.02030
G1 X37.164 Y46.868 E0.02030
G1 X37.758 Y46.610 E0.02030
G1 X38.369 Y46.396 E0.02030
G1 X38.994 Y46.228 E0.02030
G1 X39.630 Y46.108 E0.02030
G1 X40.274 Y46.035 E0.02030
G1 X40.946 Y46.010 E0.02109
G1 X89.866 Y46.010 E1.53386
G1 X89.866 Y58.628 E0.39560
G1 X75.689 Y58.628 E0.44450
G1 F8640
G1 X75.651 Y61.919 E-0.76000
G1 E-0.04000 F2100.00000
G1 Z0.800 F10800.000
G1 X75.690 Y45.633
G1 Z0.200
G1 E0.80000 F2100.00000
G1 F1200
G1 X219.940 Y45.634 E4.52287
G1 X220.596 Y45.659 E0.02058
G1 X221.267 Y45.735 E0.02119
G1 X221.931 Y45.860 E0.02119
G1 X222.584 Y46.035 E0.02119
G1 X223.222 Y46.258 E0.02119
G1 X223.841 Y46.528 E0.02119
G1 X224.438 Y46.844 E0.02119
G1 X225.010 Y47.204 E0.02119
G1 X225.554 Y47.605 E0.02118
G1 X226.066 Y48.046 E0.02119
G1 X226.544 Y48.523 E0.02119
G1 X226.985 Y49.036 E0.02118
G1 X227.386 Y49.579 E0.02118
G1 X227.745 Y50.151 E0.02119
G1 X228.061 Y50.749 E0.02119
G1 X228.331 Y51.366 E0.02113
G1 X228.564 Y52.040 E0.02235
G1 X228.729 Y52.658 E0.02007
G1 X228.855 Y53.322 E0.02119
G1 X228.931 Y53.994 E0.02119
G1 X228.957 Y54.687 E0.02175
G1 X228.957 Y150.451 E3.00261
G1 X228.931 Y151.144 E0.02175
G1 X228.855 Y151.815 E0.02119
G1 X228.729 Y152.479 E0.02119
G1 X228.554 Y153.132 E0.02119
G1 X228.331 Y153.770 E0.02118
G1 X228.061 Y154.389 E0.02118
G1 X227.745 Y154.986 E0.02119
G1 X227.386 Y155.559 E0.02119
G1 X226.985 Y156.102 E0.02118
G1 X226.544 Y156.614 E0.02118
G1 X226.066 Y157.092 E0.02119
G1 X225.554 Y157.533 E0.02119
G1 X225.010 Y157.934 E0.02118
G1 X224.438 Y158.294 E0.02119
G1 X223.841 Y158.609 E0.02119
G1 X223.222 Y158.879 E0.02118
G1 X222.584 Y159.103 E0.02119
G1 X221.931 Y159.278 E0.02118
G1 X221.267 Y159.403 E0.02119
G1 X220.596 Y159.479 E0.02119
G1 X219.903 Y159.505 E0.02175
G1 X40.939 Y159.505 E5.61129
G1 X40.246 Y159.479 E0.02175
G1 X39.574 Y159.403 E0.02119
G1 X38.910 Y159.278 E0.02119
G1 X38.258 Y159.103 E0.02119
G1 X37.620 Y158.879 E0.02119
G1 X37.000 Y158.609 E0.02118
G1 X36.403 Y158.294 E0.02119
G1 X35.831 Y157.934 E0.02119
G1 X35.287 Y157.533 E0.02119
G1 X34.775 Y157.092 E0.02119
G1 X34.297 Y156.614 E0.02119
G1 X33.857 Y156.102 E0.02119
G1 X33.455 Y155.559 E0.02119
G1 X33.096 Y154.986 E0.02119
G1 X32.780 Y154.389 E0.02119
G1 X32.510 Y153.770 E0.02119
G1 X32.287 Y153.132 E0.02119
G1 X32.112 Y152.479 E0.02119
G1 X31.986 Y151.816 E0.02118
G1 X31.911 Y151.144 E0.02119
G1 X31.885 Y150.451 E0.02175
G1 X31.885 Y54.687 E3.00261
G1 X31.911 Y53.994 E0.02175
G1 X31.986 Y53.322 E0.02119
G1 X32.112 Y52.658 E0.02118
G1 X32.287 Y52.006 E0.02119
G1 X32.510 Y51.368 E0.02119
G1 X32.780 Y50.749 E0.02118
G1 X33.096 Y50.151 E0.02119
G1 X33.455 Y49.579 E0.02119
G1 X33.857 Y49.036 E0.02119
G1 X34.297 Y48.523 E0.02119
G1 X34.775 Y48.046 E0.02119
G1 X35.287 Y47.605 E0.02119
G1 X35.831 Y47.204 E0.02119
G1 X36.403 Y46.844 E0.02119
G1 X37.000 Y46.528 E0.02119
G1 X37.620 Y46.258 E0.02119
G1 X38.258 Y46.035 E0.02119
G1 X38.910 Y45.860 E0.02119
G1 X39.574 Y45.735 E0.02119
G1 X40.246 Y45.659 E0.02119
G1 X40.939 Y45.633 E0.02175
G1 X75.630 Y45.633 E1.08771
G1 X75.630 Y45.256 F10800.000
G1 F1200
G1 X219.947 Y45.257 E4.52497
M73 Q2 S128
M73 P2 R127
G1 X220.624 Y45.283 E0.02124
G1 X221.324 Y45.361 E0.02207
G1 X222.015 Y45.492 E0.02207
G1 X222.695 Y45.675 E0.02207
G1 X223.359 Y45.907 E0.02207
G1 X224.005 Y46.188 E0.02207
G1 X224.627 Y46.517 E0.02207
G1 X225.223 Y46.892 E0.02207
G1 X225.789 Y47.310 E0.02207
G1 X226.323 Y47.769 E0.02207
G1 X226.821 Y48.267 E0.02207
G1 X227.280 Y48.800 E0.02207
G1 X227.698 Y49.367 E0.02207
G1 X228.072 Y49.963 E0.02207
G1 X228.401 Y50.585 E0.02207
G1 X228.682 Y51.229 E0.02204
G1 X228.924 Y51.930 E0.02324
G1 X229.097 Y52.574 E0.02093
G1 X229.228 Y53.266 E0.02207
G1 X229.307 Y53.965 E0.02207
G1 X229.334 Y54.680 E0.02241
G1 X229.334 Y150.458 E3.00305
G1 X229.307 Y151.172 E0.02241
G1 X229.228 Y151.872 E0.02207
G1 X229.097 Y152.563 E0.02207
G1 X228.915 Y153.243 E0.02207
G1 X228.683 Y153.908 E0.02207
G1 X228.401 Y154.553 E0.02207
G1 X228.072 Y155.175 E0.02207
G1 X227.698 Y155.771 E0.02207
G1 X227.280 Y156.337 E0.02207
G1 X226.821 Y156.871 E0.02207
G1 X226.323 Y157.369 E0.02207
G1 X225.789 Y157.828 E0.02207
G1 X225.223 Y158.246 E0.02207
G1 X224.627 Y158.620 E0.02207
G1 X224.005 Y158.949 E0.02207
G1 X223.359 Y159.231 E0.02207
G1 X222.695 Y159.463 E0.02207
G1 X222.015 Y159.645 E0.02207
G1 X221.324 Y159.776 E0.02207
G1 X220.624 Y159.855 E0.02207
G1 X219.910 Y159.882 E0.02241
G1 X40.932 Y159.882 E5.61173
G1 X40.217 Y159.855 E0.02241
G1 X39.518 Y159.776 E0.02207
G1 X38.826 Y159.645 E0.02207
G1 X38.146 Y159.463 E0.02207
G1 X37.482 Y159.231 E0.02207
G1 X36.837 Y158.949 E0.02207
G1 X36.214 Y158.620 E0.02207
G1 X35.618 Y158.246 E0.02207
G1 X35.052 Y157.828 E0.02207
G1 X34.519 Y157.369 E0.02207
G1 X34.021 Y156.871 E0.02207
G1 X33.562 Y156.337 E0.02207
G1 X33.144 Y155.771 E0.02207
G1 X32.769 Y155.175 E0.02207
G1 X32.440 Y154.553 E0.02207
G1 X32.159 Y153.908 E0.02207
G1 X31.926 Y153.243 E0.02207
G1 X31.744 Y152.563 E0.02207
G1 X31.613 Y151.872 E0.02207
G1 X31.535 Y151.172 E0.02207
G1 X31.508 Y150.458 E0.02241
G1 X31.508 Y54.680 E3.00305
G1 X31.535 Y53.965 E0.02241
G1 X31.613 Y53.266 E0.02207
G1 X31.744 Y52.574 E0.02207
G1 X31.926 Y51.894 E0.02207
G1 X32.159 Y51.230 E0.02207
G1 X32.440 Y50.585 E0.02207
G1 X32.769 Y49.963 E0.02207
G1 X33.144 Y49.367 E0.02207
G1 X33.562 Y48.800 E0.02207
G1 X34.021 Y48.267 E0.02207
G1 X34.519 Y47.769 E0.02207
G1 X35.052 Y47.310 E0.02207
G1 X35.618 Y46.892 E0.02207
G1 X36.214 Y46.517 E0.02207
G1 X36.837 Y46.188 E0.02207
G1 X37.482 Y45.907 E0.02207
G1 X38.146 Y45.675 E0.02207
G1 X38.826 Y45.492 E0.02207
G1 X39.518 Y45.361 E0.02207
G1 X40.217 Y45.283 E0.02207
G1 X40.932 Y45.256 E0.02241
G1 X75.570 Y45.256 E1.08605
G1 X75.570 Y44.879 F10800.000
G1 F1200
G1 X219.954 Y44.880 E4.52708
G1 X220.652 Y44.906 E0.02191
G1 X221.380 Y44.988 E0.02295
G1 X222.099 Y45.124 E0.02296
G1 X222.806 Y45.314 E0.02295
G1 X223.497 Y45.556 E0.02295
G1 X224.168 Y45.849 E0.02295
G1 X224.816 Y46.191 E0.02295
G1 X225.436 Y46.580 E0.02296
G1 X226.025 Y47.015 E0.02295
G1 X226.579 Y47.492 E0.02295
G1 X227.097 Y48.010 E0.02295
G1 X227.575 Y48.565 E0.02295
G1 X228.009 Y49.154 E0.02295
G1 X228.399 Y49.774 E0.02295
G1 X228.741 Y50.421 E0.02296
G1 X229.034 Y51.092 E0.02294
G1 X229.285 Y51.819 E0.02412
G1 X229.465 Y52.490 E0.02179
G1 X229.601 Y53.210 E0.02295
G1 X229.683 Y53.937 E0.02295
G1 X229.711 Y54.673 E0.02308
G1 X229.711 Y150.465 E3.00350
G1 X229.683 Y151.200 E0.02308
G1 X229.601 Y151.928 E0.02295
G1 X229.465 Y152.647 E0.02295
G1 X229.276 Y153.354 E0.02295
G1 X229.034 Y154.046 E0.02295
G1 X228.741 Y154.717 E0.02295
G1 X228.399 Y155.364 E0.02296
G1 X228.009 Y155.984 E0.02295
G1 X227.575 Y156.573 E0.02295
G1 X227.097 Y157.128 E0.02295
G1 X226.579 Y157.645 E0.02295
G1 X226.025 Y158.123 E0.02295
G1 X225.436 Y158.558 E0.02295
G1 X224.816 Y158.947 E0.02296
G1 X224.168 Y159.289 E0.02296
G1 X223.497 Y159.582 E0.02295
G1 X222.806 Y159.824 E0.02295
G1 X222.099 Y160.013 E0.02295
G1 X221.380 Y160.149 E0.02296
G1 X220.652 Y160.231 E0.02295
G1 X219.917 Y160.259 E0.02308
G1 X40.925 Y160.259 E5.61217
G1 X40.189 Y160.231 E0.02308
G1 X39.462 Y160.149 E0.02295
G1 X38.742 Y160.013 E0.02295
G1 X38.035 Y159.824 E0.02296
G1 X37.344 Y159.582 E0.02295
G1 X36.673 Y159.289 E0.02295
G1 X36.026 Y158.947 E0.02295
G1 X35.406 Y158.558 E0.02295
G1 X34.817 Y158.123 E0.02295
G1 X34.262 Y157.645 E0.02295
G1 X33.744 Y157.128 E0.02295
G1 X33.267 Y156.573 E0.02295
G1 X32.832 Y155.984 E0.02295
G1 X32.442 Y155.364 E0.02295
G1 X32.100 Y154.717 E0.02295
G1 X31.808 Y154.046 E0.02295
G1 X31.566 Y153.354 E0.02295
G1 X31.376 Y152.647 E0.02295
G1 X31.240 Y151.928 E0.02295
G1 X31.158 Y151.200 E0.02295
G1 X31.131 Y150.465 E0.02308
G1 X31.131 Y54.673 E3.00350
G1 X31.158 Y53.937 E0.02308
G1 X31.240 Y53.210 E0.02295
G1 X31.376 Y52.490 E0.02295
G1 X31.566 Y51.783 E0.02295
G1 X31.808 Y51.092 E0.02295
G1 X32.100 Y50.421 E0.02295
G1 X32.442 Y49.774 E0.02295
G1 X32.832 Y49.154 E0.02295
G1 X33.267 Y48.565 E0.02295
G1 X33.744 Y48.010 E0.02295
G1 X34.262 Y47.492 E0.02295
G1 X34.817 Y47.015 E0.02295
G1 X35.406 Y46.580 E0.02295
G1 X36.026 Y46.191 E0.02295
