; generated by PrusaSlicer 2.0.0+win64 on 2020-09-17 at 15:19:58

; 

; external perimeters extrusion width = 0.60mm
; perimeters extrusion width = 0.50mm
; infill extrusion width = 0.50mm
; solid infill extrusion width = 0.50mm
; top infill extrusion width = 0.45mm
; first layer extrusion width = 0.42mm

M73 P0 R95
M73 Q0 S96
M201 X1000 Y1000 Z1000 E5000 ; sets maximum accelerations, mm/sec^2
M203 X200 Y200 Z12 E120 ; sets maximum feedrates, mm/sec
M204 P1250 R1250 T1250 ; sets acceleration (P, T) and retract acceleration (R), mm/sec^2
M205 X8.00 Y8.00 Z0.40 E1.50 ; sets the jerk limits, mm/sec
M205 S0 T0 ; sets the minimum extruding and travel feed rate, mm/sec
M107
M115 U3.8.0 ; tell printer latest fw version
G90 ; use absolute coordinates
M83 ; extruder relative mode
M104 S215 ; set extruder temp
M140 S67 ; set bed temp
M190 S67 ; wait for bed temp
M109 S215 ; wait for extruder temp
G28 W ; home all without mesh bed level
G80 ; mesh bed leveling
G1 Y-3.0 F1000.0 ; go outside print area
G92 E0.0
G1 X60.0 E9.0 F1000.0 ; intro line
M73 Q0 S96
M73 P0 R95
G1 X100.0 E12.5 F1000.0 ; intro line
G92 E0.0
M221 S95
M900 K30 ; Filament gcode
G21 ; set units to millimeters
G90 ; use absolute coordinates
M83 ; use relative distances for extrusion
;BEFORE_LAYER_CHANGE
G92 E0.0
;0.2


G1 E-0.80000 F2100.00000
G1 Z0.600 F10800.000
;AFTER_LAYER_CHANGE
;0.2
G1 X159.294 Y137.819
G1 Z0.200
G1 E0.80000 F2100.00000
M204 S1000
G1 F1200
G1 X159.539 Y137.539 E0.01166
G1 X159.819 Y137.294 E0.01166
G1 X160.128 Y137.087 E0.01167
G1 X160.462 Y136.922 E0.01167
G1 X160.814 Y136.803 E0.01166
G1 X161.179 Y136.730 E0.01166
G1 X161.536 Y136.707 E0.01123
G1 X161.917 Y136.729 E0.01197
G1 X162.286 Y136.803 E0.01180
G1 X162.638 Y136.922 E0.01166
G1 X162.972 Y137.087 E0.01167
G1 X163.281 Y137.294 E0.01167
G1 X163.561 Y137.539 E0.01166
G1 X163.806 Y137.819 E0.01166
G1 X164.013 Y138.128 E0.01167
G1 X164.178 Y138.462 E0.01167
G1 X164.297 Y138.814 E0.01166
G1 X164.370 Y139.179 E0.01166
G1 X164.394 Y139.550 E0.01166
G1 X164.370 Y139.921 E0.01166
G1 X164.297 Y140.286 E0.01166
G1 X164.178 Y140.638 E0.01166
G1 X164.013 Y140.972 E0.01167
G1 X163.806 Y141.281 E0.01167
G1 X163.561 Y141.561 E0.01166
G1 X163.281 Y141.806 E0.01166
G1 X162.972 Y142.013 E0.01167
G1 X162.638 Y142.178 E0.01167
G1 X162.286 Y142.297 E0.01166
G1 X161.921 Y142.370 E0.01166
G1 X161.550 Y142.394 E0.01166
G1 X161.179 Y142.370 E0.01166
G1 X160.814 Y142.297 E0.01166
G1 X160.462 Y142.178 E0.01166
G1 X160.128 Y142.013 E0.01167
G1 X159.819 Y141.806 E0.01167
G1 X159.539 Y141.561 E0.01166
G1 X159.294 Y141.281 E0.01166
G1 X159.087 Y140.972 E0.01167
G1 X158.922 Y140.638 E0.01167
G1 X158.803 Y140.286 E0.01166
G1 X158.730 Y139.921 E0.01166
G1 X158.706 Y139.550 E0.01166
G1 X158.730 Y139.179 E0.01166
G1 X158.803 Y138.814 E0.01166
G1 X158.922 Y138.462 E0.01166
G1 X159.087 Y138.128 E0.01167
G1 X159.260 Y137.868 E0.00978
G1 X159.574 Y138.078 F10800.000
G1 F1200
G1 X159.806 Y137.806 E0.01121
G1 X160.049 Y137.593 E0.01011
G1 X160.317 Y137.414 E0.01012
G1 X160.606 Y137.271 E0.01012
G1 X160.912 Y137.168 E0.01011
G1 X161.228 Y137.105 E0.01011
G1 X161.537 Y137.085 E0.00971
G1 X161.869 Y137.104 E0.01042
G1 X162.188 Y137.168 E0.01021
G1 X162.494 Y137.271 E0.01011
G1 X162.783 Y137.414 E0.01012
G1 X163.051 Y137.593 E0.01012
G1 X163.294 Y137.806 E0.01011
G1 X163.507 Y138.049 E0.01011
G1 X163.686 Y138.317 E0.01012
G1 X163.829 Y138.606 E0.01012
G1 X163.932 Y138.912 E0.01011
G1 X163.995 Y139.228 E0.01011
G1 X164.016 Y139.550 E0.01012
G1 X163.995 Y139.872 E0.01012
G1 X163.932 Y140.188 E0.01011
G1 X163.829 Y140.494 E0.01011
G1 X163.686 Y140.783 E0.01012
G1 X163.507 Y141.051 E0.01012
G1 X163.294 Y141.294 E0.01011
G1 X163.051 Y141.507 E0.01011
G1 X162.783 Y141.686 E0.01012
G1 X162.494 Y141.829 E0.01012
G1 X162.188 Y141.932 E0.01011
G1 X161.872 Y141.995 E0.01011
G1 X161.550 Y142.016 E0.01012
G1 X161.228 Y141.995 E0.01012
G1 X160.912 Y141.932 E0.01011
G1 X160.606 Y141.829 E0.01011
G1 X160.317 Y141.686 E0.01012
G1 X160.049 Y141.507 E0.01012
G1 X159.806 Y141.294 E0.01011
G1 X159.593 Y141.051 E0.01011
G1 X159.414 Y140.783 E0.01012
G1 X159.271 Y140.494 E0.01012
G1 X159.168 Y140.188 E0.01011
G1 X159.105 Y139.872 E0.01011
G1 X159.084 Y139.550 E0.01012
G1 X159.105 Y139.228 E0.01012
G1 X159.168 Y138.912 E0.01011
G1 X159.271 Y138.606 E0.01011
G1 X159.414 Y138.317 E0.01012
G1 X159.540 Y138.128 E0.00713
G1 X159.854 Y138.337 F10800.000
G1 F1200
G1 X160.073 Y138.073 E0.01076
G1 X160.279 Y137.893 E0.00856
G1 X160.506 Y137.741 E0.00857
G1 X160.751 Y137.621 E0.00857
G1 X161.010 Y137.533 E0.00857
G1 X161.277 Y137.480 E0.00856
G1 X161.538 Y137.462 E0.00820
G1 X161.821 Y137.479 E0.00887
G1 X162.090 Y137.533 E0.00862
G1 X162.349 Y137.621 E0.00857
G1 X162.594 Y137.741 E0.00857
G1 X162.821 Y137.893 E0.00857
G1 X163.027 Y138.073 E0.00856
G1 X163.207 Y138.279 E0.00856
G1 X163.359 Y138.506 E0.00857
G1 X163.479 Y138.751 E0.00857
G1 X163.567 Y139.010 E0.00857
G1 X163.620 Y139.277 E0.00856
G1 X163.638 Y139.550 E0.00857
G1 X163.620 Y139.823 E0.00857
G1 X163.567 Y140.090 E0.00856
G1 X163.479 Y140.349 E0.00857
G1 X163.359 Y140.594 E0.00857
G1 X163.207 Y140.821 E0.00857
G1 X163.027 Y141.027 E0.00856
G1 X162.821 Y141.207 E0.00856
G1 X162.594 Y141.359 E0.00857
G1 X162.349 Y141.479 E0.00857
G1 X162.090 Y141.567 E0.00857
G1 X161.823 Y141.620 E0.00856
G1 X161.550 Y141.638 E0.00857
G1 X161.277 Y141.620 E0.00857
G1 X161.010 Y141.567 E0.00856
G1 X160.751 Y141.479 E0.00857
G1 X160.506 Y141.359 E0.00857
G1 X160.279 Y141.207 E0.00857
G1 X160.073 Y141.027 E0.00856
G1 X159.893 Y140.821 E0.00856
G1 X159.741 Y140.594 E0.00857
G1 X159.621 Y140.349 E0.00857
G1 X159.533 Y140.090 E0.00857
G1 X159.480 Y139.823 E0.00856
G1 X159.462 Y139.550 E0.00857
G1 X159.480 Y139.277 E0.00857
G1 X159.533 Y139.010 E0.00856
G1 X159.621 Y138.751 E0.00857
G1 X159.821 Y138.387 E0.01301
G1 X160.134 Y138.597 F10800.000
G1 F1200
G1 X160.341 Y138.341 E0.01031
G1 X160.509 Y138.193 E0.00701
G1 X160.695 Y138.069 E0.00702
G1 X160.895 Y137.970 E0.00702
G1 X161.107 Y137.898 E0.00702
G1 X161.327 Y137.854 E0.00701
G1 X161.540 Y137.840 E0.00669
G1 X161.773 Y137.854 E0.00732
G1 X161.993 Y137.898 E0.00704
G1 X162.205 Y137.970 E0.00702
G1 X162.405 Y138.069 E0.00702
G1 X162.591 Y138.193 E0.00702
G1 X162.759 Y138.341 E0.00701
G1 X162.907 Y138.509 E0.00701
G1 X163.031 Y138.695 E0.00702
G1 X163.130 Y138.895 E0.00702
G1 X163.202 Y139.107 E0.00702
G1 X163.246 Y139.327 E0.00701
G1 X163.260 Y139.550 E0.00702
G1 X163.246 Y139.773 E0.00702
G1 X163.202 Y139.993 E0.00701
G1 X163.130 Y140.205 E0.00702
G1 X163.031 Y140.405 E0.00702
G1 X162.907 Y140.591 E0.00702
G1 X162.759 Y140.759 E0.00701
G1 X162.591 Y140.907 E0.00701
G1 X162.405 Y141.031 E0.00702
G1 X162.205 Y141.130 E0.00702
G1 X161.993 Y141.202 E0.00702
G1 X161.773 Y141.246 E0.00701
G1 X161.550 Y141.260 E0.00702
G1 X161.327 Y141.246 E0.00702
G1 X161.107 Y141.202 E0.00701
G1 X160.895 Y141.130 E0.00702
G1 X160.695 Y141.031 E0.00702
G1 X160.509 Y140.907 E0.00702
G1 X160.341 Y140.759 E0.00701
G1 X160.193 Y140.591 E0.00701
G1 X160.069 Y140.405 E0.00702
G1 X159.970 Y140.205 E0.00702
G1 X159.898 Y139.993 E0.00702
G1 X159.854 Y139.773 E0.00701
G1 X159.840 Y139.550 E0.00702
G1 X159.854 Y139.327 E0.00702
G1 X159.898 Y139.107 E0.00701
G1 X159.970 Y138.895 E0.00702
G1 X160.101 Y138.647 E0.00882
G1 X159.991 Y138.301 F10800.000
G1 F8640
G1 X160.341 Y138.341 E-0.08976
G1 X160.509 Y138.193 E-0.05166
G1 X160.695 Y138.069 E-0.05166
G1 X160.895 Y137.970 E-0.05166
G1 X161.107 Y137.898 E-0.05166
G1 X161.327 Y137.854 E-0.05166
G1 X161.540 Y137.840 E-0.04925
G1 X161.773 Y137.854 E-0.05391
G1 X161.993 Y137.898 E-0.05181
G1 X162.205 Y137.970 E-0.05166
G1 X162.405 Y138.069 E-0.05166
G1 X162.591 Y138.193 E-0.05166
G1 X162.759 Y138.341 E-0.05166
G1 X162.903 Y138.504 E-0.05032
G1 E-0.04000 F2100.00000
G1 Z0.800 F10800.000
G1 X161.550 Y93.394
G1 Z0.200
G1 E0.80000 F2100.00000
G1 F1200
G1 X161.179 Y93.370 E0.01166
G1 X160.814 Y93.297 E0.01166
G1 X160.462 Y93.178 E0.01166
G1 X160.128 Y93.013 E0.01166
G1 X159.819 Y92.806 E0.01167
G1 X159.539 Y92.561 E0.01166
G1 X159.294 Y92.281 E0.01166
G1 X159.087 Y91.972 E0.01167
G1 X158.922 Y91.638 E0.01167
G1 X158.803 Y91.286 E0.01166
G1 X158.730 Y90.921 E0.01166
G1 X158.706 Y90.550 E0.01166
G1 X158.730 Y90.179 E0.01166
G1 X158.803 Y89.814 E0.01166
G1 X158.922 Y89.462 E0.01166
G1 X159.087 Y89.128 E0.01167
G1 X159.294 Y88.819 E0.01166
G1 X159.539 Y88.539 E0.01167
G1 X159.819 Y88.294 E0.01166
G1 X160.128 Y88.087 E0.01166
G1 X160.462 Y87.922 E0.01167
G1 X160.814 Y87.803 E0.01166
G1 X161.179 Y87.730 E0.01166
G1 X161.536 Y87.707 E0.01123
G1 X161.917 Y87.729 E0.01197
G1 X162.286 Y87.803 E0.01180
G1 X162.638 Y87.922 E0.01166
G1 X162.972 Y88.087 E0.01167
G1 X163.281 Y88.294 E0.01166
G1 X163.561 Y88.539 E0.01166
G1 X163.806 Y88.819 E0.01167
G1 X164.013 Y89.128 E0.01166
G1 X164.178 Y89.462 E0.01167
G1 X164.297 Y89.814 E0.01166
G1 X164.370 Y90.179 E0.01166
G1 X164.394 Y90.550 E0.01166
G1 X164.370 Y90.921 E0.01166
G1 X164.297 Y91.286 E0.01166
G1 X164.178 Y91.638 E0.01166
G1 X164.013 Y91.972 E0.01167
G1 X163.806 Y92.281 E0.01167
G1 X163.561 Y92.561 E0.01166
G1 X163.281 Y92.806 E0.01166
G1 X162.972 Y93.013 E0.01167
G1 X162.638 Y93.178 E0.01166
G1 X162.286 Y93.297 E0.01166
G1 X161.921 Y93.370 E0.01166
G1 X161.610 Y93.390 E0.00978
G1 X161.585 Y93.014 F10800.000
G1 F1200
G1 X161.228 Y92.995 E0.01121
G1 X160.912 Y92.932 E0.01011
G1 X160.606 Y92.828 E0.01011
G1 X160.317 Y92.686 E0.01011
G1 X160.049 Y92.507 E0.01012
G1 X159.806 Y92.294 E0.01011
G1 X159.593 Y92.051 E0.01011
G1 X159.414 Y91.783 E0.01012
G1 X159.271 Y91.494 E0.01012
G1 X159.168 Y91.188 E0.01011
G1 X159.105 Y90.872 E0.01011
G1 X159.084 Y90.550 E0.01011
G1 X159.105 Y90.228 E0.01011
G1 X159.168 Y89.912 E0.01011
G1 X159.271 Y89.606 E0.01011
G1 X159.414 Y89.317 E0.01012
G1 X159.593 Y89.049 E0.01011
G1 X159.806 Y88.806 E0.01012
G1 X160.049 Y88.593 E0.01011
G1 X160.317 Y88.414 E0.01011
G1 X160.606 Y88.271 E0.01012
G1 X160.912 Y88.168 E0.01011
G1 X161.228 Y88.105 E0.01011
G1 X161.537 Y88.085 E0.00971
G1 X161.869 Y88.104 E0.01042
G1 X162.188 Y88.168 E0.01021
G1 X162.494 Y88.271 E0.01011
G1 X162.783 Y88.414 E0.01012
G1 X163.051 Y88.593 E0.01011
G1 X163.294 Y88.806 E0.01011
G1 X163.507 Y89.049 E0.01012
G1 X163.686 Y89.317 E0.01011
G1 X163.829 Y89.606 E0.01012
G1 X163.932 Y89.912 E0.01011
G1 X163.995 Y90.228 E0.01011
G1 X164.016 Y90.550 E0.01011
G1 X163.995 Y90.872 E0.01011
G1 X163.932 Y91.188 E0.01011
G1 X163.829 Y91.494 E0.01011
G1 X163.686 Y91.783 E0.01012
G1 X163.507 Y92.051 E0.01012
G1 X163.294 Y92.294 E0.01011
G1 X163.051 Y92.507 E0.01011
G1 X162.783 Y92.686 E0.01012
G1 X162.494 Y92.828 E0.01011
G1 X162.188 Y92.932 E0.01011
G1 X161.872 Y92.995 E0.01011
G1 X161.645 Y93.010 E0.00713
G1 X161.620 Y92.634 F10800.000
G1 F1200
G1 X161.277 Y92.620 E0.01076
G1 X161.009 Y92.567 E0.00856
G1 X160.751 Y92.479 E0.00856
G1 X160.506 Y92.359 E0.00856
G1 X160.279 Y92.207 E0.00857
G1 X160.073 Y92.027 E0.00856
G1 X159.893 Y91.821 E0.00856
G1 X159.741 Y91.594 E0.00857
G1 X159.621 Y91.349 E0.00857
G1 X159.533 Y91.090 E0.00856
G1 X159.480 Y90.823 E0.00856
G1 X159.462 Y90.550 E0.00856
G1 X159.480 Y90.277 E0.00857
G1 X159.533 Y90.009 E0.00856
G1 X159.621 Y89.751 E0.00856
G1 X159.741 Y89.506 E0.00857
G1 X159.893 Y89.279 E0.00857
G1 X160.073 Y89.073 E0.00857
G1 X160.279 Y88.893 E0.00856
G1 X160.506 Y88.741 E0.00857
G1 X160.751 Y88.621 E0.00857
G1 X161.010 Y88.533 E0.00856
G1 X161.277 Y88.480 E0.00856
G1 X161.538 Y88.462 E0.00820
G1 X161.821 Y88.479 E0.00887
G1 X162.090 Y88.533 E0.00862
G1 X162.349 Y88.621 E0.00856
G1 X162.594 Y88.741 E0.00857
G1 X162.821 Y88.893 E0.00857
G1 X163.027 Y89.073 E0.00856
G1 X163.207 Y89.279 E0.00857
G1 X163.359 Y89.506 E0.00857
G1 X163.479 Y89.751 E0.00857
G1 X163.567 Y90.009 E0.00856
G1 X163.620 Y90.277 E0.00856
G1 X163.638 Y90.550 E0.00857
G1 X163.620 Y90.823 E0.00856
G1 X163.567 Y91.090 E0.00856
G1 X163.479 Y91.349 E0.00856
G1 X163.359 Y91.594 E0.00857
G1 X163.207 Y91.821 E0.00857
G1 X163.027 Y92.027 E0.00856
G1 X162.821 Y92.207 E0.00856
G1 X162.594 Y92.359 E0.00857
G1 X162.349 Y92.479 E0.00856
G1 X162.091 Y92.567 E0.00856
G1 X161.680 Y92.630 E0.01301
G1 X161.656 Y92.254 F10800.000
G1 F1200
G1 X161.327 Y92.246 E0.01031
G1 X161.107 Y92.202 E0.00701
G1 X160.895 Y92.130 E0.00702
G1 X160.695 Y92.031 E0.00702
G1 X160.509 Y91.907 E0.00702
G1 X160.341 Y91.759 E0.00701
G1 X160.193 Y91.591 E0.00702
G1 X160.069 Y91.405 E0.00702
G1 X159.970 Y91.205 E0.00702
G1 X159.898 Y90.993 E0.00702
G1 X159.854 Y90.773 E0.00702
G1 X159.840 Y90.550 E0.00702
G1 X159.854 Y90.327 E0.00702
G1 X159.898 Y90.107 E0.00702
G1 X159.970 Y89.895 E0.00701
G1 X160.069 Y89.695 E0.00702
G1 X160.193 Y89.509 E0.00702
G1 X160.341 Y89.341 E0.00702
G1 X160.509 Y89.193 E0.00701
G1 X160.695 Y89.069 E0.00702
G1 X160.895 Y88.970 E0.00702
G1 X161.107 Y88.898 E0.00702
G1 X161.327 Y88.854 E0.00701
G1 X161.540 Y88.840 E0.00669
G1 X161.773 Y88.854 E0.00732
G1 X161.993 Y88.898 E0.00704
G1 X162.205 Y88.970 E0.00702
G1 X162.405 Y89.069 E0.00702
G1 X162.591 Y89.193 E0.00702
G1 X162.759 Y89.341 E0.00701
G1 X162.907 Y89.509 E0.00702
G1 X163.031 Y89.695 E0.00702
G1 X163.130 Y89.895 E0.00702
G1 X163.202 Y90.107 E0.00701
G1 X163.246 Y90.327 E0.00702
G1 X163.260 Y90.550 E0.00702
G1 X163.246 Y90.773 E0.00702
G1 X163.202 Y90.993 E0.00702
G1 X163.130 Y91.205 E0.00702
G1 X163.031 Y91.405 E0.00702
G1 X162.907 Y91.591 E0.00702
G1 X162.759 Y91.759 E0.00702
G1 X162.591 Y91.907 E0.00701
G1 X162.405 Y92.031 E0.00702
G1 X162.205 Y92.130 E0.00702
G1 X161.993 Y92.202 E0.00702
G1 X161.715 Y92.250 E0.00882
G1 X161.508 Y92.547 F10800.000
G1 F8640
G1 X161.327 Y92.246 E-0.08977
G1 X161.107 Y92.202 E-0.05166
G1 X160.895 Y92.130 E-0.05166
G1 X160.695 Y92.031 E-0.05166
G1 X160.509 Y91.907 E-0.05166
G1 X160.341 Y91.759 E-0.05166
G1 X160.193 Y91.591 E-0.05166
G1 X160.069 Y91.405 E-0.05166
G1 X159.970 Y91.205 E-0.05166
G1 X159.898 Y90.993 E-0.05166
G1 X159.854 Y90.773 E-0.05166
G1 X159.840 Y90.550 E-0.05166
G1 X159.854 Y90.327 E-0.05166
G1 X159.897 Y90.113 E-0.05029
G1 E-0.04000 F2100.00000
G1 Z0.800 F10800.000
G1 X106.394 Y90.550
G1 Z0.200
G1 E0.80000 F2100.00000
G1 F1200
G1 X106.370 Y90.921 E0.01167
G1 X106.297 Y91.286 E0.01166
G1 X106.178 Y91.638 E0.01166
G1 X106.013 Y91.972 E0.01167
G1 X105.814 Y92.270 E0.01123
G1 X105.564 Y92.558 E0.01197
G1 X105.281 Y92.806 E0.01180
G1 X104.984 Y93.005 E0.01123
G1 X104.642 Y93.176 E0.01197
G1 X104.286 Y93.297 E0.01180
G1 X103.935 Y93.367 E0.01123
G1 X103.554 Y93.394 E0.01197
G1 X103.179 Y93.370 E0.01180
G1 X102.814 Y93.297 E0.01166
G1 X102.462 Y93.178 E0.01166
G1 X102.128 Y93.013 E0.01166
G1 X101.819 Y92.806 E0.01166
G1 X101.539 Y92.561 E0.01166
G1 X101.294 Y92.281 E0.01166
G1 X101.087 Y91.972 E0.01166
G1 X100.922 Y91.638 E0.01167
G1 X100.803 Y91.286 E0.01167
G1 X100.730 Y90.921 E0.01166
G1 X100.706 Y90.550 E0.01166
G1 X100.730 Y90.179 E0.01166
G1 X100.800 Y89.828 E0.01123
G1 X100.921 Y89.465 E0.01197
G1 X101.087 Y89.128 E0.01180
G1 X101.294 Y88.819 E0.01166
G1 X101.539 Y88.539 E0.01167
G1 X101.819 Y88.294 E0.01166
G1 X102.128 Y88.087 E0.01166
G1 X102.462 Y87.922 E0.01166
G1 X102.814 Y87.803 E0.01166
G1 X103.179 Y87.730 E0.01166
G1 X103.536 Y87.707 E0.01123
G1 X103.917 Y87.729 E0.01197
G1 X104.286 Y87.803 E0.01180
G1 X104.638 Y87.922 E0.01166
G1 X104.972 Y88.087 E0.01167
G1 X105.281 Y88.294 E0.01166
G1 X105.561 Y88.539 E0.01166
G1 X105.806 Y88.819 E0.01166
G1 X106.013 Y89.128 E0.01166
G1 X106.178 Y89.462 E0.01167
G1 X106.297 Y89.814 E0.01166
G1 X106.370 Y90.179 E0.01166
G1 X106.390 Y90.490 E0.00978
G1 X106.014 Y90.515 F10800.000
G1 F1200
G1 X105.995 Y90.872 E0.01121
G1 X105.932 Y91.188 E0.01011
G1 X105.829 Y91.494 E0.01011
G1 X105.686 Y91.783 E0.01012
G1 X105.514 Y92.041 E0.00971
G1 X105.296 Y92.292 E0.01042
G1 X105.051 Y92.507 E0.01021
G1 X104.794 Y92.679 E0.00971
G1 X104.497 Y92.828 E0.01042
G1 X104.188 Y92.932 E0.01021
G1 X103.884 Y92.993 E0.00971
G1 X103.553 Y93.016 E0.01042
G1 X103.228 Y92.995 E0.01021
G1 X102.912 Y92.932 E0.01011
G1 X102.606 Y92.828 E0.01011
G1 X102.317 Y92.686 E0.01011
G1 X102.049 Y92.507 E0.01012
G1 X101.806 Y92.294 E0.01011
