; generated by PrusaSlicer 2.0.0+win64 on 2020-09-23 at 10:56:59

; 

; external perimeters extrusion width = 0.60mm
; perimeters extrusion width = 0.50mm
; infill extrusion width = 0.50mm
; solid infill extrusion width = 0.50mm
; top infill extrusion width = 0.45mm
; first layer extrusion width = 0.42mm

M73 P0 R5
M73 Q0 S5
M201 X1000 Y1000 Z1000 E5000 ; sets maximum accelerations, mm/sec^2
M203 X200 Y200 Z12 E120 ; sets maximum feedrates, mm/sec
M204 P1250 R1250 T1250 ; sets acceleration (P, T) and retract acceleration (R), mm/sec^2
M205 X8.00 Y8.00 Z0.40 E1.50 ; sets the jerk limits, mm/sec
M205 S0 T0 ; sets the minimum extruding and travel feed rate, mm/sec
M107
M115 U3.8.0 ; tell printer latest fw version
G90 ; use absolute coordinates
M83 ; extruder relative mode
M104 S215 ; set extruder temp
M140 S67 ; set bed temp
M190 S67 ; wait for bed temp
M109 S215 ; wait for extruder temp
G28 W ; home all without mesh bed level
G80 ; mesh bed leveling
G1 Y-3.0 F1000.0 ; go outside print area
G92 E0.0
G1 X60.0 E9.0 F1000.0 ; intro line
M73 Q1 S5
M73 P1 R5
G1 X100.0 E12.5 F1000.0 ; intro line
G92 E0.0
M221 S95
M900 K30 ; Filament gcode
G21 ; set units to millimeters
G90 ; use absolute coordinates
M83 ; use relative distances for extrusion
;BEFORE_LAYER_CHANGE
G92 E0.0
;0.2


G1 E-0.80000 F2100.00000
G1 Z0.600 F10800.000
;AFTER_LAYER_CHANGE
;0.2
G1 X113.210 Y95.490
G1 Z0.200
G1 E0.80000 F2100.00000
M204 S1000
G1 F1200
G1 X136.790 Y95.490 E0.73933
G1 X136.790 Y114.670 E0.60138
G1 X113.210 Y114.670 E0.73933
G1 X113.210 Y95.550 E0.59949
G1 X113.600 Y95.581 F10800.000
G1 X113.587 Y95.867
G1 F1200
G1 X136.413 Y95.867 E0.71569
G1 X136.413 Y114.293 E0.57773
G1 X113.587 Y114.293 E0.71569
G1 X113.587 Y95.927 E0.57585
G1 X113.964 Y96.245 F10800.000
G1 F1200
G1 X136.036 Y96.245 E0.69204
G1 X136.036 Y105.948 E0.30423
G1 X135.983 Y105.861 E0.00316
G1 X135.685 Y105.527 E0.01407
G1 X135.330 Y105.251 E0.01407
G1 X134.932 Y105.045 E0.01407
G1 X134.501 Y104.914 E0.01411
G1 X134.028 Y104.861 E0.01493
G1 X133.409 Y104.932 E0.01954
G1 X132.965 Y105.090 E0.01475
G1 X132.577 Y105.314 E0.01407
G1 X132.234 Y105.606 E0.01411
G1 X131.935 Y105.976 E0.01493
G1 X131.661 Y106.536 E0.01954
G1 X131.555 Y106.994 E0.01475
G1 X131.534 Y107.443 E0.01407
G1 X131.596 Y107.888 E0.01411
G1 X131.746 Y108.340 E0.01493
G1 X132.070 Y108.873 E0.01954
G1 X132.399 Y109.209 E0.01475
G1 X132.766 Y109.468 E0.01407
G1 X133.173 Y109.656 E0.01407
G1 X133.608 Y109.767 E0.01407
G1 X134.057 Y109.798 E0.01411
G1 X134.530 Y109.743 E0.01493
G1 X135.117 Y109.534 E0.01954
G1 X135.514 Y109.280 E0.01475
G1 X135.842 Y108.974 E0.01407
G1 X136.036 Y108.711 E0.01023
G1 X136.036 Y113.916 E0.16319
G1 X113.964 Y113.916 E0.69204
G1 X113.964 Y96.305 E0.55220
G1 X114.341 Y96.622 F10800.000
G1 F1200
G1 X135.659 Y96.622 E0.66840
G1 X135.659 Y105.029 E0.26361
G1 X135.534 Y104.932 E0.00495
G1 X135.074 Y104.694 E0.01623
G1 X134.578 Y104.543 E0.01628
G1 X134.027 Y104.481 E0.01736
G1 X133.323 Y104.562 E0.02223
G1 X132.807 Y104.746 E0.01718
G1 X132.358 Y105.005 E0.01623
G1 X131.963 Y105.341 E0.01628
G1 X131.615 Y105.772 E0.01736
G1 X131.303 Y106.409 E0.02223
G1 X131.180 Y106.943 E0.01718
G1 X131.156 Y107.460 E0.01623
G1 X131.227 Y107.974 E0.01628
G1 X131.402 Y108.500 E0.01736
G1 X131.771 Y109.105 E0.02223
G1 X132.154 Y109.497 E0.01718
G1 X132.577 Y109.796 E0.01623
G1 X133.047 Y110.013 E0.01623
G1 X133.548 Y110.141 E0.01623
G1 X134.066 Y110.177 E0.01628
G1 X134.616 Y110.112 E0.01736
G1 X135.284 Y109.874 E0.02223
G1 X135.659 Y109.635 E0.01394
G1 X135.659 Y113.539 E0.12242
G1 X114.341 Y113.539 E0.66840
G1 X114.341 Y96.682 E0.52856
G1 X114.718 Y96.999 F10800.000
G1 F1200
G1 X135.282 Y96.999 E0.64475
G1 X135.282 Y104.377 E0.23133
G1 X134.654 Y104.172 E0.02069
G1 X134.027 Y104.101 E0.01980
G1 X133.237 Y104.193 E0.02492
G1 X132.648 Y104.402 E0.01961
G1 X132.140 Y104.695 E0.01839
G1 X131.692 Y105.077 E0.01845
G1 X131.295 Y105.568 E0.01980
G1 X130.946 Y106.282 E0.02492
G1 X130.805 Y106.891 E0.01960
G1 X130.778 Y107.477 E0.01839
G1 X130.858 Y108.060 E0.01845
G1 X131.057 Y108.660 E0.01980
G1 X131.471 Y109.338 E0.02492
G1 X131.908 Y109.785 E0.01960
G1 X132.387 Y110.124 E0.01839
G1 X132.920 Y110.370 E0.01839
G1 X133.488 Y110.515 E0.01839
G1 X134.075 Y110.555 E0.01845
G1 X134.703 Y110.482 E0.01980
G1 X135.282 Y110.276 E0.01927
G1 X135.282 Y113.162 E0.09050
G1 X114.718 Y113.162 E0.64475
G1 X114.718 Y97.059 E0.50491
G1 X115.095 Y97.376 F10800.000
G1 F1200
G1 X134.905 Y97.376 E0.62110
G1 X134.905 Y103.854 E0.20312
G1 X134.731 Y103.801 E0.00569
G1 X134.026 Y103.722 E0.02224
G1 X133.151 Y103.823 E0.02761
G1 X132.489 Y104.058 E0.02203
G1 X131.922 Y104.386 E0.02055
G1 X131.421 Y104.813 E0.02063
G1 X130.974 Y105.364 E0.02224
G1 X130.588 Y106.155 E0.02761
G1 X130.429 Y106.840 E0.02203
G1 X130.400 Y107.494 E0.02055
G1 X130.489 Y108.146 E0.02063
G1 X130.713 Y108.819 E0.02224
G1 X131.171 Y109.571 E0.02761
G1 X131.662 Y110.074 E0.02203
G1 X132.198 Y110.452 E0.02055
G1 X132.793 Y110.726 E0.02055
G1 X133.428 Y110.889 E0.02055
G1 X134.084 Y110.934 E0.02063
G1 X134.789 Y110.852 E0.02224
G1 X134.905 Y110.810 E0.00385
G1 X134.905 Y112.785 E0.06191
G1 X115.095 Y112.785 E0.62110
G1 X115.095 Y97.436 E0.48126
G1 X115.472 Y97.753 F10800.000
G1 F1200
G1 X134.528 Y97.753 E0.59746
G1 X134.528 Y103.399 E0.17702
G1 X134.026 Y103.342 E0.01584
G1 X133.065 Y103.453 E0.03030
G1 X132.331 Y103.714 E0.02446
G1 X131.703 Y104.077 E0.02271
G1 X131.150 Y104.548 E0.02280
G1 X130.654 Y105.160 E0.02468
G1 X130.230 Y106.028 E0.03030
G1 X130.054 Y106.788 E0.02445
G1 X130.021 Y107.512 E0.02271
G1 X130.120 Y108.232 E0.02280
G1 X130.369 Y108.979 E0.02468
G1 X130.872 Y109.804 E0.03030
G1 X131.417 Y110.362 E0.02445
G1 X132.009 Y110.780 E0.02271
G1 X132.666 Y111.083 E0.02271
G1 X133.368 Y111.263 E0.02271
G1 X134.093 Y111.312 E0.02280
G1 X134.528 Y111.262 E0.01370
G1 X134.528 Y112.408 E0.03594
G1 X115.472 Y112.408 E0.59746
G1 X115.472 Y97.813 E0.45762
G1 X115.850 Y98.130 F10800.000
G1 F1200
G1 X134.150 Y98.130 E0.57381
G1 X134.150 Y102.977 E0.15198
G1 X134.025 Y102.963 E0.00396
G1 X132.980 Y103.084 E0.03299
G1 X132.172 Y103.371 E0.02688
G1 X131.485 Y103.767 E0.02487
G1 X130.879 Y104.284 E0.02497
G1 X130.334 Y104.956 E0.02711
G1 X129.873 Y105.901 E0.03299
G1 X129.679 Y106.736 E0.02688
G1 X129.643 Y107.529 E0.02487
G1 X129.752 Y108.318 E0.02497
G1 X130.024 Y109.138 E0.02711
G1 X130.572 Y110.037 E0.03299
G1 X131.171 Y110.650 E0.02688
G1 X131.819 Y111.107 E0.02487
G1 X132.539 Y111.440 E0.02487
G1 X133.308 Y111.637 E0.02487
G1 X134.150 Y111.685 E0.02646
G1 X134.150 Y112.031 E0.01083
G1 X115.850 Y112.031 E0.57381
G1 X115.850 Y98.190 E0.43397
G1 F8640
G1 X119.141 Y98.179 E-0.76000
G1 E-0.04000 F2100.00000
G1 Z0.800 F10800.000
G1 X132.575 Y106.384
G1 Z0.200
G1 E0.80000 F2100.00000
G1 F1200
G1 X132.776 Y106.135 E0.01005
G1 X133.013 Y105.933 E0.00976
G1 X133.283 Y105.777 E0.00976
G1 X133.580 Y105.671 E0.00990
G1 X134.029 Y105.620 E0.01416
G1 X134.348 Y105.655 E0.01005
G1 X134.646 Y105.746 E0.00976
G1 X134.922 Y105.889 E0.00976
G1 X135.168 Y106.080 E0.00976
G1 X135.375 Y106.312 E0.00976
G1 X135.539 Y106.582 E0.00990
G1 X135.681 Y107.011 E0.01416
G1 X135.711 Y107.330 E0.01005
G1 X135.683 Y107.640 E0.00976
G1 X135.599 Y107.940 E0.00976
G1 X135.462 Y108.219 E0.00976
G1 X135.277 Y108.469 E0.00976
G1 X135.049 Y108.682 E0.00976
G1 X134.783 Y108.852 E0.00990
G1 X134.358 Y109.004 E0.01416
G1 X134.039 Y109.041 E0.01005
G1 X133.729 Y109.020 E0.00976
G1 X133.427 Y108.942 E0.00976
G1 X133.145 Y108.812 E0.00976
G1 X132.890 Y108.633 E0.00976
G1 X132.670 Y108.407 E0.00990
G1 X132.434 Y108.021 E0.01416
G1 X132.333 Y107.717 E0.01005
G1 X132.291 Y107.408 E0.00976
G1 X132.305 Y107.097 E0.00976
G1 X132.376 Y106.790 E0.00990
G1 X132.548 Y106.438 E0.01228
G1 X132.429 Y106.098 F10800.000
G1 X132.255 Y106.180
G1 F1200
G1 X132.505 Y105.870 E0.01249
G1 X132.795 Y105.623 E0.01194
G1 X133.124 Y105.433 E0.01192
G1 X133.495 Y105.302 E0.01233
G1 X134.029 Y105.240 E0.01685
G1 X134.424 Y105.284 E0.01249
G1 X134.789 Y105.395 E0.01194
G1 X135.126 Y105.570 E0.01192
G1 X135.426 Y105.803 E0.01192
G1 X135.679 Y106.087 E0.01192
G1 X135.884 Y106.423 E0.01233
G1 X136.052 Y106.933 E0.01685
G1 X136.090 Y107.330 E0.01249
G1 X136.055 Y107.709 E0.01194
G1 X135.952 Y108.075 E0.01192
G1 X135.785 Y108.416 E0.01192
G1 X135.559 Y108.721 E0.01192
G1 X135.281 Y108.981 E0.01192
G1 X134.950 Y109.193 E0.01233
G1 X134.444 Y109.373 E0.01685
G1 X134.048 Y109.419 E0.01249
G1 X133.668 Y109.393 E0.01194
G1 X133.300 Y109.299 E0.01192
G1 X132.955 Y109.140 E0.01192
G1 X132.645 Y108.921 E0.01192
G1 X132.370 Y108.640 E0.01233
G1 X132.090 Y108.181 E0.01685
G1 X131.964 Y107.803 E0.01249
G1 X131.913 Y107.425 E0.01194
G1 X131.930 Y107.046 E0.01192
G1 X132.019 Y106.663 E0.01233
G1 X132.228 Y106.234 E0.01497
G1 F8640
G1 X132.505 Y105.870 E-0.10552
G1 X132.795 Y105.623 E-0.08790
G1 X133.124 Y105.433 E-0.08775
G1 X133.495 Y105.302 E-0.09080
G1 X134.029 Y105.240 E-0.12412
G1 X134.424 Y105.284 E-0.09198
G1 X134.789 Y105.395 E-0.08790
G1 X135.112 Y105.563 E-0.08404
G1 E-0.04000 F2100.00000
G1 Z0.800 F10800.000
G1 X136.096 Y106.127
G1 Z0.200
G1 E0.80000 F2100.00000
G1 F1200
G1 X136.203 Y106.721 E0.00458
G1 F8640
G1 X136.096 Y106.127 E-0.13950
G1 E-0.66050 F2100.00000
G1 Z0.800 F10800.000
G1 X136.203 Y107.961
G1 Z0.200
G1 E0.80000 F2100.00000
G1 F1200
G1 X136.106 Y108.536 E0.00485
G1 F8640
G1 X136.203 Y107.961 E-0.13453
G1 E-0.66547 F2100.00000
G1 Z0.800 F10800.000
G1 X133.176 Y111.820
G1 Z0.200
G1 E0.80000 F2100.00000
G1 F1200
G1 X132.630 Y111.751 E0.00434
G1 X132.287 Y111.694 E0.00658
G1 X131.928 Y111.469 F10800.000
G1 F1200
G1 X132.026 Y111.567 E0.00437
G1 X131.986 Y111.748 E0.00589
G1 X131.668 Y111.748 E0.01009
G1 X118.332 Y98.413 E0.59811
G1 X117.793 Y98.413 E0.01711
G1 X131.128 Y111.748 E0.59811
G1 X130.589 Y111.748 E0.01711
G1 X117.253 Y98.413 E0.59811
G1 X116.714 Y98.413 E0.01711
G1 X130.049 Y111.748 E0.59811
G1 X129.510 Y111.748 E0.01711
G1 X116.175 Y98.413 E0.59811
G1 X116.132 Y98.413 E0.00134
G1 X116.132 Y98.910 E0.01576
G1 X128.971 Y111.748 E0.57582
G1 X128.431 Y111.748 E0.01711
G1 X116.132 Y99.449 E0.55162
G1 X116.132 Y99.989 E0.01711
G1 X127.892 Y111.748 E0.52743
G1 X127.352 Y111.748 E0.01711
G1 X116.132 Y100.528 E0.50324
G1 X116.132 Y101.067 E0.01711
G1 X126.813 Y111.748 E0.47904
G1 X126.274 Y111.748 E0.01711
G1 X116.132 Y101.607 E0.45485
G1 X116.132 Y102.146 E0.01711
G1 X125.734 Y111.748 E0.43066
G1 X125.195 Y111.748 E0.01711
G1 X116.132 Y102.686 E0.40646
G1 X116.132 Y103.225 E0.01711
G1 X124.655 Y111.748 E0.38227
G1 X124.116 Y111.748 E0.01711
G1 X116.132 Y103.764 E0.35808
G1 X116.132 Y104.304 E0.01711
G1 X123.577 Y111.748 E0.33389
G1 X123.037 Y111.748 E0.01711
G1 X116.132 Y104.843 E0.30969
G1 X116.132 Y105.383 E0.01711
G1 X122.498 Y111.748 E0.28550
G1 X121.958 Y111.748 E0.01711
G1 X116.132 Y105.922 E0.26131
G1 X116.132 Y106.461 E0.01711
G1 X121.419 Y111.748 E0.23711
G1 X120.880 Y111.748 E0.01711
G1 X116.132 Y107.001 E0.21292
G1 X116.132 Y107.540 E0.01711
G1 X120.340 Y111.748 E0.18873
G1 X119.801 Y111.748 E0.01711
G1 X116.132 Y108.080 E0.16453
G1 X116.132 Y108.619 E0.01711
G1 X119.261 Y111.748 E0.14034
G1 X118.722 Y111.748 E0.01711
G1 X116.132 Y109.158 E0.11615
G1 X116.132 Y109.698 E0.01711
G1 X118.183 Y111.748 E0.09196
G1 X117.643 Y111.748 E0.01711
G1 X116.132 Y110.237 E0.06776
G1 X116.132 Y110.777 E0.01711
G1 X117.104 Y111.748 E0.04357
G1 X116.564 Y111.748 E0.01711
G1 X115.963 Y111.146 E0.02699
G1 F8640
G1 X116.564 Y111.748 E-0.19648
G1 X117.104 Y111.748 E-0.12455
G1 X116.132 Y110.777 E-0.31721
G1 X116.132 Y110.249 E-0.12175
G1 E-0.04000 F2100.00000
G1 Z0.800 F10800.000
G1 X129.843 Y109.384
G1 Z0.200
G1 E0.80000 F2100.00000
G1 F1200
G1 X118.872 Y98.413 E0.49206
G1 X119.411 Y98.413 E0.01711
G1 X129.522 Y108.524 E0.45349
G1 X129.475 Y108.382 E0.00472
G1 X129.404 Y107.866 E0.01652
G1 X119.951 Y98.413 E0.42400
G1 X120.490 Y98.413 E0.01711
G1 X129.371 Y107.294 E0.39832
G1 X129.394 Y106.778 E0.01638
G1 X121.029 Y98.413 E0.37518
M73 Q21 S4
M73 P21 R4
G1 X121.569 Y98.413 E0.01711
G1 X129.484 Y106.328 E0.35500
G1 X129.585 Y105.890 E0.01426
G1 X122.108 Y98.413 E0.33535
G1 X122.648 Y98.413 E0.01711
G1 X129.748 Y105.513 E0.31845
G1 X129.925 Y105.150 E0.01279
G1 X123.187 Y98.413 E0.30220
G1 X123.726 Y98.413 E0.01711
G1 X130.104 Y104.791 E0.28606
G1 X130.346 Y104.493 E0.01216
G1 X124.266 Y98.413 E0.27269
G1 X124.805 Y98.413 E0.01711
G1 X130.587 Y104.195 E0.25933
G1 X130.675 Y104.085 E0.00445
G1 X130.860 Y103.928 E0.00769
G1 X125.345 Y98.413 E0.24738
G1 X125.884 Y98.413 E0.01711
G1 X131.151 Y103.680 E0.23625
G1 X131.321 Y103.535 E0.00708
G1 X131.464 Y103.453 E0.00522
G1 X126.423 Y98.413 E0.22606
G1 X126.963 Y98.413 E0.01711
G1 X131.806 Y103.256 E0.21721
G1 X132.053 Y103.113 E0.00905
G1 X132.163 Y103.074 E0.00371
G1 X127.502 Y98.413 E0.20905
G1 X128.042 Y98.413 E0.01711
G1 X132.561 Y102.932 E0.20270
G1 X132.968 Y102.800 E0.01358
G1 X128.581 Y98.413 E0.19678
G1 X129.120 Y98.413 E0.01711
G1 X133.452 Y102.744 E0.19428
G1 X133.868 Y102.696 E0.01327
G1 X133.868 Y102.621 E0.00240
G1 X129.660 Y98.413 E0.18873
G1 X130.199 Y98.413 E0.01711
G1 X133.868 Y102.081 E0.16454
G1 X133.868 Y101.542 E0.01711
G1 X130.739 Y98.413 E0.14035
G1 X131.278 Y98.413 E0.01711
G1 X133.868 Y101.002 E0.11615
G1 X133.868 Y100.463 E0.01711
G1 X131.817 Y98.413 E0.09196
G1 X132.357 Y98.413 E0.01711
G1 X133.868 Y99.924 E0.06777
G1 X133.868 Y99.384 E0.01711
G1 X132.896 Y98.413 E0.04357
G1 X133.436 Y98.413 E0.01711
G1 X134.037 Y99.015 E0.02699
M106 S255
;BEFORE_LAYER_CHANGE
G92 E0.0
;0.5


G1 F8640
G1 X133.436 Y98.413 E-0.19651
G1 X132.896 Y98.413 E-0.12455
G1 X133.868 Y99.384 E-0.31724
G1 X133.868 Y99.911 E-0.12170
G1 E-0.04000 F2100.00000
G1 Z0.800 F10800.000
;AFTER_LAYER_CHANGE
;0.5
M140 S64 ; set bed temperature
G1 X136.700 Y95.580
G1 Z0.500
G1 E0.80000 F2100.00000
M204 S800
G1 X136.700 Y114.580 E1.26930
G1 X113.300 Y114.580 E1.56325
G1 X113.300 Y95.580 E1.26930
G1 X136.640 Y95.580 E1.55924
M204 S1000
G1 X136.583 Y95.963 F10800.000
G1 X136.214 Y96.066
M204 S800
G1 F3000
G1 X136.214 Y106.787 E0.58251
G1 X136.064 Y106.338 E0.02573
G1 X135.839 Y105.968 E0.02352
G1 X135.562 Y105.658 E0.02262
G1 X135.233 Y105.402 E0.02262
G1 X134.864 Y105.211 E0.02262
G1 X134.463 Y105.088 E0.02278
G1 X134.014 Y105.041 E0.02454
G1 X133.448 Y105.107 E0.03093
G1 X133.041 Y105.252 E0.02352
G1 X132.680 Y105.460 E0.02262
G1 X132.361 Y105.732 E0.02278
G1 X132.079 Y106.085 E0.02454
G1 X131.830 Y106.597 E0.03093
G1 X131.732 Y107.019 E0.02352
G1 X131.713 Y107.435 E0.02262
G1 X131.770 Y107.847 E0.02262
G1 X131.906 Y108.259 E0.02360
G1 X132.212 Y108.762 E0.03195
G1 X132.515 Y109.073 E0.02360
G1 X132.856 Y109.313 E0.02262
G1 X133.233 Y109.487 E0.02262
G1 X133.637 Y109.590 E0.02262
G1 X134.052 Y109.619 E0.02262
G1 X134.484 Y109.569 E0.02360
G1 X135.038 Y109.372 E0.03195
G1 X135.404 Y109.138 E0.02360
G1 X135.708 Y108.854 E0.02262
G1 X135.956 Y108.520 E0.02262
G1 X136.139 Y108.146 E0.02262
G1 X136.214 Y107.876 E0.01524
G1 X136.214 Y114.095 E0.33790
G1 X113.786 Y114.095 E1.21862
G1 X113.786 Y96.066 E0.97955
G1 X136.154 Y96.066 E1.21536
M204 S1000
G1 X135.779 Y96.502 F10800.000
M204 S800
G1 F3000
G1 X135.779 Y105.274 E0.47664
G1 X135.469 Y105.034 E0.02129
G1 X135.029 Y104.806 E0.02694
G1 X134.550 Y104.660 E0.02719
G1 X134.011 Y104.602 E0.02945
G1 X133.349 Y104.680 E0.03625
G1 X132.857 Y104.855 E0.02834
G1 X132.428 Y105.103 E0.02694
G1 X132.047 Y105.428 E0.02719
G1 X131.708 Y105.851 E0.02945
G1 X131.417 Y106.451 E0.03625
G1 X131.299 Y106.959 E0.02834
G1 X131.277 Y107.454 E0.02694
G1 X131.344 Y107.946 E0.02694
G1 X131.508 Y108.443 E0.02847
G1 X131.866 Y109.031 E0.03737
G1 X132.232 Y109.406 E0.02847
G1 X132.637 Y109.691 E0.02694
G1 X133.087 Y109.899 E0.02694
G1 X133.567 Y110.022 E0.02694
G1 X134.062 Y110.056 E0.02694
G1 X134.583 Y109.996 E0.02847
G1 X135.231 Y109.766 E0.03737
G1 X135.672 Y109.484 E0.02847
G1 X135.779 Y109.384 E0.00794
G1 X135.779 Y113.659 E0.23228
G1 X114.221 Y113.659 E1.17128
G1 X114.221 Y96.502 E0.93222
G1 X135.719 Y96.502 E1.16802
M204 S1000
G1 X135.343 Y96.937 F10800.000
M204 S800
