; generated by PrusaSlicer 2.0.0+win64 on 2020-09-23 at 09:54:43

; 

; external perimeters extrusion width = 0.60mm
; perimeters extrusion width = 0.50mm
; infill extrusion width = 0.50mm
; solid infill extrusion width = 0.50mm
; top infill extrusion width = 0.45mm
; first layer extrusion width = 0.42mm

M73 P0 R81
M73 Q0 S82
M201 X1000 Y1000 Z1000 E5000 ; sets maximum accelerations, mm/sec^2
M203 X200 Y200 Z12 E120 ; sets maximum feedrates, mm/sec
M204 P1250 R1250 T1250 ; sets acceleration (P, T) and retract acceleration (R), mm/sec^2
M205 X8.00 Y8.00 Z0.40 E1.50 ; sets the jerk limits, mm/sec
M205 S0 T0 ; sets the minimum extruding and travel feed rate, mm/sec
M107
M115 U3.8.0 ; tell printer latest fw version
G90 ; use absolute coordinates
M83 ; extruder relative mode
M104 S215 ; set extruder temp
M140 S67 ; set bed temp
M190 S67 ; wait for bed temp
M109 S215 ; wait for extruder temp
G28 W ; home all without mesh bed level
G80 ; mesh bed leveling
G1 Y-3.0 F1000.0 ; go outside print area
G92 E0.0
G1 X60.0 E9.0 F1000.0 ; intro line
M73 Q0 S82
M73 P0 R81
G1 X100.0 E12.5 F1000.0 ; intro line
G92 E0.0
M221 S95
M900 K30 ; Filament gcode
G21 ; set units to millimeters
G90 ; use absolute coordinates
M83 ; use relative distances for extrusion
;BEFORE_LAYER_CHANGE
G92 E0.0
;0.2


G1 E-0.80000 F2100.00000
G1 Z0.600 F10800.000
;AFTER_LAYER_CHANGE
;0.2
G1 X66.078 Y65.067
G1 Z0.200
G1 E0.80000 F2100.00000
M204 S1000
G1 F1200
G1 X108.697 Y65.067 E1.33627
G1 X108.697 Y92.962 E0.87462
G1 X108.728 Y93.719 E0.02374
G1 X108.822 Y94.474 E0.02388
G1 X108.979 Y95.220 E0.02388
G1 X109.196 Y95.949 E0.02388
G1 X109.473 Y96.659 E0.02388
G1 X109.808 Y97.343 E0.02388
G1 X110.198 Y97.997 E0.02388
G1 X110.641 Y98.617 E0.02388
G1 X111.133 Y99.198 E0.02388
G1 X111.660 Y99.725 E0.02339
G1 X112.240 Y100.218 E0.02388
G1 X112.860 Y100.662 E0.02388
G1 X113.513 Y101.052 E0.02388
G1 X114.197 Y101.388 E0.02388
G1 X114.768 Y101.611 E0.01921
G1 X114.768 Y117.148 E0.48716
G1 X150.588 Y117.148 E1.12311
G1 X150.588 Y102.168 E0.46971
G1 X191.974 Y102.168 E1.29764
G1 X192.890 Y102.200 E0.02874
G1 X193.798 Y102.298 E0.02863
G1 X194.696 Y102.460 E0.02863
G1 X195.581 Y102.686 E0.02863
G1 X196.447 Y102.974 E0.02863
G1 X197.291 Y103.324 E0.02863
G1 X198.107 Y103.732 E0.02863
G1 X198.893 Y104.198 E0.02863
G1 X199.642 Y104.719 E0.02863
G1 X200.353 Y105.292 E0.02863
G1 X201.022 Y105.914 E0.02863
G1 X201.644 Y106.582 E0.02863
G1 X202.217 Y107.293 E0.02863
G1 X202.737 Y108.043 E0.02863
G1 X203.203 Y108.828 E0.02863
G1 X203.612 Y109.644 E0.02863
G1 X203.961 Y110.488 E0.02863
G1 X204.250 Y111.354 E0.02863
G1 X204.475 Y112.239 E0.02863
G1 X204.637 Y113.137 E0.02863
G1 X204.735 Y114.045 E0.02863
G1 X204.768 Y114.961 E0.02874
G1 X204.768 Y141.933 E0.84569
G1 X202.768 Y141.933 E0.06271
G1 X202.768 Y144.933 E0.09405
G1 X47.188 Y144.933 E4.87810
G1 X47.188 Y141.933 E0.09405
G1 X45.232 Y141.933 E0.06132
G1 X45.232 Y112.462 E0.92406
G1 X45.264 Y111.650 E0.02546
G1 X45.359 Y110.848 E0.02533
G1 X45.517 Y110.055 E0.02533
G1 X45.736 Y109.278 E0.02533
G1 X46.022 Y108.505 E0.02584
G1 X46.354 Y107.786 E0.02483
G1 X46.749 Y107.081 E0.02533
G1 X47.197 Y106.410 E0.02533
G1 X47.709 Y105.763 E0.02584
G1 X48.246 Y105.182 E0.02483
G1 X48.839 Y104.633 E0.02533
G1 X49.474 Y104.133 E0.02533
G1 X50.146 Y103.684 E0.02533
G1 X50.851 Y103.289 E0.02533
G1 X51.584 Y102.951 E0.02533
G1 X52.342 Y102.671 E0.02533
G1 X53.120 Y102.452 E0.02533
G1 X53.913 Y102.294 E0.02533
G1 X54.715 Y102.199 E0.02533
G1 X55.526 Y102.168 E0.02546
G1 X57.373 Y102.168 E0.05790
G1 X58.127 Y102.135 E0.02368
G1 X58.881 Y102.035 E0.02383
G1 X59.623 Y101.871 E0.02382
G1 X60.347 Y101.643 E0.02383
G1 X61.049 Y101.352 E0.02383
G1 X61.723 Y101.001 E0.02383
G1 X62.364 Y100.593 E0.02383
G1 X62.967 Y100.130 E0.02383
G1 X63.527 Y99.617 E0.02383
G1 X64.041 Y99.056 E0.02383
G1 X64.503 Y98.454 E0.02383
G1 X64.911 Y97.813 E0.02383
G1 X65.262 Y97.139 E0.02383
G1 X65.553 Y96.437 E0.02383
G1 X65.782 Y95.712 E0.02382
G1 X65.946 Y94.970 E0.02383
G1 X66.045 Y94.217 E0.02382
G1 X66.078 Y93.462 E0.02368
G1 X66.078 Y65.127 E0.88843
G1 X66.425 Y65.267 F10800.000
G1 X66.455 Y65.444
G1 F1200
G1 X108.320 Y65.444 E1.31263
G1 X108.320 Y92.970 E0.86305
G1 X108.352 Y93.750 E0.02448
G1 X108.450 Y94.536 E0.02486
G1 X108.613 Y95.312 E0.02486
G1 X108.839 Y96.072 E0.02486
G1 X109.128 Y96.811 E0.02486
G1 X109.476 Y97.523 E0.02486
G1 X109.882 Y98.204 E0.02486
G1 X110.343 Y98.849 E0.02486
G1 X110.855 Y99.453 E0.02485
G1 X111.404 Y100.003 E0.02436
G1 X112.008 Y100.516 E0.02485
G1 X112.653 Y100.977 E0.02486
G1 X113.333 Y101.384 E0.02486
G1 X114.045 Y101.733 E0.02486
G1 X114.391 Y101.868 E0.01163
G1 X114.391 Y117.525 E0.49091
G1 X150.965 Y117.525 E1.14676
G1 X150.965 Y102.545 E0.46971
G1 X191.967 Y102.545 E1.28560
G1 X192.863 Y102.577 E0.02811
G1 X193.744 Y102.671 E0.02778
G1 X194.616 Y102.829 E0.02778
G1 X195.475 Y103.048 E0.02778
G1 X196.316 Y103.328 E0.02778
G1 X197.134 Y103.667 E0.02778
G1 X197.927 Y104.063 E0.02778
G1 X198.689 Y104.515 E0.02778
G1 X199.416 Y105.021 E0.02778
G1 X200.106 Y105.577 E0.02778
G1 X200.755 Y106.181 E0.02778
G1 X201.359 Y106.829 E0.02778
G1 X201.915 Y107.519 E0.02778
G1 X202.420 Y108.247 E0.02778
G1 X202.872 Y109.009 E0.02778
G1 X203.269 Y109.801 E0.02778
G1 X203.608 Y110.620 E0.02778
G1 X203.888 Y111.461 E0.02778
G1 X204.107 Y112.319 E0.02778
G1 X204.264 Y113.191 E0.02778
G1 X204.359 Y114.072 E0.02778
G1 X204.391 Y114.968 E0.02811
G1 X204.391 Y141.556 E0.83365
G1 X202.391 Y141.556 E0.06271
G1 X202.391 Y144.556 E0.09405
G1 X47.565 Y144.556 E4.85446
G1 X47.565 Y141.556 E0.09405
G1 X45.609 Y141.556 E0.06132
G1 X45.609 Y112.469 E0.91200
G1 X45.640 Y111.680 E0.02477
G1 X45.732 Y110.907 E0.02440
G1 X45.884 Y110.144 E0.02440
G1 X46.095 Y109.395 E0.02439
G1 X46.371 Y108.650 E0.02491
G1 X46.690 Y107.957 E0.02391
G1 X47.070 Y107.278 E0.02440
G1 X47.503 Y106.632 E0.02439
G1 X47.995 Y106.008 E0.02491
G1 X48.513 Y105.448 E0.02391
G1 X49.085 Y104.920 E0.02440
G1 X49.696 Y104.438 E0.02440
G1 X50.343 Y104.006 E0.02440
G1 X51.022 Y103.626 E0.02440
G1 X51.729 Y103.300 E0.02440
G1 X52.459 Y103.030 E0.02440
G1 X53.208 Y102.819 E0.02440
G1 X53.972 Y102.667 E0.02440
G1 X54.744 Y102.576 E0.02440
G1 X55.534 Y102.545 E0.02477
G1 X57.381 Y102.545 E0.05792
G1 X58.160 Y102.511 E0.02446
G1 X58.946 Y102.407 E0.02486
G1 X59.720 Y102.236 E0.02486
G1 X60.476 Y101.997 E0.02486
G1 X61.209 Y101.694 E0.02486
G1 X61.912 Y101.328 E0.02486
G1 X62.581 Y100.902 E0.02486
G1 X63.210 Y100.419 E0.02486
G1 X63.794 Y99.884 E0.02486
G1 X64.330 Y99.299 E0.02486
G1 X64.812 Y98.670 E0.02486
G1 X65.238 Y98.001 E0.02486
G1 X65.604 Y97.298 E0.02486
G1 X65.908 Y96.566 E0.02486
G1 X66.146 Y95.810 E0.02486
G1 X66.318 Y95.036 E0.02486
G1 X66.421 Y94.250 E0.02486
G1 X66.455 Y93.470 E0.02446
G1 X66.455 Y65.504 E0.87686
G1 X66.832 Y65.821 F10800.000
G1 F1200
G1 X107.943 Y65.821 E1.28898
G1 X107.943 Y92.978 E0.85147
G1 X107.976 Y93.781 E0.02521
G1 X108.078 Y94.599 E0.02584
G1 X108.247 Y95.405 E0.02584
G1 X108.482 Y96.195 E0.02584
G1 X108.782 Y96.962 E0.02584
G1 X109.144 Y97.702 E0.02584
G1 X109.566 Y98.410 E0.02584
G1 X110.045 Y99.081 E0.02584
G1 X110.578 Y99.709 E0.02582
G1 X111.148 Y100.280 E0.02532
G1 X111.776 Y100.813 E0.02582
G1 X112.446 Y101.293 E0.02584
G1 X113.153 Y101.716 E0.02584
G1 X114.014 Y102.126 E0.02988
G1 X114.014 Y117.902 E0.49467
G1 X151.342 Y117.902 E1.17040
G1 X151.342 Y102.922 E0.46971
M73 Q1 S81
G1 X191.961 Y102.922 E1.27357
M73 P1 R80
G1 X192.836 Y102.953 E0.02748
G1 X193.691 Y103.045 E0.02694
G1 X194.536 Y103.197 E0.02694
G1 X195.369 Y103.410 E0.02694
G1 X196.184 Y103.681 E0.02694
G1 X196.977 Y104.010 E0.02694
G1 X197.746 Y104.395 E0.02694
G1 X198.485 Y104.833 E0.02694
G1 X199.190 Y105.323 E0.02694
G1 X199.859 Y105.862 E0.02694
G1 X200.488 Y106.447 E0.02694
G1 X201.073 Y107.076 E0.02694
G1 X201.613 Y107.745 E0.02694
G1 X202.102 Y108.451 E0.02694
G1 X202.541 Y109.190 E0.02694
G1 X202.925 Y109.958 E0.02694
G1 X203.254 Y110.752 E0.02694
G1 X203.526 Y111.567 E0.02694
G1 X203.738 Y112.399 E0.02694
G1 X203.891 Y113.245 E0.02694
G1 X203.982 Y114.099 E0.02694
G1 X204.014 Y114.975 E0.02748
G1 X204.014 Y141.179 E0.82162
G1 X202.014 Y141.179 E0.06271
G1 X202.014 Y144.179 E0.09405
G1 X47.942 Y144.179 E4.83081
G1 X47.942 Y141.179 E0.09405
G1 X45.986 Y141.179 E0.06132
G1 X45.986 Y112.477 E0.89995
G1 X46.016 Y111.709 E0.02407
G1 X46.104 Y110.966 E0.02347
G1 X46.251 Y110.232 E0.02347
G1 X46.454 Y109.512 E0.02345
G1 X46.719 Y108.795 E0.02398
G1 X47.026 Y108.129 E0.02299
G1 X47.392 Y107.476 E0.02348
G1 X47.808 Y106.854 E0.02345
G1 X48.282 Y106.254 E0.02398
G1 X48.780 Y105.715 E0.02299
G1 X49.330 Y105.207 E0.02347
G1 X49.918 Y104.744 E0.02347
G1 X50.540 Y104.328 E0.02347
G1 X51.193 Y103.962 E0.02347
G1 X51.873 Y103.648 E0.02347
G1 X52.576 Y103.389 E0.02347
G1 X53.296 Y103.186 E0.02347
G1 X54.031 Y103.040 E0.02347
G1 X54.774 Y102.952 E0.02347
G1 X55.541 Y102.922 E0.02407
G1 X57.389 Y102.922 E0.05795
G1 X58.193 Y102.887 E0.02523
G1 X59.012 Y102.779 E0.02589
G1 X59.818 Y102.600 E0.02589
G1 X60.605 Y102.352 E0.02589
G1 X61.368 Y102.036 E0.02589
G1 X62.101 Y101.655 E0.02589
G1 X62.797 Y101.211 E0.02589
G1 X63.452 Y100.708 E0.02589
G1 X64.061 Y100.150 E0.02589
G1 X64.619 Y99.542 E0.02589
G1 X65.122 Y98.887 E0.02589
G1 X65.565 Y98.190 E0.02589
G1 X65.946 Y97.458 E0.02589
G1 X66.262 Y96.695 E0.02589
G1 X66.511 Y95.907 E0.02589
G1 X66.689 Y95.101 E0.02589
G1 X66.797 Y94.283 E0.02589
G1 X66.832 Y93.479 E0.02523
G1 X66.832 Y65.881 E0.86530
G1 X67.209 Y66.198 F10800.000
G1 F1200
G1 X107.566 Y66.198 E1.26534
G1 X107.566 Y92.985 E0.83989
G1 X107.600 Y93.812 E0.02594
G1 X107.706 Y94.661 E0.02681
G1 X107.881 Y95.498 E0.02681
G1 X108.125 Y96.317 E0.02681
G1 X108.436 Y97.114 E0.02681
G1 X108.812 Y97.882 E0.02681
G1 X109.250 Y98.617 E0.02681
G1 X109.747 Y99.313 E0.02681
G1 X110.300 Y99.964 E0.02679
G1 X110.892 Y100.558 E0.02629
G1 X111.544 Y101.111 E0.02680
G1 X112.239 Y101.609 E0.02681
G1 X112.973 Y102.047 E0.02681
G1 X113.637 Y102.373 E0.02316
G1 X113.637 Y118.280 E0.49875
G1 X151.719 Y118.280 E1.19405
G1 X151.719 Y103.299 E0.46971
G1 X191.954 Y103.299 E1.26153
G1 X192.809 Y103.329 E0.02684
G1 X193.637 Y103.418 E0.02609
G1 X194.456 Y103.566 E0.02609
G1 X195.262 Y103.772 E0.02609
G1 X196.052 Y104.035 E0.02609
G1 X196.821 Y104.353 E0.02609
G1 X197.565 Y104.726 E0.02609
G1 X198.281 Y105.150 E0.02609
G1 X198.964 Y105.625 E0.02609
G1 X199.612 Y106.147 E0.02609
G1 X200.221 Y106.714 E0.02609
G1 X200.788 Y107.323 E0.02609
G1 X201.310 Y107.971 E0.02609
G1 X201.785 Y108.655 E0.02609
G1 X202.210 Y109.371 E0.02609
G1 X202.582 Y110.115 E0.02609
G1 X202.901 Y110.884 E0.02609
G1 X203.164 Y111.673 E0.02609
G1 X203.369 Y112.480 E0.02609
G1 X203.517 Y113.299 E0.02609
G1 X203.606 Y114.126 E0.02609
G1 X203.637 Y114.982 E0.02684
G1 X203.637 Y140.802 E0.80958
G1 X201.637 Y140.802 E0.06271
G1 X201.637 Y143.802 E0.09405
G1 X48.319 Y143.802 E4.80716
G1 X48.319 Y140.802 E0.09405
G1 X46.363 Y140.802 E0.06132
G1 X46.363 Y112.484 E0.88789
G1 X46.393 Y111.739 E0.02337
G1 X46.477 Y111.025 E0.02255
G1 X46.617 Y110.320 E0.02255
G1 X46.812 Y109.629 E0.02251
G1 X47.068 Y108.939 E0.02305
G1 X47.363 Y108.300 E0.02207
G1 X47.714 Y107.673 E0.02255
G1 X48.113 Y107.076 E0.02251
G1 X48.569 Y106.499 E0.02305
G1 X49.047 Y105.982 E0.02207
G1 X49.575 Y105.494 E0.02255
G1 X50.139 Y105.049 E0.02255
G1 X50.737 Y104.649 E0.02255
G1 X51.365 Y104.298 E0.02255
G1 X52.018 Y103.997 E0.02255
G1 X52.692 Y103.748 E0.02255
G1 X53.384 Y103.553 E0.02255
G1 X54.090 Y103.413 E0.02255
G1 X54.804 Y103.328 E0.02255
G1 X55.549 Y103.299 E0.02337
G1 X57.397 Y103.299 E0.05797
G1 X58.226 Y103.263 E0.02600
G1 X59.077 Y103.151 E0.02692
G1 X59.916 Y102.965 E0.02692
G1 X60.735 Y102.707 E0.02692
G1 X61.528 Y102.378 E0.02692
G1 X62.289 Y101.981 E0.02692
G1 X63.014 Y101.520 E0.02692
G1 X63.695 Y100.997 E0.02692
G1 X64.328 Y100.417 E0.02692
G1 X64.908 Y99.784 E0.02692
G1 X65.431 Y99.103 E0.02692
G1 X65.892 Y98.379 E0.02692
G1 X66.289 Y97.617 E0.02692
G1 X66.617 Y96.824 E0.02692
G1 X66.875 Y96.005 E0.02692
G1 X67.061 Y95.167 E0.02692
G1 X67.173 Y94.315 E0.02692
G1 X67.209 Y93.487 E0.02600
G1 X67.209 Y66.258 E0.85373
G1 X67.587 Y66.575 F10800.000
G1 F1200
G1 X107.188 Y66.575 E1.24169
G1 X107.188 Y92.993 E0.82831
G1 X107.224 Y93.843 E0.02668
G1 X107.333 Y94.723 E0.02779
G1 X107.515 Y95.590 E0.02779
G1 X107.768 Y96.440 E0.02779
G1 X108.091 Y97.266 E0.02779
G1 X108.480 Y98.062 E0.02779
G1 X108.934 Y98.823 E0.02779
G1 X109.450 Y99.544 E0.02779
G1 X110.022 Y100.220 E0.02777
G1 X110.637 Y100.835 E0.02726
G1 X111.312 Y101.408 E0.02777
G1 X112.032 Y101.924 E0.02779
G1 X112.793 Y102.379 E0.02779
G1 X113.259 Y102.608 E0.01628
G1 X113.259 Y118.657 E0.50320
G1 X152.096 Y118.657 E1.21770
G1 X152.096 Y103.676 E0.46971
G1 X191.947 Y103.676 E1.24950
G1 X192.783 Y103.706 E0.02621
G1 X193.583 Y103.792 E0.02525
G1 X194.376 Y103.935 E0.02525
G1 X195.156 Y104.134 E0.02525
G1 X195.920 Y104.388 E0.02525
G1 X196.664 Y104.696 E0.02525
G1 X197.384 Y105.057 E0.02525
G1 X198.077 Y105.468 E0.02525
G1 X198.738 Y105.927 E0.02525
G1 X199.365 Y106.432 E0.02525
G1 X199.954 Y106.981 E0.02525
G1 X200.503 Y107.570 E0.02525
G1 X201.008 Y108.197 E0.02525
G1 X201.468 Y108.859 E0.02525
G1 X201.879 Y109.551 E0.02525
G1 X202.239 Y110.271 E0.02525
G1 X202.547 Y111.015 E0.02525
G1 X202.801 Y111.779 E0.02525
G1 X203.001 Y112.560 E0.02525
G1 X203.144 Y113.352 E0.02525
G1 X203.230 Y114.153 E0.02525
G1 X203.260 Y114.988 E0.02621
G1 X203.260 Y140.425 E0.79755
G1 X201.260 Y140.425 E0.06271
G1 X201.260 Y143.425 E0.09405
G1 X48.696 Y143.425 E4.78352
M73 Q2 S80
G1 X48.696 Y140.425 E0.09405
G1 X46.741 Y140.425 E0.06132
G1 X46.741 Y112.491 E0.87584
M73 P2 R79
G1 X46.769 Y111.769 E0.02268
G1 X46.850 Y111.084 E0.02162
G1 X46.984 Y110.408 E0.02162
G1 X47.171 Y109.746 E0.02158
G1 X47.416 Y109.084 E0.02212
G1 X47.699 Y108.471 E0.02115
G1 X48.036 Y107.870 E0.02162
G1 X48.418 Y107.298 E0.02158
G1 X48.856 Y106.744 E0.02212
G1 X49.314 Y106.249 E0.02115
G1 X49.820 Y105.781 E0.02162
G1 X50.361 Y105.354 E0.02162
G1 X50.934 Y104.971 E0.02162
G1 X51.536 Y104.634 E0.02162
G1 X52.162 Y104.346 E0.02162
G1 X52.809 Y104.107 E0.02162
G1 X53.472 Y103.920 E0.02162
G1 X54.149 Y103.785 E0.02162
G1 X54.833 Y103.704 E0.02162
G1 X55.556 Y103.676 E0.02268
G1 X57.406 Y103.676 E0.05800
G1 X58.259 Y103.639 E0.02678
G1 X59.143 Y103.522 E0.02795
G1 X60.013 Y103.329 E0.02795
G1 X60.864 Y103.061 E0.02795
G1 X61.687 Y102.720 E0.02795
G1 X62.478 Y102.308 E0.02795
G1 X63.230 Y101.829 E0.02795
G1 X63.937 Y101.287 E0.02795
G1 X64.595 Y100.684 E0.02795
G1 X65.197 Y100.027 E0.02795
G1 X65.740 Y99.320 E0.02795
G1 X66.219 Y98.568 E0.02795
G1 X66.631 Y97.777 E0.02795
G1 X66.972 Y96.953 E0.02795
G1 X67.240 Y96.103 E0.02795
G1 X67.433 Y95.232 E0.02795
G1 X67.549 Y94.348 E0.02795
G1 X67.587 Y93.495 E0.02678
G1 X67.587 Y66.635 E0.84217
G1 X67.964 Y66.952 F10800.000
G1 F1200
G1 X106.811 Y66.952 E1.21804
G1 X106.811 Y93.001 E0.81673
G1 X106.848 Y93.874 E0.02741
G1 X106.961 Y94.785 E0.02877
G1 X107.149 Y95.683 E0.02877
G1 X107.411 Y96.563 E0.02877
G1 X107.745 Y97.417 E0.02877
G1 X108.148 Y98.242 E0.02877
G1 X108.618 Y99.030 E0.02877
G1 X109.152 Y99.776 E0.02877
G1 X109.744 Y100.476 E0.02874
G1 X110.381 Y101.113 E0.02823
G1 X111.079 Y101.706 E0.02874
G1 X111.826 Y102.240 E0.02877
G1 X112.613 Y102.711 E0.02877
G1 X112.882 Y102.843 E0.00940
G1 X112.882 Y119.034 E0.50765
G1 X152.473 Y119.034 E1.24134
G1 X152.473 Y104.053 E0.46971
G1 X191.940 Y104.053 E1.23747
G1 X192.756 Y104.082 E0.02558
G1 X193.530 Y104.165 E0.02440
G1 X194.295 Y104.303 E0.02440
G1 X195.050 Y104.496 E0.02440
G1 X195.788 Y104.742 E0.02440
G1 X196.507 Y105.040 E0.02440
G1 X197.203 Y105.388 E0.02440
G1 X197.873 Y105.785 E0.02440
G1 X198.512 Y106.229 E0.02440
G1 X199.118 Y106.717 E0.02440
G1 X199.688 Y107.248 E0.02440
G1 X200.218 Y107.817 E0.02440
G1 X200.706 Y108.424 E0.02440
G1 X201.150 Y109.063 E0.02440
G1 X201.547 Y109.732 E0.02440
G1 X201.896 Y110.428 E0.02440
G1 X202.194 Y111.147 E0.02440
G1 X202.439 Y111.886 E0.02440
G1 X202.632 Y112.640 E0.02440
G1 X202.770 Y113.406 E0.02440
G1 X202.853 Y114.180 E0.02440
