; generated by PrusaSlicer 2.0.0+win64 on 2020-09-21 at 18:12:10

; 

; external perimeters extrusion width = 0.60mm
; perimeters extrusion width = 0.50mm
; infill extrusion width = 0.50mm
; solid infill extrusion width = 0.50mm
; top infill extrusion width = 0.45mm
; first layer extrusion width = 0.42mm

M73 P0 R36
M73 Q0 S36
M201 X1000 Y1000 Z1000 E5000 ; sets maximum accelerations, mm/sec^2
M203 X200 Y200 Z12 E120 ; sets maximum feedrates, mm/sec
M204 P1250 R1250 T1250 ; sets acceleration (P, T) and retract acceleration (R), mm/sec^2
M205 X8.00 Y8.00 Z0.40 E1.50 ; sets the jerk limits, mm/sec
M205 S0 T0 ; sets the minimum extruding and travel feed rate, mm/sec
M107
M115 U3.8.0 ; tell printer latest fw version
G90 ; use absolute coordinates
M83 ; extruder relative mode
M104 S215 ; set extruder temp
M140 S67 ; set bed temp
M190 S67 ; wait for bed temp
M109 S215 ; wait for extruder temp
G28 W ; home all without mesh bed level
G80 ; mesh bed leveling
G1 Y-3.0 F1000.0 ; go outside print area
G92 E0.0
G1 X60.0 E9.0 F1000.0 ; intro line
M73 Q0 S36
M73 P0 R36
G1 X100.0 E12.5 F1000.0 ; intro line
G92 E0.0
M221 S95
M900 K30 ; Filament gcode
G21 ; set units to millimeters
G90 ; use absolute coordinates
M83 ; use relative distances for extrusion
;BEFORE_LAYER_CHANGE
G92 E0.0
;0.5


G1 E-0.80000 F2100.00000
G1 Z0.600 F10800.000
;AFTER_LAYER_CHANGE
;0.5
G1 X135.685 Y47.728
G1 Z0.500
G1 E0.80000 F2100.00000
M204 S1000
G1 F1200
G1 X193.265 Y47.728 E2.55395
G1 X193.265 Y77.308 E1.31202
G1 X189.685 Y77.308 E0.15879
G1 X189.685 Y51.308 E1.15323
G1 X141.265 Y51.308 E2.14766
G1 X141.265 Y77.308 E1.15323
G1 X135.685 Y77.308 E0.24750
G1 X135.685 Y47.788 E1.30935
G1 X136.043 Y47.906 F10800.000
G1 X136.040 Y48.084
G1 F1200
G1 X192.909 Y48.084 E2.52240
G1 X192.909 Y76.952 E1.28047
G1 X190.040 Y76.952 E0.12724
G1 X190.040 Y50.952 E1.15323
G1 X140.909 Y50.952 E2.17921
G1 X140.909 Y76.952 E1.15323
G1 X136.040 Y76.952 E0.21595
G1 X136.040 Y48.144 E1.27781
G1 F8640
G1 X139.332 Y48.140 E-0.76000
G1 E-0.04000 F2100.00000
G1 Z1.100 F10800.000
G1 X136.147 Y76.123
G1 Z0.500
G1 E0.80000 F2100.00000
G1 F1200
G1 X136.709 Y76.686 E0.03543
G1 X137.215 Y76.686 E0.02251
G1 X136.307 Y75.778 E0.05719
G1 X136.307 Y75.273 E0.02251
G1 X137.720 Y76.686 E0.08902
G1 X138.225 Y76.686 E0.02251
G1 X136.307 Y74.768 E0.12086
G1 X136.307 Y74.262 E0.02251
G1 X138.730 Y76.686 E0.15269
G1 X139.235 Y76.686 E0.02251
G1 X136.307 Y73.757 E0.18453
G1 X136.307 Y73.252 E0.02251
G1 X139.741 Y76.686 E0.21636
G1 X140.246 Y76.686 E0.02251
G1 X136.307 Y72.747 E0.24820
G1 X136.307 Y72.242 E0.02251
G1 X140.642 Y76.577 E0.27319
G1 X140.642 Y76.072 E0.02251
G1 X136.307 Y71.736 E0.27319
G1 X136.307 Y71.231 E0.02251
G1 X140.642 Y75.567 E0.27319
G1 X140.642 Y75.061 E0.02251
G1 X136.307 Y70.726 E0.27319
G1 X136.307 Y70.221 E0.02251
G1 X140.642 Y74.556 E0.27319
G1 X140.642 Y74.051 E0.02251
G1 X136.307 Y69.716 E0.27319
G1 X136.307 Y69.210 E0.02251
G1 X140.642 Y73.546 E0.27319
G1 X140.642 Y73.040 E0.02251
G1 X136.307 Y68.705 E0.27319
G1 X136.307 Y68.200 E0.02251
G1 X140.642 Y72.535 E0.27319
G1 X140.642 Y72.030 E0.02251
G1 X136.307 Y67.695 E0.27319
G1 X136.307 Y67.189 E0.02251
G1 X140.642 Y71.525 E0.27319
G1 X140.642 Y71.020 E0.02251
G1 X136.307 Y66.684 E0.27319
G1 X136.307 Y66.179 E0.02251
G1 X140.642 Y70.514 E0.27319
G1 X140.642 Y70.009 E0.02251
G1 X136.307 Y65.674 E0.27319
G1 X136.307 Y65.169 E0.02251
G1 X140.642 Y69.504 E0.27319
G1 X140.642 Y68.999 E0.02251
G1 X136.307 Y64.663 E0.27319
G1 X136.307 Y64.158 E0.02251
G1 X140.642 Y68.493 E0.27319
G1 X140.642 Y67.988 E0.02251
G1 X136.307 Y63.653 E0.27319
G1 X136.307 Y63.148 E0.02251
G1 X140.642 Y67.483 E0.27319
G1 X140.642 Y66.978 E0.02251
G1 X136.307 Y62.642 E0.27319
G1 X136.307 Y62.137 E0.02251
G1 X140.642 Y66.473 E0.27319
G1 X140.642 Y65.967 E0.02251
G1 X136.307 Y61.632 E0.27319
G1 X136.307 Y61.127 E0.02251
G1 X140.642 Y65.462 E0.27319
G1 X140.642 Y64.957 E0.02251
G1 X136.307 Y60.622 E0.27319
G1 X136.307 Y60.116 E0.02251
G1 X140.642 Y64.452 E0.27319
G1 X140.642 Y63.947 E0.02251
G1 X136.307 Y59.611 E0.27319
G1 X136.307 Y59.106 E0.02251
G1 X140.642 Y63.441 E0.27319
G1 X140.642 Y62.936 E0.02251
G1 X136.307 Y58.601 E0.27319
G1 X136.307 Y58.096 E0.02251
G1 X140.642 Y62.431 E0.27319
G1 X140.642 Y61.926 E0.02251
G1 X136.307 Y57.590 E0.27319
G1 X136.307 Y57.085 E0.02251
G1 X140.642 Y61.420 E0.27319
G1 X140.642 Y60.915 E0.02251
G1 X136.307 Y56.580 E0.27319
G1 X136.307 Y56.075 E0.02251
G1 X140.642 Y60.410 E0.27319
G1 X140.642 Y59.905 E0.02251
G1 X136.307 Y55.569 E0.27319
G1 X136.307 Y55.064 E0.02251
G1 X140.642 Y59.400 E0.27319
G1 X140.642 Y58.894 E0.02251
G1 X136.307 Y54.559 E0.27319
G1 X136.307 Y54.054 E0.02251
G1 X140.642 Y58.389 E0.27319
G1 X140.642 Y57.884 E0.02251
G1 X136.307 Y53.549 E0.27319
G1 X136.307 Y53.043 E0.02251
G1 X140.642 Y57.379 E0.27319
G1 X140.642 Y56.873 E0.02251
G1 X136.307 Y52.538 E0.27319
G1 X136.307 Y52.033 E0.02251
G1 X140.642 Y56.368 E0.27319
G1 X140.642 Y55.863 E0.02251
G1 X136.307 Y51.528 E0.27319
G1 X136.307 Y51.022 E0.02251
G1 X140.642 Y55.358 E0.27319
G1 X140.642 Y54.853 E0.02251
G1 X136.307 Y50.517 E0.27319
G1 X136.307 Y50.012 E0.02251
G1 X140.642 Y54.347 E0.27319
G1 X140.642 Y53.842 E0.02251
G1 X136.307 Y49.507 E0.27319
G1 X136.307 Y49.002 E0.02251
G1 X140.642 Y53.337 E0.27319
G1 X140.642 Y52.832 E0.02251
G1 X136.307 Y48.496 E0.27319
G1 X136.307 Y48.350 E0.00651
G1 X136.666 Y48.350 E0.01600
G1 X140.642 Y52.327 E0.25056
G1 X140.642 Y51.821 E0.02251
G1 X137.171 Y48.350 E0.21872
G1 X137.677 Y48.350 E0.02251
G1 X140.642 Y51.316 E0.18689
G1 X140.642 Y50.811 E0.02251
G1 X138.182 Y48.350 E0.15505
G1 X138.687 Y48.350 E0.02251
G1 X141.022 Y50.686 E0.14716
G1 X141.528 Y50.686 E0.02251
G1 X139.192 Y48.350 E0.14716
G1 X139.697 Y48.350 E0.02251
G1 X142.033 Y50.686 E0.14716
G1 X142.538 Y50.686 E0.02251
G1 X140.203 Y48.350 E0.14716
G1 X140.708 Y48.350 E0.02251
G1 X143.043 Y50.686 E0.14716
G1 X143.548 Y50.686 E0.02251
G1 X141.213 Y48.350 E0.14716
G1 X141.718 Y48.350 E0.02251
G1 X144.054 Y50.686 E0.14716
G1 X144.559 Y50.686 E0.02251
G1 X142.224 Y48.350 E0.14716
G1 X142.729 Y48.350 E0.02251
G1 X145.064 Y50.686 E0.14716
G1 X145.569 Y50.686 E0.02251
G1 X143.234 Y48.350 E0.14716
G1 X143.739 Y48.350 E0.02251
G1 X146.075 Y50.686 E0.14716
G1 X146.580 Y50.686 E0.02251
G1 X144.244 Y48.350 E0.14716
G1 X144.750 Y48.350 E0.02251
G1 X147.085 Y50.686 E0.14716
G1 X147.590 Y50.686 E0.02251
G1 X145.255 Y48.350 E0.14716
G1 X145.760 Y48.350 E0.02251
G1 X148.095 Y50.686 E0.14716
G1 X148.601 Y50.686 E0.02251
G1 X146.265 Y48.350 E0.14716
G1 X146.771 Y48.350 E0.02251
G1 X149.106 Y50.686 E0.14716
G1 X149.611 Y50.686 E0.02251
G1 X147.276 Y48.350 E0.14716
G1 X147.781 Y48.350 E0.02251
G1 X150.116 Y50.686 E0.14716
G1 X150.622 Y50.686 E0.02251
G1 X148.286 Y48.350 E0.14716
G1 X148.791 Y48.350 E0.02251
G1 X151.127 Y50.686 E0.14716
G1 X151.632 Y50.686 E0.02251
G1 X149.297 Y48.350 E0.14716
G1 X149.802 Y48.350 E0.02251
G1 X152.137 Y50.686 E0.14716
G1 X152.642 Y50.686 E0.02251
G1 X150.307 Y48.350 E0.14716
G1 X150.812 Y48.350 E0.02251
G1 X153.148 Y50.686 E0.14716
G1 X153.653 Y50.686 E0.02251
G1 X151.317 Y48.350 E0.14716
G1 X151.823 Y48.350 E0.02251
G1 X154.158 Y50.686 E0.14716
G1 X154.663 Y50.686 E0.02251
G1 X152.328 Y48.350 E0.14716
G1 X152.833 Y48.350 E0.02251
G1 X155.168 Y50.686 E0.14716
G1 X155.674 Y50.686 E0.02251
G1 X153.338 Y48.350 E0.14716
G1 X153.844 Y48.350 E0.02251
G1 X156.179 Y50.686 E0.14716
G1 X156.684 Y50.686 E0.02251
G1 X154.349 Y48.350 E0.14716
G1 X154.854 Y48.350 E0.02251
G1 X157.189 Y50.686 E0.14716
G1 X157.695 Y50.686 E0.02251
G1 X155.359 Y48.350 E0.14716
G1 X155.864 Y48.350 E0.02251
G1 X158.200 Y50.686 E0.14716
G1 X158.705 Y50.686 E0.02251
G1 X156.370 Y48.350 E0.14716
G1 X156.875 Y48.350 E0.02251
G1 X159.210 Y50.686 E0.14716
G1 X159.715 Y50.686 E0.02251
G1 X157.380 Y48.350 E0.14716
G1 X157.885 Y48.350 E0.02251
G1 X160.221 Y50.686 E0.14716
G1 X160.726 Y50.686 E0.02251
G1 X158.391 Y48.350 E0.14716
G1 X158.896 Y48.350 E0.02251
G1 X161.231 Y50.686 E0.14716
G1 X161.736 Y50.686 E0.02251
G1 X159.401 Y48.350 E0.14716
G1 X159.906 Y48.350 E0.02251
G1 X162.242 Y50.686 E0.14716
G1 X162.747 Y50.686 E0.02251
G1 X160.411 Y48.350 E0.14716
G1 X160.917 Y48.350 E0.02251
G1 X163.252 Y50.686 E0.14716
G1 X163.757 Y50.686 E0.02251
G1 X161.422 Y48.350 E0.14716
G1 X161.927 Y48.350 E0.02251
G1 X164.262 Y50.686 E0.14716
G1 X164.768 Y50.686 E0.02251
G1 X162.432 Y48.350 E0.14716
G1 X162.937 Y48.350 E0.02251
G1 X165.273 Y50.686 E0.14716
G1 X165.778 Y50.686 E0.02251
G1 X163.443 Y48.350 E0.14716
G1 X163.948 Y48.350 E0.02251
G1 X166.283 Y50.686 E0.14716
G1 X166.789 Y50.686 E0.02251
G1 X164.453 Y48.350 E0.14716
G1 X164.958 Y48.350 E0.02251
G1 X167.294 Y50.686 E0.14716
G1 X167.799 Y50.686 E0.02251
G1 X165.464 Y48.350 E0.14716
G1 X165.969 Y48.350 E0.02251
G1 X168.304 Y50.686 E0.14716
G1 X168.809 Y50.686 E0.02251
G1 X166.474 Y48.350 E0.14716
G1 X166.979 Y48.350 E0.02251
G1 X169.315 Y50.686 E0.14716
G1 X169.820 Y50.686 E0.02251
G1 X167.484 Y48.350 E0.14716
G1 X167.990 Y48.350 E0.02251
G1 X170.325 Y50.686 E0.14716
G1 X170.830 Y50.686 E0.02251
G1 X168.495 Y48.350 E0.14716
G1 X169.000 Y48.350 E0.02251
G1 X171.335 Y50.686 E0.14716
G1 X171.841 Y50.686 E0.02251
G1 X169.505 Y48.350 E0.14716
G1 X170.011 Y48.350 E0.02251
G1 X172.346 Y50.686 E0.14716
G1 X172.851 Y50.686 E0.02251
G1 X170.516 Y48.350 E0.14716
G1 X171.021 Y48.350 E0.02251
G1 X173.356 Y50.686 E0.14716
G1 X173.862 Y50.686 E0.02251
G1 X171.526 Y48.350 E0.14716
G1 X172.031 Y48.350 E0.02251
G1 X174.367 Y50.686 E0.14716
G1 X174.872 Y50.686 E0.02251
G1 X172.537 Y48.350 E0.14716
G1 X173.042 Y48.350 E0.02251
G1 X175.377 Y50.686 E0.14716
G1 X175.882 Y50.686 E0.02251
G1 X173.547 Y48.350 E0.14716
G1 X174.052 Y48.350 E0.02251
G1 X176.388 Y50.686 E0.14716
G1 X176.893 Y50.686 E0.02251
G1 X174.557 Y48.350 E0.14716
M73 Q2 S35
G1 X175.063 Y48.350 E0.02251
G1 X177.398 Y50.686 E0.14716
M73 P2 R35
G1 X177.903 Y50.686 E0.02251
G1 X175.568 Y48.350 E0.14716
G1 X176.073 Y48.350 E0.02251
G1 X178.409 Y50.686 E0.14716
G1 X178.914 Y50.686 E0.02251
G1 X176.578 Y48.350 E0.14716
G1 X177.084 Y48.350 E0.02251
G1 X179.419 Y50.686 E0.14716
G1 X179.924 Y50.686 E0.02251
G1 X177.589 Y48.350 E0.14716
G1 X178.094 Y48.350 E0.02251
G1 X180.429 Y50.686 E0.14716
G1 X180.935 Y50.686 E0.02251
G1 X178.599 Y48.350 E0.14716
G1 X179.104 Y48.350 E0.02251
G1 X181.440 Y50.686 E0.14716
G1 X181.945 Y50.686 E0.02251
G1 X179.610 Y48.350 E0.14716
G1 X180.115 Y48.350 E0.02251
G1 X182.450 Y50.686 E0.14716
G1 X182.955 Y50.686 E0.02251
G1 X180.620 Y48.350 E0.14716
G1 X181.125 Y48.350 E0.02251
G1 X183.461 Y50.686 E0.14716
G1 X183.966 Y50.686 E0.02251
G1 X181.631 Y48.350 E0.14716
G1 X182.136 Y48.350 E0.02251
G1 X184.471 Y50.686 E0.14716
G1 X184.976 Y50.686 E0.02251
G1 X182.641 Y48.350 E0.14716
G1 X183.146 Y48.350 E0.02251
G1 X185.482 Y50.686 E0.14716
G1 X185.987 Y50.686 E0.02251
G1 X183.651 Y48.350 E0.14716
G1 X184.157 Y48.350 E0.02251
G1 X186.492 Y50.686 E0.14716
G1 X186.997 Y50.686 E0.02251
G1 X184.662 Y48.350 E0.14716
G1 X185.167 Y48.350 E0.02251
G1 X187.502 Y50.686 E0.14716
G1 X188.008 Y50.686 E0.02251
G1 X185.672 Y48.350 E0.14716
G1 X186.178 Y48.350 E0.02251
G1 X188.513 Y50.686 E0.14716
G1 X189.018 Y50.686 E0.02251
G1 X186.683 Y48.350 E0.14716
G1 X187.188 Y48.350 E0.02251
G1 X189.683 Y50.846 E0.15724
G1 F8640
G1 X187.356 Y48.518 E-0.76000
G1 E-0.04000 F2100.00000
G1 Z1.100 F10800.000
G1 X192.802 Y48.913
G1 Z0.500
G1 E0.80000 F2100.00000
G1 F1200
G1 X192.240 Y48.350 E0.03543
G1 X191.735 Y48.350 E0.02251
G1 X192.642 Y49.258 E0.05718
G1 X192.642 Y49.763 E0.02251
G1 X191.230 Y48.350 E0.08902
G1 X190.724 Y48.350 E0.02251
G1 X192.642 Y50.268 E0.12086
G1 X192.642 Y50.773 E0.02251
G1 X190.219 Y48.350 E0.15269
G1 X189.714 Y48.350 E0.02251
G1 X192.642 Y51.279 E0.18453
G1 X192.642 Y51.784 E0.02251
G1 X189.209 Y48.350 E0.21636
G1 X188.704 Y48.350 E0.02251
G1 X192.642 Y52.289 E0.24820
G1 X192.642 Y52.794 E0.02251
G1 X188.198 Y48.350 E0.28003
G1 X187.693 Y48.350 E0.02251
G1 X192.642 Y53.300 E0.31187
G1 X192.642 Y53.805 E0.02251
G1 X190.307 Y51.469 E0.14716
G1 X190.307 Y51.975 E0.02251
G1 X192.642 Y54.310 E0.14716
G1 X192.642 Y54.815 E0.02251
G1 X190.307 Y52.480 E0.14716
G1 X190.307 Y52.985 E0.02251
G1 X192.642 Y55.320 E0.14716
G1 X192.642 Y55.826 E0.02251
G1 X190.307 Y53.490 E0.14716
G1 X190.307 Y53.995 E0.02251
G1 X192.642 Y56.331 E0.14716
G1 X192.642 Y56.836 E0.02251
G1 X190.307 Y54.501 E0.14716
G1 X190.307 Y55.006 E0.02251
G1 X192.642 Y57.341 E0.14716
G1 X192.642 Y57.846 E0.02251
G1 X190.307 Y55.511 E0.14716
G1 X190.307 Y56.016 E0.02251
G1 X192.642 Y58.352 E0.14716
G1 X192.642 Y58.857 E0.02251
G1 X190.307 Y56.522 E0.14716
G1 X190.307 Y57.027 E0.02251
G1 X192.642 Y59.362 E0.14716
G1 X192.642 Y59.867 E0.02251
G1 X190.307 Y57.532 E0.14716
G1 X190.307 Y58.037 E0.02251
G1 X192.642 Y60.373 E0.14716
G1 X192.642 Y60.878 E0.02251
G1 X190.307 Y58.542 E0.14716
G1 X190.307 Y59.048 E0.02251
G1 X192.642 Y61.383 E0.14716
G1 X192.642 Y61.888 E0.02251
G1 X190.307 Y59.553 E0.14716
G1 X190.307 Y60.058 E0.02251
G1 X192.642 Y62.393 E0.14716
G1 X192.642 Y62.899 E0.02251
G1 X190.307 Y60.563 E0.14716
G1 X190.307 Y61.068 E0.02251
G1 X192.642 Y63.404 E0.14716
G1 X192.642 Y63.909 E0.02251
G1 X190.307 Y61.574 E0.14716
G1 X190.307 Y62.079 E0.02251
G1 X192.642 Y64.414 E0.14716
G1 X192.642 Y64.920 E0.02251
G1 X190.307 Y62.584 E0.14716
G1 X190.307 Y63.089 E0.02251
G1 X192.642 Y65.425 E0.14716
G1 X192.642 Y65.930 E0.02251
G1 X190.307 Y63.595 E0.14716
G1 X190.307 Y64.100 E0.02251
G1 X192.642 Y66.435 E0.14716
G1 X192.642 Y66.940 E0.02251
G1 X190.307 Y64.605 E0.14716
G1 X190.307 Y65.110 E0.02251
G1 X192.642 Y67.446 E0.14716
G1 X192.642 Y67.951 E0.02251
G1 X190.307 Y65.615 E0.14716
G1 X190.307 Y66.121 E0.02251
G1 X192.642 Y68.456 E0.14716
G1 X192.642 Y68.961 E0.02251
G1 X190.307 Y66.626 E0.14716
G1 X190.307 Y67.131 E0.02251
G1 X192.642 Y69.466 E0.14716
G1 X192.642 Y69.972 E0.02251
G1 X190.307 Y67.636 E0.14716
G1 X190.307 Y68.142 E0.02251
G1 X192.642 Y70.477 E0.14716
G1 X192.642 Y70.982 E0.02251
G1 X190.307 Y68.647 E0.14716
G1 X190.307 Y69.152 E0.02251
G1 X192.642 Y71.487 E0.14716
G1 X192.642 Y71.993 E0.02251
G1 X190.307 Y69.657 E0.14716
G1 X190.307 Y70.162 E0.02251
G1 X192.642 Y72.498 E0.14716
G1 X192.642 Y73.003 E0.02251
G1 X190.307 Y70.668 E0.14716
G1 X190.307 Y71.173 E0.02251
G1 X192.642 Y73.508 E0.14716
G1 X192.642 Y74.013 E0.02251
G1 X190.307 Y71.678 E0.14716
G1 X190.307 Y72.183 E0.02251
G1 X192.642 Y74.519 E0.14716
G1 X192.642 Y75.024 E0.02251
G1 X190.307 Y72.689 E0.14716
G1 X190.307 Y73.194 E0.02251
G1 X192.642 Y75.529 E0.14716
G1 X192.642 Y76.034 E0.02251
G1 X190.307 Y73.699 E0.14716
G1 X190.307 Y74.204 E0.02251
G1 X192.642 Y76.540 E0.14716
G1 X192.642 Y76.686 E0.00651
G1 X192.283 Y76.686 E0.01600
G1 X190.307 Y74.709 E0.12453
G1 X190.307 Y75.215 E0.02251
G1 X191.778 Y76.686 E0.09270
G1 X191.273 Y76.686 E0.02251
G1 X190.307 Y75.720 E0.06086
G1 X190.307 Y76.225 E0.02251
G1 X190.928 Y76.846 E0.03911
M106 S255
;BEFORE_LAYER_CHANGE
G92 E0.0
;0.8


G1 F8640
G1 X190.307 Y76.225 E-0.20267
G1 X190.307 Y75.720 E-0.11666
G1 X191.273 Y76.686 E-0.31539
G1 X191.778 Y76.686 E-0.11666
G1 X191.752 Y76.659 E-0.00863
G1 E-0.04000 F2100.00000
G1 Z1.100 F10800.000
;AFTER_LAYER_CHANGE
;0.8
M140 S64 ; set bed temperature
G1 X189.775 Y51.218
G1 Z0.800
G1 E0.80000 F2100.00000
M204 S800
G1 X141.175 Y51.218 E3.24674
G1 X141.175 Y77.218 E1.73694
G1 X135.775 Y77.218 E0.36075
G1 X135.775 Y47.818 E1.96408
G1 X193.175 Y47.818 E3.83463
G1 X193.175 Y77.218 E1.96408
G1 X189.775 Y77.218 E0.22714
G1 X189.775 Y51.278 E1.73293
M204 S1000
G1 X189.757 Y50.818 F10800.000
G1 X190.260 Y50.732
M204 S800
G1 F3000
G1 X140.689 Y50.732 E2.69335
G1 X140.689 Y76.732 E1.41265
G1 X136.260 Y76.732 E0.24063
G1 X136.260 Y48.304 E1.54462
G1 X192.689 Y48.304 E3.06594
G1 X192.689 Y76.732 E1.54462
G1 X190.260 Y76.732 E0.13196
G1 X190.260 Y50.792 E1.40939
M204 S1000
G1 F8640
G1 X186.969 Y50.788 E-0.76000
G1 E-0.04000 F2100.00000
G1 Z1.400 F10800.000
G1 X191.678 Y76.602
G1 Z0.800
G1 E0.80000 F2100.00000
M204 S1250
G1 F4728
G1 X192.362 Y75.917 E0.05263
