; generated by PrusaSlicer 2.0.0+win64 on 2020-10-29 at 11:56:01

; 

; external perimeters extrusion width = 0.60mm
; perimeters extrusion width = 0.50mm
; infill extrusion width = 0.50mm
; solid infill extrusion width = 0.50mm
; top infill extrusion width = 0.45mm
; first layer extrusion width = 0.42mm

M73 P0 R491
M73 Q0 S498
M201 X1000 Y1000 Z1000 E5000 ; sets maximum accelerations, mm/sec^2
M203 X200 Y200 Z12 E120 ; sets maximum feedrates, mm/sec
M204 P1250 R1250 T1250 ; sets acceleration (P, T) and retract acceleration (R), mm/sec^2
M205 X8.00 Y8.00 Z0.40 E1.50 ; sets the jerk limits, mm/sec
M205 S0 T0 ; sets the minimum extruding and travel feed rate, mm/sec
M107
M115 U3.8.0 ; tell printer latest fw version
G90 ; use absolute coordinates
M83 ; extruder relative mode
M104 S215 ; set extruder temp
M140 S67 ; set bed temp
M190 S67 ; wait for bed temp
M109 S215 ; wait for extruder temp
G28 W ; home all without mesh bed level
G80 ; mesh bed leveling
G1 Y-3.0 F1000.0 ; go outside print area
G92 E0.0
G1 X60.0 E9.0 F1000.0 ; intro line
M73 Q0 S498
M73 P0 R491
G1 X100.0 E12.5 F1000.0 ; intro line
G92 E0.0
M221 S95
M900 K30 ; Filament gcode
G21 ; set units to millimeters
G90 ; use absolute coordinates
M83 ; use relative distances for extrusion
;BEFORE_LAYER_CHANGE
G92 E0.0
;0.2


G1 E-0.80000 F2100.00000
G1 Z0.600 F10800.000
;AFTER_LAYER_CHANGE
;0.2
G1 X16.710 Y44.670
G1 Z0.200
G1 E0.80000 F2100.00000
M204 S1000
G1 F1200
G1 X233.290 Y44.670 E6.79071
G1 X233.290 Y168.319 E3.87694
G1 X16.710 Y168.319 E6.79071
G1 X16.710 Y44.730 E3.87506
G1 X17.104 Y44.739 F10800.000
G1 X17.087 Y45.047
G1 F1200
G1 X232.913 Y45.047 E6.76707
G1 X232.913 Y167.942 E3.85329
G1 X17.087 Y167.942 E6.76707
M73 Q0 S497
M73 P0 R490
G1 X17.087 Y45.107 E3.85141
G1 X17.464 Y45.424 F10800.000
G1 F1200
G1 X232.536 Y45.424 E6.74342
G1 X232.536 Y167.565 E3.82964
G1 X17.464 Y167.565 E6.74342
G1 X17.464 Y45.484 E3.82776
G1 F8640
G1 X20.756 Y45.483 E-0.76000
G1 E-0.04000 F2100.00000
G1 Z0.800 F10800.000
G1 X64.040 Y65.000
G1 Z0.200
G1 E0.80000 F2100.00000
G1 F1200
G1 X95.960 Y65.000 E1.00083
G1 X95.960 Y84.920 E0.62458
G1 X64.040 Y84.920 E1.00083
G1 X64.040 Y77.920 E0.21948
G1 X62.090 Y77.920 E0.06114
G1 X62.090 Y72.250 E0.17778
G1 X64.040 Y72.250 E0.06114
G1 X64.040 Y65.060 E0.22544
G1 X64.075 Y64.602 F10800.000
G1 X63.663 Y64.623
G1 F1200
G1 X96.337 Y64.623 E1.02448
G1 X96.337 Y85.297 E0.64822
G1 X63.663 Y85.297 E1.02448
G1 X63.663 Y78.297 E0.21948
G1 X61.713 Y78.297 E0.06114
G1 X61.713 Y71.873 E0.20142
G1 X63.663 Y71.873 E0.06114
G1 X63.663 Y64.683 E0.22544
G1 X63.286 Y64.246 F10800.000
G1 F1200
G1 X96.714 Y64.246 E1.04812
G1 X96.714 Y85.674 E0.67187
G1 X63.286 Y85.674 E1.04812
G1 X63.286 Y78.674 E0.21948
G1 X61.336 Y78.674 E0.06114
G1 X61.336 Y71.496 E0.22507
G1 X63.286 Y71.496 E0.06114
G1 X63.286 Y64.306 E0.22544
G1 F8640
G1 X66.577 Y64.300 E-0.76000
G1 E-0.04000 F2100.00000
G1 Z0.800 F10800.000
G1 X61.527 Y78.787
G1 Z0.200
G1 E0.80000 F2100.00000
G1 F1200
G1 X63.003 Y80.263 E0.06550
G1 X63.003 Y79.729 E0.01675
G1 X62.231 Y78.957 E0.03428
G1 X62.765 Y78.957 E0.01675
G1 X63.173 Y79.365 E0.01811
G1 F8640
G1 X62.765 Y78.957 E-0.13326
G1 X62.231 Y78.957 E-0.12326
G1 X63.003 Y79.729 E-0.25217
G1 X63.003 Y80.263 E-0.12326
G1 X62.611 Y79.871 E-0.12805
G1 E-0.04000 F2100.00000
G1 Z0.800 F10800.000
G1 X77.922 Y45.537
G1 Z0.200
G1 E0.80000 F2100.00000
G1 F1200
G1 X96.348 Y63.963 E0.81786
M73 Q0 S496
M73 P0 R489
G1 X95.814 Y63.963 E0.01675
G1 X77.558 Y45.707 E0.81033
G1 X77.024 Y45.707 E0.01675
G1 X95.280 Y63.963 E0.81033
G1 X94.746 Y63.963 E0.01675
G1 X76.490 Y45.707 E0.81033
G1 X75.956 Y45.707 E0.01675
G1 X94.212 Y63.963 E0.81033
G1 X93.679 Y63.963 E0.01675
G1 X75.422 Y45.707 E0.81033
G1 X74.889 Y45.707 E0.01675
G1 X93.145 Y63.963 E0.81033
G1 X92.611 Y63.963 E0.01675
G1 X74.355 Y45.707 E0.81033
G1 X73.821 Y45.707 E0.01675
G1 X92.077 Y63.963 E0.81033
G1 X91.543 Y63.963 E0.01675
G1 X73.287 Y45.707 E0.81033
G1 X72.753 Y45.707 E0.01675
G1 X91.010 Y63.963 E0.81033
G1 X90.476 Y63.963 E0.01675
G1 X72.220 Y45.707 E0.81033
G1 X71.686 Y45.707 E0.01675
G1 X89.942 Y63.963 E0.81033
G1 X89.408 Y63.963 E0.01675
G1 X71.152 Y45.707 E0.81033
G1 X70.618 Y45.707 E0.01675
G1 X88.874 Y63.963 E0.81033
G1 X88.340 Y63.963 E0.01675
G1 X70.084 Y45.707 E0.81033
G1 X69.551 Y45.707 E0.01675
G1 X87.807 Y63.963 E0.81033
G1 X87.273 Y63.963 E0.01675
G1 X69.017 Y45.707 E0.81033
G1 X68.483 Y45.707 E0.01675
G1 X86.739 Y63.963 E0.81033
G1 X86.205 Y63.963 E0.01675
G1 X67.949 Y45.707 E0.81033
G1 X67.415 Y45.707 E0.01675
G1 X85.671 Y63.963 E0.81033
G1 X85.138 Y63.963 E0.01675
G1 X66.881 Y45.707 E0.81033
G1 X66.348 Y45.707 E0.01675
G1 X84.604 Y63.963 E0.81033
G1 X84.070 Y63.963 E0.01675
G1 X65.814 Y45.707 E0.81033
G1 X65.280 Y45.707 E0.01675
G1 X83.536 Y63.963 E0.81033
G1 X83.002 Y63.963 E0.01675
G1 X64.746 Y45.707 E0.81033
G1 X64.212 Y45.707 E0.01675
G1 X82.469 Y63.963 E0.81033
G1 X81.935 Y63.963 E0.01675
G1 X63.679 Y45.707 E0.81033
G1 X63.145 Y45.707 E0.01675
G1 X81.401 Y63.963 E0.81033
G1 X80.867 Y63.963 E0.01675
G1 X62.611 Y45.707 E0.81033
G1 X62.077 Y45.707 E0.01675
G1 X80.333 Y63.963 E0.81033
G1 X79.799 Y63.963 E0.01675
G1 X61.543 Y45.707 E0.81033
G1 X61.010 Y45.707 E0.01675
G1 X79.266 Y63.963 E0.81033
G1 X78.732 Y63.963 E0.01675
G1 X60.476 Y45.707 E0.81033
G1 X59.942 Y45.707 E0.01675
G1 X78.198 Y63.963 E0.81033
G1 X77.664 Y63.963 E0.01675
G1 X59.408 Y45.707 E0.81033
G1 X58.874 Y45.707 E0.01675
G1 X77.130 Y63.963 E0.81033
G1 X76.597 Y63.963 E0.01675
G1 X58.340 Y45.707 E0.81033
G1 X57.807 Y45.707 E0.01675
G1 X76.063 Y63.963 E0.81033
G1 X75.529 Y63.963 E0.01675
G1 X57.273 Y45.707 E0.81033
G1 X56.739 Y45.707 E0.01675
G1 X74.995 Y63.963 E0.81033
G1 X74.461 Y63.963 E0.01675
G1 X56.205 Y45.707 E0.81033
G1 X55.671 Y45.707 E0.01675
G1 X73.928 Y63.963 E0.81033
G1 X73.394 Y63.963 E0.01675
G1 X55.138 Y45.707 E0.81033
G1 X54.604 Y45.707 E0.01675
G1 X72.860 Y63.963 E0.81033
G1 X72.326 Y63.963 E0.01675
G1 X54.070 Y45.707 E0.81033
G1 X53.536 Y45.707 E0.01675
G1 X71.792 Y63.963 E0.81033
M73 Q0 S495
M73 P0 R488
G1 X71.258 Y63.963 E0.01675
G1 X53.002 Y45.707 E0.81033
G1 X52.469 Y45.707 E0.01675
G1 X70.725 Y63.963 E0.81033
G1 X70.191 Y63.963 E0.01675
G1 X51.935 Y45.707 E0.81033
G1 X51.401 Y45.707 E0.01675
G1 X69.657 Y63.963 E0.81033
G1 X69.123 Y63.963 E0.01675
G1 X50.867 Y45.707 E0.81033
G1 X50.333 Y45.707 E0.01675
G1 X68.589 Y63.963 E0.81033
G1 X68.056 Y63.963 E0.01675
G1 X49.799 Y45.707 E0.81033
G1 X49.266 Y45.707 E0.01675
G1 X67.522 Y63.963 E0.81033
G1 X66.988 Y63.963 E0.01675
G1 X48.732 Y45.707 E0.81033
G1 X48.198 Y45.707 E0.01675
G1 X66.454 Y63.963 E0.81033
G1 X65.920 Y63.963 E0.01675
G1 X47.664 Y45.707 E0.81033
G1 X47.130 Y45.707 E0.01675
G1 X65.387 Y63.963 E0.81033
G1 X64.853 Y63.963 E0.01675
G1 X46.597 Y45.707 E0.81033
G1 X46.063 Y45.707 E0.01675
G1 X64.319 Y63.963 E0.81033
G1 X63.785 Y63.963 E0.01675
G1 X45.529 Y45.707 E0.81033
G1 X44.995 Y45.707 E0.01675
G1 X63.251 Y63.963 E0.81033
G1 X63.003 Y63.963 E0.00779
G1 X63.003 Y64.249 E0.00896
G1 X44.461 Y45.707 E0.82300
G1 X43.928 Y45.707 E0.01675
G1 X63.003 Y64.782 E0.84670
G1 X63.003 Y65.316 E0.01675
G1 X43.394 Y45.707 E0.87039
G1 X42.860 Y45.707 E0.01675
G1 X63.003 Y65.850 E0.89409
G1 X63.003 Y66.384 E0.01675
G1 X42.326 Y45.707 E0.91778
G1 X41.792 Y45.707 E0.01675
G1 X63.003 Y66.918 E0.94147
G1 X63.003 Y67.452 E0.01675
G1 X41.259 Y45.707 E0.96517
G1 X40.725 Y45.707 E0.01675
G1 X63.003 Y67.985 E0.98886
G1 X63.003 Y68.519 E0.01675
G1 X40.191 Y45.707 E1.01256
G1 X39.657 Y45.707 E0.01675
G1 X63.003 Y69.053 E1.03625
G1 X63.003 Y69.587 E0.01675
G1 X39.123 Y45.707 E1.05994
G1 X38.589 Y45.707 E0.01675
G1 X63.003 Y70.121 E1.08364
G1 X63.003 Y70.654 E0.01675
G1 X38.056 Y45.707 E1.10733
G1 X37.522 Y45.707 E0.01675
G1 X63.003 Y71.188 E1.13103
G1 X63.003 Y71.213 E0.00078
G1 X62.494 Y71.213 E0.01597
G1 X36.988 Y45.707 E1.13213
G1 X36.454 Y45.707 E0.01675
G1 X61.960 Y71.213 E1.13213
G1 X61.426 Y71.213 E0.01675
G1 X35.920 Y45.707 E1.13213
G1 X35.387 Y45.707 E0.01675
G1 X61.053 Y71.373 E1.13925
G1 X61.053 Y71.907 E0.01675
G1 X34.853 Y45.707 E1.16294
G1 X34.319 Y45.707 E0.01675
G1 X61.053 Y72.441 E1.18664
G1 X61.053 Y72.975 E0.01675
G1 X33.785 Y45.707 E1.21033
G1 X33.251 Y45.707 E0.01675
G1 X61.053 Y73.509 E1.23403
G1 X61.053 Y74.043 E0.01675
G1 X32.718 Y45.707 E1.25772
M73 Q0 S493
M73 P0 R487
G1 X32.184 Y45.707 E0.01675
G1 X61.053 Y74.576 E1.28141
G1 X61.053 Y75.110 E0.01675
G1 X31.650 Y45.707 E1.30511
G1 X31.116 Y45.707 E0.01675
G1 X61.053 Y75.644 E1.32880
G1 X61.053 Y76.178 E0.01675
G1 X30.582 Y45.707 E1.35250
G1 X30.048 Y45.707 E0.01675
G1 X61.053 Y76.712 E1.37619
G1 X61.053 Y77.245 E0.01675
G1 X29.515 Y45.707 E1.39988
G1 X28.981 Y45.707 E0.01675
G1 X61.053 Y77.779 E1.42358
G1 X61.053 Y78.313 E0.01675
G1 X28.447 Y45.707 E1.44727
G1 X27.913 Y45.707 E0.01675
G1 X63.003 Y80.797 E1.55752
G1 X63.003 Y81.331 E0.01675
G1 X27.379 Y45.707 E1.58121
G1 X26.846 Y45.707 E0.01675
G1 X63.003 Y81.864 E1.60491
G1 X63.003 Y82.398 E0.01675
G1 X26.312 Y45.707 E1.62860
G1 X25.778 Y45.707 E0.01675
G1 X63.003 Y82.932 E1.65230
G1 X63.003 Y83.466 E0.01675
G1 X25.244 Y45.707 E1.67599
G1 X24.710 Y45.707 E0.01675
G1 X63.003 Y84.000 E1.69969
G1 X63.003 Y84.534 E0.01675
G1 X24.177 Y45.707 E1.72338
G1 X23.643 Y45.707 E0.01675
G1 X63.003 Y85.067 E1.74707
G1 X63.003 Y85.601 E0.01675
G1 X23.109 Y45.707 E1.77077
G1 X22.575 Y45.707 E0.01675
G1 X144.150 Y167.282 E5.39632
G1 X144.684 Y167.282 E0.01675
G1 X63.359 Y85.957 E3.60976
G1 X63.893 Y85.957 E0.01675
G1 X145.218 Y167.282 E3.60976
M73 Q1 S492
M73 P1 R486
G1 X145.752 Y167.282 E0.01675
G1 X64.427 Y85.957 E3.60976
G1 X64.960 Y85.957 E0.01675
G1 X146.286 Y167.282 E3.60976
G1 X146.820 Y167.282 E0.01675
G1 X65.494 Y85.957 E3.60976
G1 X66.028 Y85.957 E0.01675
G1 X147.353 Y167.282 E3.60976
G1 X147.887 Y167.282 E0.01675
G1 X66.562 Y85.957 E3.60976
G1 X67.096 Y85.957 E0.01675
G1 X148.421 Y167.282 E3.60976
G1 X148.955 Y167.282 E0.01675
G1 X67.629 Y85.957 E3.60976
G1 X68.163 Y85.957 E0.01675
G1 X149.489 Y167.282 E3.60976
G1 X150.022 Y167.282 E0.01675
G1 X68.697 Y85.957 E3.60976
G1 X69.231 Y85.957 E0.01675
G1 X150.556 Y167.282 E3.60976
G1 X151.090 Y167.282 E0.01675
G1 X69.765 Y85.957 E3.60976
M73 Q1 S491
M73 P1 R485
G1 X70.298 Y85.957 E0.01675
G1 X151.624 Y167.282 E3.60976
G1 X152.158 Y167.282 E0.01675
G1 X70.832 Y85.957 E3.60976
G1 X71.366 Y85.957 E0.01675
G1 X152.691 Y167.282 E3.60976
G1 X153.225 Y167.282 E0.01675
G1 X71.900 Y85.957 E3.60976
G1 X72.434 Y85.957 E0.01675
G1 X153.759 Y167.282 E3.60976
G1 X154.293 Y167.282 E0.01675
G1 X72.968 Y85.957 E3.60976
G1 X73.501 Y85.957 E0.01675
G1 X154.827 Y167.282 E3.60976
G1 X155.361 Y167.282 E0.01675
G1 X74.035 Y85.957 E3.60976
G1 X74.569 Y85.957 E0.01675
G1 X155.894 Y167.282 E3.60976
G1 X156.428 Y167.282 E0.01675
G1 X75.103 Y85.957 E3.60976
G1 X75.637 Y85.957 E0.01675
G1 X156.962 Y167.282 E3.60976
M73 Q1 S490
M73 P1 R484
G1 X157.496 Y167.282 E0.01675
G1 X76.170 Y85.957 E3.60976
G1 X76.704 Y85.957 E0.01675
G1 X158.030 Y167.282 E3.60976
G1 X158.563 Y167.282 E0.01675
G1 X77.238 Y85.957 E3.60976
G1 X77.772 Y85.957 E0.01675
G1 X159.097 Y167.282 E3.60976
G1 X159.631 Y167.282 E0.01675
G1 X78.306 Y85.957 E3.60976
G1 X78.839 Y85.957 E0.01675
G1 X160.165 Y167.282 E3.60976
G1 X160.699 Y167.282 E0.01675
G1 X79.373 Y85.957 E3.60976
G1 X79.907 Y85.957 E0.01675
G1 X161.232 Y167.282 E3.60976
G1 X161.766 Y167.282 E0.01675
G1 X80.441 Y85.957 E3.60976
G1 X80.975 Y85.957 E0.01675
G1 X162.300 Y167.282 E3.60976
G1 X162.834 Y167.282 E0.01675
G1 X81.509 Y85.957 E3.60976
M73 Q1 S489
M73 P1 R483
G1 X82.042 Y85.957 E0.01675
G1 X163.368 Y167.282 E3.60976
G1 X163.902 Y167.282 E0.01675
G1 X82.576 Y85.957 E3.60976
G1 X83.110 Y85.957 E0.01675
G1 X164.435 Y167.282 E3.60976
G1 X164.969 Y167.282 E0.01675
G1 X83.644 Y85.957 E3.60976
G1 X84.178 Y85.957 E0.01675
G1 X165.503 Y167.282 E3.60976
G1 X166.037 Y167.282 E0.01675
G1 X84.711 Y85.957 E3.60976
G1 X85.245 Y85.957 E0.01675
G1 X166.571 Y167.282 E3.60976
G1 X167.104 Y167.282 E0.01675
G1 X85.779 Y85.957 E3.60976
G1 X86.313 Y85.957 E0.01675
G1 X167.638 Y167.282 E3.60976
G1 X168.172 Y167.282 E0.01675
G1 X86.847 Y85.957 E3.60976
G1 X87.380 Y85.957 E0.01675
G1 X168.706 Y167.282 E3.60976
M73 Q1 S488
M73 P1 R482
G1 X169.240 Y167.282 E0.01675
G1 X87.914 Y85.957 E3.60976
G1 X88.448 Y85.957 E0.01675
G1 X169.773 Y167.282 E3.60976
G1 X170.307 Y167.282 E0.01675
G1 X88.982 Y85.957 E3.60976
G1 X89.516 Y85.957 E0.01675
G1 X170.841 Y167.282 E3.60976
G1 X171.375 Y167.282 E0.01675
G1 X90.049 Y85.957 E3.60976
G1 X90.583 Y85.957 E0.01675
G1 X171.909 Y167.282 E3.60976
G1 X172.443 Y167.282 E0.01675
G1 X91.117 Y85.957 E3.60976
G1 X91.651 Y85.957 E0.01675
G1 X172.976 Y167.282 E3.60976
G1 X173.510 Y167.282 E0.01675
G1 X92.185 Y85.957 E3.60976
G1 X92.719 Y85.957 E0.01675
G1 X174.044 Y167.282 E3.60976
G1 X174.578 Y167.282 E0.01675
G1 X93.252 Y85.957 E3.60976
M73 Q2 S487
M73 P2 R480
G1 X93.786 Y85.957 E0.01675
G1 X175.112 Y167.282 E3.60976
G1 X175.645 Y167.282 E0.01675
G1 X94.320 Y85.957 E3.60976
G1 X94.854 Y85.957 E0.01675
G1 X176.179 Y167.282 E3.60976
G1 X176.713 Y167.282 E0.01675
G1 X95.388 Y85.957 E3.60976
G1 X95.921 Y85.957 E0.01675
G1 X177.247 Y167.282 E3.60976
G1 X177.781 Y167.282 E0.01675
G1 X96.455 Y85.957 E3.60976
G1 X96.989 Y85.957 E0.01675
G1 X178.314 Y167.282 E3.60976
G1 X178.848 Y167.282 E0.01675
G1 X96.997 Y85.431 E3.63311
G1 X96.997 Y84.897 E0.01675
G1 X179.382 Y167.282 E3.65680
G1 X179.916 Y167.282 E0.01675
G1 X96.997 Y84.363 E3.68049
G1 X96.997 Y83.830 E0.01675
G1 X180.450 Y167.282 E3.70419
M73 Q2 S486
M73 P2 R479
G1 X180.984 Y167.282 E0.01675
G1 X96.997 Y83.296 E3.72788
G1 X96.997 Y82.762 E0.01675
G1 X181.517 Y167.282 E3.75158
G1 X182.051 Y167.282 E0.01675
G1 X96.997 Y82.228 E3.77527
G1 X96.997 Y81.694 E0.01675
G1 X182.585 Y167.282 E3.79896
G1 X183.119 Y167.282 E0.01675
G1 X96.997 Y81.161 E3.82266
G1 X96.997 Y80.627 E0.01675
G1 X183.653 Y167.282 E3.84635
G1 X184.186 Y167.282 E0.01675
G1 X96.997 Y80.093 E3.87005
G1 X96.997 Y79.559 E0.01675
G1 X184.720 Y167.282 E3.89374
G1 X185.254 Y167.282 E0.01675
G1 X96.997 Y79.025 E3.91743
G1 X96.997 Y78.492 E0.01675
G1 X185.788 Y167.282 E3.94113
M73 Q2 S485
M73 P2 R478
G1 X186.322 Y167.282 E0.01675
G1 X96.997 Y77.958 E3.96482
G1 X96.997 Y77.424 E0.01675
G1 X186.855 Y167.282 E3.98852
G1 X187.389 Y167.282 E0.01675
G1 X96.997 Y76.890 E4.01221
G1 X96.997 Y76.356 E0.01675
G1 X187.923 Y167.282 E4.03591
G1 X188.457 Y167.282 E0.01675
G1 X96.997 Y75.822 E4.05960
G1 X96.997 Y75.289 E0.01675
G1 X188.991 Y167.282 E4.08329
G1 X189.525 Y167.282 E0.01675
G1 X96.997 Y74.755 E4.10699
G1 X96.997 Y74.221 E0.01675
G1 X190.058 Y167.282 E4.13068
G1 X190.592 Y167.282 E0.01675
G1 X96.997 Y73.687 E4.15438
G1 X96.997 Y73.153 E0.01675
G1 X191.126 Y167.282 E4.17807
M73 Q2 S484
M73 P2 R477
G1 X191.660 Y167.282 E0.01675
G1 X96.997 Y72.620 E4.20176
G1 X96.997 Y72.086 E0.01675
G1 X192.194 Y167.282 E4.22546
G1 X192.727 Y167.282 E0.01675
G1 X96.997 Y71.552 E4.24915
G1 X96.997 Y71.018 E0.01675
G1 X193.261 Y167.282 E4.27285
G1 X193.795 Y167.282 E0.01675
G1 X96.997 Y70.484 E4.29654
G1 X96.997 Y69.951 E0.01675
G1 X194.329 Y167.282 E4.32023
G1 X194.863 Y167.282 E0.01675
G1 X96.997 Y69.417 E4.34393
G1 X96.997 Y68.883 E0.01675
G1 X195.396 Y167.282 E4.36762
G1 X195.930 Y167.282 E0.01675
G1 X96.997 Y68.349 E4.39132
M73 Q2 S483
M73 P3 R476
G1 X96.997 Y67.815 E0.01675
G1 X196.464 Y167.282 E4.41501
G1 X196.998 Y167.282 E0.01675
G1 X96.997 Y67.281 E4.43871
G1 X96.997 Y66.748 E0.01675
G1 X197.532 Y167.282 E4.46240
G1 X198.065 Y167.282 E0.01675
G1 X96.997 Y66.214 E4.48609
G1 X96.997 Y65.680 E0.01675
G1 X198.599 Y167.282 E4.50979
G1 X199.133 Y167.282 E0.01675
G1 X96.997 Y65.146 E4.53348
G1 X96.997 Y64.612 E0.01675
G1 X199.667 Y167.282 E4.55718
G1 X200.201 Y167.282 E0.01675
G1 X78.625 Y45.707 E5.39632
G1 X79.159 Y45.707 E0.01675
G1 X200.735 Y167.282 E5.39632
M73 Q3 S482
M73 P3 R475
G1 X201.268 Y167.282 E0.01675
G1 X79.693 Y45.707 E5.39632
G1 X80.227 Y45.707 E0.01675
G1 X201.802 Y167.282 E5.39632
G1 X202.336 Y167.282 E0.01675
G1 X80.761 Y45.707 E5.39632
G1 X81.294 Y45.707 E0.01675
G1 X202.870 Y167.282 E5.39632
