; generated by PrusaSlicer 2.0.0+win64 on 2020-10-29 at 11:58:23

; 

; external perimeters extrusion width = 0.60mm
; perimeters extrusion width = 0.50mm
; infill extrusion width = 0.50mm
; solid infill extrusion width = 0.50mm
; top infill extrusion width = 0.45mm
; first layer extrusion width = 0.42mm

M73 P0 R189
M73 Q0 S190
M201 X1000 Y1000 Z1000 E5000 ; sets maximum accelerations, mm/sec^2
M203 X200 Y200 Z12 E120 ; sets maximum feedrates, mm/sec
M204 P1250 R1250 T1250 ; sets acceleration (P, T) and retract acceleration (R), mm/sec^2
M205 X8.00 Y8.00 Z0.40 E1.50 ; sets the jerk limits, mm/sec
M205 S0 T0 ; sets the minimum extruding and travel feed rate, mm/sec
M107
M115 U3.8.0 ; tell printer latest fw version
G90 ; use absolute coordinates
M83 ; extruder relative mode
M104 S215 ; set extruder temp
M140 S67 ; set bed temp
M190 S67 ; wait for bed temp
M109 S215 ; wait for extruder temp
G28 W ; home all without mesh bed level
G80 ; mesh bed leveling
G1 Y-3.0 F1000.0 ; go outside print area
G92 E0.0
G1 X60.0 E9.0 F1000.0 ; intro line
M73 Q0 S190
M73 P0 R189
G1 X100.0 E12.5 F1000.0 ; intro line
G92 E0.0
M221 S95
M900 K30 ; Filament gcode
G21 ; set units to millimeters
G90 ; use absolute coordinates
M83 ; use relative distances for extrusion
;BEFORE_LAYER_CHANGE
G92 E0.0
;0.2


G1 E-0.80000 F2100.00000
G1 Z0.600 F10800.000
;AFTER_LAYER_CHANGE
;0.2
G1 X16.710 Y43.175
G1 Z0.200
G1 E0.80000 F2100.00000
M204 S1000
G1 F1200
G1 X42.890 Y43.175 E0.82086
G1 X42.890 Y47.909 E0.14841
G1 X54.310 Y47.909 E0.35807
G1 X54.310 Y43.175 E0.14841
G1 X64.990 Y43.175 E0.33486
G1 X64.990 Y47.909 E0.14841
G1 X76.410 Y47.909 E0.35807
G1 X76.410 Y43.175 E0.14841
G1 X118.087 Y43.175 E1.30676
G1 X118.086 Y49.744 E0.20596
G1 X148.914 Y49.744 E0.96656
G1 X148.913 Y43.175 E0.20596
G1 X169.090 Y43.175 E0.63264
G1 X169.090 Y47.908 E0.14839
G1 X180.510 Y47.908 E0.35807
G1 X180.510 Y43.175 E0.14839
G1 X191.190 Y43.175 E0.33486
G1 X191.190 Y47.908 E0.14839
G1 X202.610 Y47.908 E0.35807
G1 X202.610 Y43.175 E0.14839
G1 X233.290 Y43.175 E0.96195
G1 X233.290 Y166.825 E3.87694
G1 X16.710 Y166.825 E6.79071
G1 X16.710 Y43.235 E3.87506
G1 X17.104 Y43.244 F10800.000
G1 X17.087 Y43.552
G1 F1200
G1 X42.513 Y43.552 E0.79721
G1 X42.513 Y48.286 E0.14841
G1 X54.687 Y48.286 E0.38171
G1 X54.687 Y43.552 E0.14841
G1 X64.613 Y43.552 E0.31122
G1 X64.613 Y48.286 E0.14841
G1 X76.787 Y48.286 E0.38171
G1 X76.787 Y43.552 E0.14841
G1 X117.710 Y43.552 E1.28311
G1 X117.709 Y50.121 E0.20596
G1 X149.291 Y50.121 E0.99021
G1 X149.290 Y43.552 E0.20596
G1 X168.713 Y43.552 E0.60899
G1 X168.713 Y48.285 E0.14839
G1 X180.887 Y48.285 E0.38171
G1 X180.887 Y43.552 E0.14839
G1 X190.813 Y43.552 E0.31122
G1 X190.813 Y48.285 E0.14839
G1 X202.987 Y48.285 E0.38171
G1 X202.987 Y43.552 E0.14839
G1 X232.913 Y43.552 E0.93830
G1 X232.913 Y166.448 E3.85329
M73 Q0 S189
G1 X17.087 Y166.448 E6.76707
M73 P0 R188
G1 X17.087 Y43.612 E3.85141
G1 X17.464 Y43.930 F10800.000
G1 F1200
G1 X42.136 Y43.930 E0.77356
G1 X42.136 Y48.663 E0.14841
G1 X55.064 Y48.663 E0.40536
G1 X55.064 Y43.930 E0.14841
G1 X64.236 Y43.930 E0.28757
G1 X64.236 Y48.663 E0.14841
G1 X77.164 Y48.663 E0.40536
G1 X77.164 Y43.930 E0.14841
G1 X117.333 Y43.930 E1.25946
G1 X117.332 Y50.498 E0.20596
G1 X149.668 Y50.498 E1.01386
G1 X149.667 Y43.930 E0.20596
G1 X168.336 Y43.930 E0.58534
G1 X168.336 Y48.662 E0.14839
G1 X181.264 Y48.662 E0.40536
G1 X181.264 Y43.930 E0.14839
G1 X190.436 Y43.930 E0.28757
G1 X190.436 Y48.662 E0.14839
G1 X203.364 Y48.662 E0.40536
G1 X203.364 Y43.930 E0.14839
G1 X232.536 Y43.930 E0.91466
G1 X232.536 Y166.070 E3.82964
G1 X17.464 Y166.070 E6.74342
G1 X17.464 Y43.990 E3.82776
G1 X17.841 Y44.307 F10800.000
G1 F1200
G1 X41.759 Y44.307 E0.74992
G1 X41.759 Y49.040 E0.14841
G1 X55.441 Y49.040 E0.42900
G1 X55.441 Y44.307 E0.14841
G1 X63.859 Y44.307 E0.26393
G1 X63.859 Y49.040 E0.14841
G1 X77.541 Y49.040 E0.42900
G1 X77.541 Y44.307 E0.14841
G1 X116.956 Y44.307 E1.23582
G1 X116.955 Y50.875 E0.20596
G1 X150.045 Y50.875 E1.03751
M73 Q1 S188
G1 X150.044 Y44.307 E0.20596
G1 X167.959 Y44.307 E0.56170
G1 X167.959 Y49.039 E0.14839
G1 X181.641 Y49.039 E0.42900
G1 X181.641 Y44.307 E0.14839
G1 X190.059 Y44.307 E0.26393
G1 X190.059 Y49.039 E0.14839
G1 X203.741 Y49.039 E0.42900
G1 X203.741 Y44.307 E0.14839
G1 X232.159 Y44.307 E0.89101
G1 X232.159 Y165.693 E3.80600
M73 P1 R187
G1 X17.841 Y165.693 E6.71978
G1 X17.841 Y44.367 E3.80412
G1 X18.218 Y44.684 F10800.000
G1 F1200
G1 X41.382 Y44.684 E0.72627
G1 X41.382 Y49.417 E0.14841
G1 X55.818 Y49.417 E0.45265
G1 X55.818 Y44.684 E0.14841
G1 X63.482 Y44.684 E0.24028
G1 X63.482 Y49.417 E0.14841
G1 X77.918 Y49.417 E0.45265
G1 X77.918 Y44.684 E0.14841
G1 X116.579 Y44.684 E1.21217
G1 X116.578 Y51.252 E0.20596
G1 X150.422 Y51.252 E1.06116
G1 X150.421 Y44.684 E0.20596
G1 X167.582 Y44.684 E0.53805
G1 X167.582 Y49.416 E0.14839
G1 X182.018 Y49.416 E0.45265
G1 X182.018 Y44.684 E0.14839
G1 X189.682 Y44.684 E0.24028
G1 X189.682 Y49.416 E0.14839
G1 X204.118 Y49.416 E0.45265
G1 X204.118 Y44.684 E0.14839
G1 X231.782 Y44.684 E0.86737
G1 X231.782 Y165.316 E3.78235
G1 X18.218 Y165.316 E6.69613
G1 X18.218 Y44.744 E3.78047
M73 Q1 S187
G1 X18.595 Y45.061 F10800.000
G1 F1200
G1 X41.005 Y45.061 E0.70262
G1 X41.005 Y49.794 E0.14841
G1 X56.195 Y49.794 E0.47630
G1 X56.195 Y45.061 E0.14841
G1 X63.105 Y45.061 E0.21663
G1 X63.105 Y49.794 E0.14841
G1 X78.295 Y49.794 E0.47630
G1 X78.295 Y45.061 E0.14841
G1 X116.202 Y45.061 E1.18852
G1 X116.201 Y51.630 E0.20596
G1 X150.799 Y51.630 E1.08481
M73 P1 R186
G1 X150.798 Y45.061 E0.20596
G1 X167.205 Y45.061 E0.51440
G1 X167.205 Y49.793 E0.14839
G1 X182.395 Y49.793 E0.47630
G1 X182.395 Y45.061 E0.14839
G1 X189.305 Y45.061 E0.21663
G1 X189.305 Y49.793 E0.14839
G1 X204.495 Y49.793 E0.47630
G1 X204.495 Y45.061 E0.14839
G1 X231.405 Y45.061 E0.84372
G1 X231.405 Y164.939 E3.75871
G1 X18.595 Y164.939 E6.67248
G1 X18.595 Y45.121 E3.75683
G1 X18.972 Y45.438 F10800.000
G1 F1200
G1 X40.628 Y45.438 E0.67898
G1 X40.628 Y50.171 E0.14841
G1 X56.572 Y50.171 E0.49994
G1 X56.572 Y45.438 E0.14841
G1 X62.728 Y45.438 E0.19299
G1 X62.728 Y50.171 E0.14841
G1 X78.672 Y50.171 E0.49994
G1 X78.672 Y45.438 E0.14841
G1 X115.824 Y45.438 E1.16487
G1 X115.824 Y52.007 E0.20596
G1 X151.176 Y52.007 E1.10845
G1 X151.176 Y45.438 E0.20596
G1 X166.828 Y45.438 E0.49076
G1 X166.828 Y50.170 E0.14839
G1 X182.772 Y50.170 E0.49994
G1 X182.772 Y45.438 E0.14839
G1 X188.928 Y45.438 E0.19299
G1 X188.928 Y50.170 E0.14839
G1 X204.872 Y50.170 E0.49994
G1 X204.872 Y45.438 E0.14839
G1 X231.028 Y45.438 E0.82007
G1 X231.028 Y164.562 E3.73506
G1 X18.972 Y164.562 E6.64884
M73 Q2 S186
G1 X18.972 Y45.498 E3.73318
M73 P2 R185
G1 X19.350 Y45.815 F10800.000
G1 F1200
G1 X40.250 Y45.815 E0.65533
G1 X40.250 Y50.548 E0.14841
G1 X56.950 Y50.548 E0.52359
G1 X56.950 Y45.815 E0.14841
G1 X62.350 Y45.815 E0.16934
G1 X62.350 Y50.548 E0.14841
G1 X79.050 Y50.548 E0.52359
G1 X79.050 Y45.815 E0.14841
G1 X115.447 Y45.815 E1.14123
G1 X115.447 Y52.384 E0.20596
G1 X151.553 Y52.384 E1.13210
G1 X151.553 Y45.815 E0.20596
G1 X166.450 Y45.815 E0.46711
G1 X166.450 Y50.548 E0.14839
G1 X183.150 Y50.548 E0.52359
G1 X183.150 Y45.815 E0.14839
G1 X188.550 Y45.815 E0.16934
G1 X188.550 Y50.548 E0.14839
G1 X205.250 Y50.548 E0.52359
G1 X205.250 Y45.815 E0.14839
G1 X230.650 Y45.815 E0.79643
G1 X230.650 Y164.185 E3.71141
G1 X19.350 Y164.185 E6.62519
G1 X19.350 Y45.875 E3.70953
G1 F8640
G1 X22.641 Y45.865 E-0.76000
G1 E-0.04000 F2100.00000
G1 Z0.800 F10800.000
G1 X40.137 Y46.289
G1 Z0.200
G1 E0.80000 F2100.00000
G1 F1200
G1 X39.946 Y46.098 E0.00848
G1 X39.413 Y46.098 E0.01675
G1 X39.968 Y46.653 E0.02463
G1 X39.968 Y47.186 E0.01675
G1 X38.879 Y46.098 E0.04831
G1 X38.345 Y46.098 E0.01675
G1 X39.968 Y47.720 E0.07200
G1 X39.968 Y48.254 E0.01675
G1 X37.812 Y46.098 E0.09568
G1 X37.278 Y46.098 E0.01675
G1 X39.968 Y48.787 E0.11937
G1 X39.968 Y49.321 E0.01675
G1 X36.744 Y46.098 E0.14305
G1 X36.210 Y46.098 E0.01675
G1 X39.968 Y49.855 E0.16674
G1 X39.968 Y50.389 E0.01675
G1 X35.677 Y46.098 E0.19042
G1 X35.143 Y46.098 E0.01675
G1 X152.948 Y163.902 E5.22787
G1 X153.481 Y163.902 E0.01675
G1 X40.410 Y50.831 E5.01781
M73 Q2 S185
G1 X40.944 Y50.831 E0.01675
G1 X154.015 Y163.902 E5.01781
M73 P2 R184
G1 X154.549 Y163.902 E0.01675
G1 X41.478 Y50.831 E5.01781
G1 X42.011 Y50.831 E0.01675
G1 X155.082 Y163.902 E5.01781
G1 X155.616 Y163.902 E0.01675
G1 X42.545 Y50.831 E5.01781
G1 X43.079 Y50.831 E0.01675
G1 X156.150 Y163.902 E5.01781
G1 X156.684 Y163.902 E0.01675
G1 X43.612 Y50.831 E5.01781
G1 X44.146 Y50.831 E0.01675
G1 X157.217 Y163.902 E5.01781
G1 X157.751 Y163.902 E0.01675
G1 X44.680 Y50.831 E5.01781
M73 Q3 S184
G1 X45.213 Y50.831 E0.01675
G1 X158.285 Y163.902 E5.01781
M73 P3 R183
G1 X158.818 Y163.902 E0.01675
G1 X45.747 Y50.831 E5.01781
G1 X46.281 Y50.831 E0.01675
G1 X159.352 Y163.902 E5.01781
G1 X159.886 Y163.902 E0.01675
G1 X46.815 Y50.831 E5.01781
G1 X47.348 Y50.831 E0.01675
G1 X160.419 Y163.902 E5.01781
G1 X160.953 Y163.902 E0.01675
G1 X47.882 Y50.831 E5.01781
G1 X48.416 Y50.831 E0.01675
G1 X161.487 Y163.902 E5.01781
G1 X162.021 Y163.902 E0.01675
G1 X48.949 Y50.831 E5.01781
M73 Q3 S183
G1 X49.483 Y50.831 E0.01675
G1 X162.554 Y163.902 E5.01781
M73 P3 R182
G1 X163.088 Y163.902 E0.01675
G1 X50.017 Y50.831 E5.01781
G1 X50.551 Y50.831 E0.01675
G1 X163.622 Y163.902 E5.01781
G1 X164.155 Y163.902 E0.01675
G1 X51.084 Y50.831 E5.01781
G1 X51.618 Y50.831 E0.01675
G1 X164.689 Y163.902 E5.01781
G1 X165.223 Y163.902 E0.01675
G1 X52.152 Y50.831 E5.01781
G1 X52.685 Y50.831 E0.01675
G1 X165.756 Y163.902 E5.01781
G1 X166.290 Y163.902 E0.01675
G1 X53.219 Y50.831 E5.01781
M73 Q4 S182
G1 X53.753 Y50.831 E0.01675
G1 X166.824 Y163.902 E5.01781
M73 P4 R181
G1 X167.358 Y163.902 E0.01675
G1 X54.286 Y50.831 E5.01781
G1 X54.820 Y50.831 E0.01675
G1 X167.891 Y163.902 E5.01781
G1 X168.425 Y163.902 E0.01675
G1 X55.354 Y50.831 E5.01781
G1 X55.888 Y50.831 E0.01675
G1 X168.959 Y163.902 E5.01781
G1 X169.492 Y163.902 E0.01675
G1 X56.421 Y50.831 E5.01781
G1 X56.955 Y50.831 E0.01675
G1 X170.026 Y163.902 E5.01781
G1 X170.560 Y163.902 E0.01675
G1 X57.232 Y50.575 E5.02919
M73 Q5 S181
G1 X57.232 Y50.041 E0.01675
G1 X171.094 Y163.902 E5.05287
M73 P5 R180
G1 X171.627 Y163.902 E0.01675
G1 X57.232 Y49.507 E5.07656
G1 X57.232 Y48.974 E0.01675
G1 X172.161 Y163.902 E5.10024
G1 X172.695 Y163.902 E0.01675
G1 X57.232 Y48.440 E5.12392
G1 X57.232 Y47.906 E0.01675
G1 X173.228 Y163.902 E5.14761
G1 X173.762 Y163.902 E0.01675
G1 X57.232 Y47.373 E5.17129
G1 X57.232 Y46.839 E0.01675
G1 X174.296 Y163.902 E5.19498
G1 X174.829 Y163.902 E0.01675
G1 X57.232 Y46.305 E5.21866
M73 Q5 S180
G1 X57.232 Y46.098 E0.00651
G1 X57.559 Y46.098 E0.01024
G1 X175.533 Y164.072 E5.23540
M73 P5 R179
G1 F8640
G1 X173.205 Y161.745 E-0.76000
G1 E-0.04000 F2100.00000
G1 Z0.800 F10800.000
G1 X152.584 Y164.072
G1 Z0.200
G1 E0.80000 F2100.00000
G1 F1200
G1 X34.609 Y46.098 E5.23540
G1 X34.076 Y46.098 E0.01675
G1 X151.880 Y163.902 E5.22787
G1 X151.347 Y163.902 E0.01675
G1 X33.542 Y46.098 E5.22787
G1 X33.008 Y46.098 E0.01675
G1 X150.813 Y163.902 E5.22787
G1 X150.279 Y163.902 E0.01675
G1 X32.475 Y46.098 E5.22787
G1 X31.941 Y46.098 E0.01675
G1 X149.745 Y163.902 E5.22787
G1 X149.212 Y163.902 E0.01675
G1 X31.407 Y46.098 E5.22787
M73 Q6 S178
G1 X30.873 Y46.098 E0.01675
G1 X148.678 Y163.902 E5.22787
M73 P6 R178
G1 X148.144 Y163.902 E0.01675
G1 X30.340 Y46.098 E5.22787
G1 X29.806 Y46.098 E0.01675
G1 X147.611 Y163.902 E5.22787
G1 X147.077 Y163.902 E0.01675
G1 X29.272 Y46.098 E5.22787
G1 X28.739 Y46.098 E0.01675
G1 X146.543 Y163.902 E5.22787
G1 X146.010 Y163.902 E0.01675
G1 X28.205 Y46.098 E5.22787
G1 X27.671 Y46.098 E0.01675
G1 X145.476 Y163.902 E5.22787
G1 X144.942 Y163.902 E0.01675
G1 X27.138 Y46.098 E5.22787
M73 Q6 S177
G1 X26.604 Y46.098 E0.01675
G1 X144.408 Y163.902 E5.22787
M73 P6 R176
G1 X143.875 Y163.902 E0.01675
G1 X26.070 Y46.098 E5.22787
G1 X25.536 Y46.098 E0.01675
G1 X143.341 Y163.902 E5.22787
G1 X142.807 Y163.902 E0.01675
G1 X25.003 Y46.098 E5.22787
G1 X24.469 Y46.098 E0.01675
G1 X142.274 Y163.902 E5.22787
G1 X141.740 Y163.902 E0.01675
G1 X23.935 Y46.098 E5.22787
G1 X23.402 Y46.098 E0.01675
G1 X141.206 Y163.902 E5.22787
G1 X140.673 Y163.902 E0.01675
G1 X22.868 Y46.098 E5.22787
M73 Q7 S176
G1 X22.334 Y46.098 E0.01675
G1 X140.139 Y163.902 E5.22787
M73 P7 R175
G1 X139.605 Y163.902 E0.01675
G1 X21.801 Y46.098 E5.22787
G1 X21.267 Y46.098 E0.01675
G1 X139.071 Y163.902 E5.22787
G1 X138.538 Y163.902 E0.01675
G1 X20.733 Y46.098 E5.22787
G1 X20.199 Y46.098 E0.01675
G1 X138.004 Y163.902 E5.22787
G1 X137.470 Y163.902 E0.01675
G1 X19.666 Y46.098 E5.22787
G1 X19.632 Y46.098 E0.00105
G1 X19.632 Y46.598 E0.01570
G1 X136.937 Y163.902 E5.20567
G1 X136.403 Y163.902 E0.01675
G1 X19.632 Y47.132 E5.18198
M73 Q7 S175
G1 X19.632 Y47.665 E0.01675
G1 X135.869 Y163.902 E5.15830
M73 P8 R174
G1 X135.336 Y163.902 E0.01675
G1 X19.632 Y48.199 E5.13461
G1 X19.632 Y48.733 E0.01675
G1 X134.802 Y163.902 E5.11093
G1 X134.268 Y163.902 E0.01675
G1 X19.632 Y49.267 E5.08725
G1 X19.632 Y49.800 E0.01675
G1 X133.734 Y163.902 E5.06356
G1 X133.201 Y163.902 E0.01675
G1 X19.632 Y50.334 E5.03988
G1 X19.632 Y50.868 E0.01675
G1 X132.667 Y163.902 E5.01619
G1 X132.133 Y163.902 E0.01675
G1 X19.632 Y51.401 E4.99251
M73 Q8 S174
G1 X19.632 Y51.935 E0.01675
G1 X131.600 Y163.902 E4.96882
M73 P8 R173
G1 X131.066 Y163.902 E0.01675
G1 X19.632 Y52.469 E4.94514
G1 X19.632 Y53.002 E0.01675
G1 X130.532 Y163.902 E4.92145
G1 X129.998 Y163.902 E0.01675
G1 X19.632 Y53.536 E4.89777
G1 X19.632 Y54.070 E0.01675
G1 X129.465 Y163.902 E4.87409
G1 X128.931 Y163.902 E0.01675
G1 X19.632 Y54.604 E4.85040
G1 X19.632 Y55.137 E0.01675
G1 X128.397 Y163.902 E4.82672
G1 X127.864 Y163.902 E0.01675
G1 X19.632 Y55.671 E4.80303
M73 Q9 S173
G1 X19.632 Y56.205 E0.01675
G1 X127.330 Y163.902 E4.77935
M73 P9 R172
G1 X126.796 Y163.902 E0.01675
G1 X19.632 Y56.738 E4.75566
G1 X19.632 Y57.272 E0.01675
G1 X126.263 Y163.902 E4.73198
G1 X125.729 Y163.902 E0.01675
G1 X19.632 Y57.806 E4.70830
G1 X19.632 Y58.339 E0.01675
G1 X125.195 Y163.902 E4.68461
G1 X124.661 Y163.902 E0.01675
G1 X19.632 Y58.873 E4.66093
G1 X19.632 Y59.407 E0.01675
G1 X124.128 Y163.902 E4.63724
G1 X123.594 Y163.902 E0.01675
G1 X19.632 Y59.941 E4.61356
M73 Q9 S172
G1 X19.632 Y60.474 E0.01675
G1 X123.060 Y163.902 E4.58987
G1 X122.527 Y163.902 E0.01675
G1 X19.632 Y61.008 E4.56619
M73 P9 R171
G1 X19.632 Y61.542 E0.01675
G1 X121.993 Y163.902 E4.54251
G1 X121.459 Y163.902 E0.01675
G1 X19.632 Y62.075 E4.51882
G1 X19.632 Y62.609 E0.01675
G1 X120.926 Y163.902 E4.49514
G1 X120.392 Y163.902 E0.01675
G1 X19.632 Y63.143 E4.47145
G1 X19.632 Y63.676 E0.01675
G1 X119.858 Y163.902 E4.44777
G1 X119.324 Y163.902 E0.01675
G1 X19.632 Y64.210 E4.42408
G1 X19.632 Y64.744 E0.01675
G1 X118.791 Y163.902 E4.40040
M73 Q10 S171
G1 X118.257 Y163.902 E0.01675
G1 X19.632 Y65.278 E4.37672
G1 X19.632 Y65.811 E0.01675
G1 X117.723 Y163.902 E4.35303
M73 P10 R170
G1 X117.190 Y163.902 E0.01675
G1 X19.632 Y66.345 E4.32935
G1 X19.632 Y66.879 E0.01675
G1 X116.656 Y163.902 E4.30566
G1 X116.122 Y163.902 E0.01675
G1 X19.632 Y67.412 E4.28198
G1 X19.632 Y67.946 E0.01675
G1 X115.589 Y163.902 E4.25829
G1 X115.055 Y163.902 E0.01675
G1 X19.632 Y68.480 E4.23461
G1 X19.632 Y69.014 E0.01675
G1 X114.521 Y163.902 E4.21093
G1 X113.987 Y163.902 E0.01675
G1 X19.632 Y69.547 E4.18724
M73 Q10 S170
G1 X19.632 Y70.081 E0.01675
G1 X113.454 Y163.902 E4.16356
G1 X112.920 Y163.902 E0.01675
G1 X19.632 Y70.615 E4.13987
M73 P10 R169
G1 X19.632 Y71.148 E0.01675
G1 X112.386 Y163.902 E4.11619
G1 X111.853 Y163.902 E0.01675
G1 X19.632 Y71.682 E4.09250
G1 X19.632 Y72.216 E0.01675
G1 X111.319 Y163.902 E4.06882
G1 X110.785 Y163.902 E0.01675
G1 X19.632 Y72.749 E4.04513
G1 X19.632 Y73.283 E0.01675
G1 X110.252 Y163.902 E4.02145
G1 X109.718 Y163.902 E0.01675
G1 X19.632 Y73.817 E3.99777
G1 X19.632 Y74.351 E0.01675
G1 X109.184 Y163.902 E3.97408
G1 X108.650 Y163.902 E0.01675
G1 X19.632 Y74.884 E3.95040
M73 Q11 S169
G1 X19.632 Y75.418 E0.01675
G1 X108.117 Y163.902 E3.92671
G1 X107.583 Y163.902 E0.01675
G1 X19.632 Y75.952 E3.90303
M73 P11 R168
G1 X19.632 Y76.485 E0.01675
