; generated by PrusaSlicer 2.0.0+win64 on 2020-09-17 at 09:26:44

; 

; external perimeters extrusion width = 0.60mm
; perimeters extrusion width = 0.50mm
; infill extrusion width = 0.50mm
; solid infill extrusion width = 0.50mm
; top infill extrusion width = 0.45mm
; first layer extrusion width = 0.42mm

M73 P0 R64
M73 Q0 S64
M201 X1000 Y1000 Z1000 E5000 ; sets maximum accelerations, mm/sec^2
M203 X200 Y200 Z12 E120 ; sets maximum feedrates, mm/sec
M204 P1250 R1250 T1250 ; sets acceleration (P, T) and retract acceleration (R), mm/sec^2
M205 X8.00 Y8.00 Z0.40 E1.50 ; sets the jerk limits, mm/sec
M205 S0 T0 ; sets the minimum extruding and travel feed rate, mm/sec
M107
M115 U3.8.0 ; tell printer latest fw version
G90 ; use absolute coordinates
M83 ; extruder relative mode
M104 S215 ; set extruder temp
M140 S67 ; set bed temp
M190 S67 ; wait for bed temp
M109 S215 ; wait for extruder temp
G28 W ; home all without mesh bed level
G80 ; mesh bed leveling
G1 Y-3.0 F1000.0 ; go outside print area
G92 E0.0
G1 X60.0 E9.0 F1000.0 ; intro line
M73 Q0 S64
M73 P0 R64
G1 X100.0 E12.5 F1000.0 ; intro line
G92 E0.0
M221 S95
M900 K30 ; Filament gcode
G21 ; set units to millimeters
G90 ; use absolute coordinates
M83 ; use relative distances for extrusion
;BEFORE_LAYER_CHANGE
G92 E0.0
;0.2


G1 E-0.80000 F2100.00000
G1 Z0.600 F10800.000
;AFTER_LAYER_CHANGE
;0.2
G1 X78.785 Y76.798
G1 Z0.200
G1 E0.80000 F2100.00000
M204 S1000
G1 F1200
G1 X184.571 Y76.798 E3.31683
G1 X184.571 Y75.288 E0.04736
G1 X184.370 Y74.823 E0.01589
G1 X184.230 Y74.391 E0.01422
G1 X184.133 Y73.956 E0.01397
G1 X184.075 Y73.499 E0.01447
G1 X184.062 Y73.045 E0.01421
G1 X184.091 Y72.593 E0.01422
G1 X184.164 Y72.145 E0.01422
G1 X184.276 Y71.714 E0.01397
G1 X184.433 Y71.280 E0.01447
G1 X184.628 Y70.871 E0.01421
G1 X184.861 Y70.482 E0.01422
G1 X185.124 Y70.123 E0.01397
G1 X185.431 Y69.778 E0.01447
G1 X185.763 Y69.469 E0.01422
G1 X186.117 Y69.199 E0.01397
G1 X186.508 Y68.954 E0.01447
G1 X186.914 Y68.751 E0.01421
G1 X187.337 Y68.587 E0.01422
G1 X187.765 Y68.466 E0.01397
G1 X188.219 Y68.383 E0.01447
G1 X188.663 Y68.345 E0.01397
G1 X189.117 Y68.349 E0.01422
G1 X189.575 Y68.397 E0.01447
G1 X190.012 Y68.485 E0.01397
G1 X190.447 Y68.615 E0.01422
G1 X190.866 Y68.786 E0.01422
G1 X191.268 Y68.996 E0.01421
G1 X191.655 Y69.248 E0.01447
G1 X192.004 Y69.525 E0.01397
G1 X192.330 Y69.840 E0.01422
G1 X192.626 Y70.184 E0.01422
G1 X192.888 Y70.554 E0.01421
G1 X193.117 Y70.954 E0.01447
G1 X193.301 Y71.360 E0.01397
G1 X193.449 Y71.789 E0.01421
G1 X193.556 Y72.237 E0.01447
G1 X193.619 Y72.678 E0.01397
G1 X193.641 Y73.136 E0.01437
G1 X193.641 Y79.426 E0.19721
G1 X193.623 Y79.681 E0.00801
G1 X193.573 Y79.919 E0.00763
G1 X193.487 Y80.157 E0.00794
G1 X193.372 Y80.376 E0.00778
G1 X193.230 Y80.574 E0.00762
G1 X193.055 Y80.757 E0.00794
G1 X192.864 Y80.908 E0.00763
G1 X192.650 Y81.034 E0.00778
G1 X192.421 Y81.129 E0.00778
G1 X192.174 Y81.194 E0.00799
G1 X188.474 Y81.864 E0.11792
G1 X184.759 Y82.490 E0.11813
G1 X181.036 Y83.069 E0.11813
G1 X177.306 Y83.601 E0.11813
G1 X173.570 Y84.088 E0.11813
G1 X169.829 Y84.528 E0.11813
G1 X166.082 Y84.921 E0.11813
G1 X162.330 Y85.267 E0.11813
G1 X158.574 Y85.567 E0.11815
G1 X154.816 Y85.820 E0.11810
G1 X151.054 Y86.027 E0.11813
G1 X147.290 Y86.186 E0.11813
G1 X143.524 Y86.299 E0.11813
G1 X139.757 Y86.365 E0.11813
G1 X135.959 Y86.383 E0.11911
G1 X132.223 Y86.356 E0.11714
G1 X128.456 Y86.281 E0.11813
G1 X124.690 Y86.159 E0.11813
G1 X120.927 Y85.990 E0.11813
G1 X117.165 Y85.775 E0.11813
G1 X113.407 Y85.513 E0.11813
G1 X109.652 Y85.204 E0.11813
G1 X105.902 Y84.848 E0.11813
G1 X102.156 Y84.446 E0.11813
G1 X98.415 Y83.997 E0.11813
G1 X94.641 Y83.496 E0.11937
G1 X90.951 Y82.960 E0.11691
G1 X87.231 Y82.372 E0.11810
G1 X83.517 Y81.737 E0.11813
G1 X79.820 Y81.058 E0.11788
G1 X79.655 Y81.013 E0.00535
G1 X79.508 Y80.944 E0.00510
G1 X79.373 Y80.852 E0.00510
G1 X79.256 Y80.740 E0.00510
G1 X79.159 Y80.610 E0.00510
G1 X79.084 Y80.465 E0.00510
G1 X79.034 Y80.311 E0.00510
G1 X79.008 Y80.141 E0.00537
G1 X78.789 Y76.858 E0.10317
G1 X79.136 Y76.990 F10800.000
G1 X79.188 Y77.175
G1 F1200
G1 X184.948 Y77.175 E3.31602
G1 X184.948 Y75.210 E0.06163
G1 X184.723 Y74.689 E0.01778
G1 X184.594 Y74.292 E0.01310
G1 X184.505 Y73.892 E0.01286
G1 X184.452 Y73.469 E0.01335
G1 X184.439 Y73.052 E0.01308
G1 X184.467 Y72.635 E0.01310
G1 X184.533 Y72.223 E0.01310
G1 X184.636 Y71.826 E0.01285
G1 X184.782 Y71.426 E0.01335
G1 X184.961 Y71.049 E0.01308
G1 X185.175 Y70.690 E0.01310
G1 X185.418 Y70.360 E0.01285
G1 X185.701 Y70.042 E0.01335
G1 X186.007 Y69.758 E0.01309
G1 X186.332 Y69.509 E0.01285
G1 X186.693 Y69.283 E0.01334
G1 X187.066 Y69.096 E0.01309
G1 X187.456 Y68.945 E0.01310
G1 X187.851 Y68.834 E0.01285
G1 X188.269 Y68.758 E0.01335
G1 X188.678 Y68.723 E0.01285
G1 X189.095 Y68.726 E0.01309
G1 X189.519 Y68.770 E0.01334
G1 X189.921 Y68.851 E0.01285
G1 X190.321 Y68.971 E0.01310
G1 X190.708 Y69.129 E0.01310
G1 X191.077 Y69.322 E0.01309
G1 X191.434 Y69.554 E0.01335
G1 X191.755 Y69.810 E0.01285
G1 X192.056 Y70.099 E0.01310
G1 X192.329 Y70.416 E0.01310
G1 X192.570 Y70.757 E0.01308
G1 X192.781 Y71.126 E0.01335
G1 X192.950 Y71.499 E0.01286
G1 X193.086 Y71.894 E0.01308
G1 X193.185 Y72.308 E0.01335
G1 X193.243 Y72.714 E0.01286
G1 X193.264 Y73.145 E0.01353
G1 X193.264 Y79.413 E0.19652
G1 X193.249 Y79.629 E0.00678
G1 X193.209 Y79.816 E0.00600
G1 X193.142 Y80.005 E0.00629
G1 X193.050 Y80.177 E0.00613
G1 X192.939 Y80.332 E0.00599
G1 X192.800 Y80.478 E0.00630
G1 X192.650 Y80.596 E0.00599
G1 X192.481 Y80.696 E0.00615
G1 X192.301 Y80.771 E0.00614
G1 X192.093 Y80.825 E0.00672
G1 X188.409 Y81.493 E0.11740
G1 X184.698 Y82.117 E0.11798
G1 X180.980 Y82.696 E0.11798
G1 X177.255 Y83.228 E0.11798
G1 X173.524 Y83.714 E0.11798
G1 X169.787 Y84.153 E0.11798
G1 X166.045 Y84.546 E0.11798
G1 X162.298 Y84.892 E0.11798
G1 X158.546 Y85.191 E0.11800
G1 X154.793 Y85.444 E0.11795
G1 X151.036 Y85.650 E0.11798
G1 X147.276 Y85.809 E0.11798
G1 X143.515 Y85.922 E0.11798
G1 X139.753 Y85.988 E0.11798
G1 X135.959 Y86.006 E0.11896
G1 X132.228 Y85.978 E0.11699
G1 X128.466 Y85.904 E0.11798
G1 X124.705 Y85.782 E0.11798
G1 X120.946 Y85.614 E0.11798
G1 X117.189 Y85.399 E0.11798
G1 X113.436 Y85.137 E0.11798
G1 X109.686 Y84.828 E0.11798
G1 X105.940 Y84.473 E0.11798
G1 X102.198 Y84.071 E0.11798
G1 X98.462 Y83.623 E0.11798
G1 X94.693 Y83.123 E0.11922
G1 X91.008 Y82.587 E0.11676
G1 X87.292 Y82.000 E0.11796
G1 X83.583 Y81.366 E0.11798
G1 X79.786 Y80.657 E0.12111
G1 X79.695 Y80.615 E0.00315
G1 X79.539 Y80.489 E0.00628
G1 X79.433 Y80.320 E0.00628
G1 X79.402 Y80.224 E0.00315
G1 X79.192 Y77.235 E0.09394
G1 X79.591 Y77.552 F10800.000
G1 F1200
G1 X185.325 Y77.552 E3.31520
G1 X185.325 Y75.132 E0.07590
G1 X185.076 Y74.556 E0.01967
G1 X184.958 Y74.193 E0.01198
G1 X184.877 Y73.827 E0.01175
G1 X184.828 Y73.440 E0.01223
G1 X184.817 Y73.059 E0.01195
G1 X184.842 Y72.678 E0.01198
G1 X184.903 Y72.301 E0.01198
G1 X184.997 Y71.938 E0.01174
G1 X185.130 Y71.572 E0.01222
G1 X185.294 Y71.227 E0.01196
G1 X185.490 Y70.899 E0.01198
G1 X185.711 Y70.597 E0.01174
G1 X185.970 Y70.306 E0.01222
G1 X186.250 Y70.047 E0.01197
G1 X186.547 Y69.819 E0.01174
G1 X186.878 Y69.612 E0.01222
G1 X187.219 Y69.441 E0.01196
G1 X187.576 Y69.303 E0.01199
G1 X187.936 Y69.202 E0.01174
G1 X188.320 Y69.132 E0.01223
G1 X188.692 Y69.100 E0.01174
G1 X189.074 Y69.103 E0.01197
G1 X189.462 Y69.143 E0.01222
G1 X189.829 Y69.217 E0.01174
G1 X190.195 Y69.327 E0.01199
G1 X190.549 Y69.471 E0.01198
G1 X190.887 Y69.648 E0.01196
G1 X191.213 Y69.861 E0.01222
G1 X191.506 Y70.094 E0.01174
G1 X191.782 Y70.359 E0.01198
G1 X192.031 Y70.648 E0.01198
G1 X192.251 Y70.959 E0.01195
G1 X192.445 Y71.298 E0.01223
G1 X192.600 Y71.639 E0.01174
G1 X192.724 Y72.000 E0.01196
G1 X192.815 Y72.379 E0.01223
G1 X192.868 Y72.750 E0.01175
G1 X192.887 Y73.154 E0.01269
G1 X192.874 Y79.576 E0.20136
G1 X192.796 Y79.852 E0.00899
G1 X192.648 Y80.091 E0.00881
G1 X192.436 Y80.285 E0.00900
G1 X192.180 Y80.413 E0.00898
G1 X192.012 Y80.457 E0.00545
G1 X188.344 Y81.121 E0.11688
G1 X184.638 Y81.745 E0.11783
G1 X180.925 Y82.323 E0.11783
G1 X177.204 Y82.854 E0.11783
G1 X173.478 Y83.339 E0.11783
G1 X169.745 Y83.778 E0.11783
G1 X166.008 Y84.170 E0.11783
G1 X162.266 Y84.516 E0.11783
G1 X158.519 Y84.815 E0.11786
G1 X154.770 Y85.068 E0.11781
G1 X151.018 Y85.273 E0.11783
G1 X147.263 Y85.433 E0.11783
G1 X143.506 Y85.545 E0.11783
G1 X139.749 Y85.611 E0.11783
G1 X135.960 Y85.629 E0.11882
G1 X132.233 Y85.601 E0.11685
G1 X128.476 Y85.527 E0.11783
G1 X124.719 Y85.405 E0.11783
G1 X120.965 Y85.237 E0.11783
G1 X117.213 Y85.022 E0.11783
G1 X113.464 Y84.761 E0.11783
G1 X109.719 Y84.453 E0.11783
G1 X105.978 Y84.098 E0.11783
G1 X102.241 Y83.697 E0.11783
G1 X98.510 Y83.249 E0.11783
G1 X94.745 Y82.749 E0.11907
G1 X91.065 Y82.214 E0.11661
G1 X87.353 Y81.627 E0.11781
G1 X83.649 Y80.995 E0.11783
G1 X79.989 Y80.322 E0.11668
G1 X79.882 Y80.286 E0.00354
G1 X79.823 Y80.238 E0.00239
G1 X79.782 Y80.174 E0.00239
G1 X79.759 Y80.060 E0.00363
G1 X79.595 Y77.612 E0.07692
G1 X79.995 Y77.929 F10800.000
G1 F1200
G1 X185.702 Y77.929 E3.31439
G1 X185.702 Y75.054 E0.09017
G1 X185.429 Y74.423 E0.02155
G1 X185.322 Y74.093 E0.01086
G1 X185.249 Y73.762 E0.01063
G1 X185.204 Y73.411 E0.01111
G1 X185.194 Y73.066 E0.01082
G1 X185.217 Y72.720 E0.01086
G1 X185.272 Y72.378 E0.01086
G1 X185.357 Y72.050 E0.01063
G1 X185.478 Y71.717 E0.01110
G1 X185.626 Y71.405 E0.01083
G1 X185.804 Y71.108 E0.01087
G1 X186.005 Y70.835 E0.01063
G1 X186.240 Y70.570 E0.01110
G1 X186.494 Y70.335 E0.01085
G1 X186.763 Y70.129 E0.01062
G1 X187.063 Y69.941 E0.01110
G1 X187.372 Y69.787 E0.01084
G1 X187.695 Y69.662 E0.01087
G1 X188.021 Y69.570 E0.01062
G1 X188.370 Y69.506 E0.01111
G1 X188.707 Y69.477 E0.01062
G1 X189.053 Y69.480 E0.01085
G1 X189.405 Y69.516 E0.01110
G1 X189.737 Y69.583 E0.01062
G1 X190.069 Y69.683 E0.01087
G1 X190.390 Y69.814 E0.01086
G1 X190.696 Y69.974 E0.01083
G1 X190.993 Y70.167 E0.01110
G1 X191.258 Y70.378 E0.01063
G1 X191.508 Y70.618 E0.01086
G1 X191.734 Y70.881 E0.01086
G1 X191.933 Y71.162 E0.01083
G1 X192.109 Y71.470 E0.01110
G1 X192.249 Y71.779 E0.01063
G1 X192.361 Y72.105 E0.01083
G1 X192.444 Y72.450 E0.01111
G1 X192.492 Y72.785 E0.01063
G1 X192.510 Y73.163 E0.01185
G1 X192.510 Y79.387 E0.19514
G1 X192.482 Y79.609 E0.00704
G1 X192.408 Y79.779 E0.00582
G1 X192.222 Y79.973 E0.00841
G1 X192.060 Y80.055 E0.00571
G1 X188.279 Y80.750 E0.12053
G1 X184.578 Y81.373 E0.11768
G1 X180.869 Y81.950 E0.11768
G1 X177.153 Y82.481 E0.11768
G1 X173.431 Y82.965 E0.11768
G1 X169.704 Y83.403 E0.11768
G1 X165.971 Y83.795 E0.11768
G1 X162.233 Y84.140 E0.11768
G1 X158.491 Y84.439 E0.11771
G1 X154.747 Y84.691 E0.11766
G1 X150.999 Y84.897 E0.11768
G1 X147.249 Y85.056 E0.11768
G1 X143.498 Y85.168 E0.11768
G1 X139.745 Y85.233 E0.11768
G1 X135.960 Y85.252 E0.11867
G1 X132.238 Y85.224 E0.11670
G1 X128.485 Y85.150 E0.11768
G1 X124.734 Y85.028 E0.11768
G1 X120.984 Y84.861 E0.11768
G1 X117.237 Y84.646 E0.11768
G1 X113.493 Y84.385 E0.11768
G1 X109.752 Y84.077 E0.11768
G1 X106.016 Y83.723 E0.11768
G1 X102.284 Y83.322 E0.11768
G1 X98.557 Y82.875 E0.11768
G1 X94.797 Y82.376 E0.11893
G1 X91.121 Y81.841 E0.11647
G1 X87.414 Y81.255 E0.11766
G1 X83.715 Y80.623 E0.11768
G1 X80.130 Y79.965 E0.11427
G1 X79.999 Y77.989 E0.06208
G1 F8640
G1 X83.290 Y77.987 E-0.76000
G1 E-0.04000 F2100.00000
G1 Z0.800 F10800.000
G1 X186.897 Y73.289
G1 Z0.200
G1 E0.80000 F2100.00000
G1 F1200
G1 X186.897 Y72.974 E0.00989
G1 X186.947 Y72.662 E0.00989
G1 X187.047 Y72.363 E0.00989
G1 X187.194 Y72.083 E0.00989
G1 X187.383 Y71.831 E0.00989
G1 X187.611 Y71.613 E0.00989
G1 X187.871 Y71.433 E0.00989
G1 X188.156 Y71.298 E0.00989
G1 X188.459 Y71.210 E0.00989
G1 X188.767 Y71.173 E0.00974
G1 X189.087 Y71.185 E0.01004
G1 X189.396 Y71.248 E0.00990
G1 X189.691 Y71.360 E0.00989
G1 X189.965 Y71.518 E0.00989
G1 X190.209 Y71.717 E0.00989
G1 X190.418 Y71.953 E0.00989
G1 X190.584 Y72.216 E0.00974
G1 X190.711 Y72.510 E0.01004
G1 X190.786 Y72.817 E0.00990
G1 X190.812 Y73.131 E0.00989
G1 X190.786 Y73.446 E0.00989
G1 X190.711 Y73.752 E0.00989
G1 X190.589 Y74.038 E0.00974
G1 X190.419 Y74.309 E0.01004
G1 X190.209 Y74.545 E0.00990
G1 X189.965 Y74.745 E0.00989
G1 X189.691 Y74.903 E0.00989
G1 X189.396 Y75.015 E0.00989
G1 X189.087 Y75.078 E0.00989
G1 X188.772 Y75.090 E0.00989
G1 X188.459 Y75.052 E0.00989
G1 X188.156 Y74.965 E0.00989
G1 X187.871 Y74.829 E0.00989
G1 X187.611 Y74.650 E0.00989
G1 X187.383 Y74.431 E0.00989
G1 X187.194 Y74.179 E0.00989
G1 X187.047 Y73.900 E0.00989
G1 X186.947 Y73.601 E0.00989
G1 X186.906 Y73.348 E0.00801
G1 X186.611 Y73.154 F10800.000
G1 X186.519 Y73.320
G1 F1200
G1 X186.519 Y72.943 E0.01180
G1 X186.580 Y72.572 E0.01180
G1 X186.699 Y72.214 E0.01180
G1 X186.874 Y71.881 E0.01180
G1 X187.100 Y71.580 E0.01180
G1 X187.372 Y71.320 E0.01180
G1 X187.681 Y71.106 E0.01180
G1 X188.021 Y70.944 E0.01180
G1 X188.383 Y70.840 E0.01180
G1 X188.751 Y70.795 E0.01163
G1 X189.132 Y70.809 E0.01195
G1 X189.502 Y70.885 E0.01183
G1 X189.854 Y71.018 E0.01180
G1 X190.180 Y71.206 E0.01180
G1 X190.471 Y71.444 E0.01180
G1 X190.721 Y71.726 E0.01180
G1 X190.919 Y72.040 E0.01163
G1 X191.069 Y72.390 E0.01195
G1 X191.160 Y72.756 E0.01183
G1 X191.190 Y73.131 E0.01180
G1 X191.160 Y73.506 E0.01180
G1 X191.070 Y73.872 E0.01180
G1 X190.924 Y74.213 E0.01163
G1 X190.721 Y74.536 E0.01195
G1 X190.471 Y74.818 E0.01183
G1 X190.180 Y75.056 E0.01180
G1 X189.854 Y75.244 E0.01180
G1 X189.502 Y75.378 E0.01180
G1 X189.133 Y75.453 E0.01180
G1 X188.757 Y75.468 E0.01180
G1 X188.383 Y75.423 E0.01180
G1 X188.021 Y75.318 E0.01180
G1 X187.681 Y75.157 E0.01180
G1 X187.372 Y74.943 E0.01180
G1 X187.100 Y74.682 E0.01180
G1 X186.874 Y74.381 E0.01180
G1 X186.699 Y74.048 E0.01180
G1 X186.580 Y73.691 E0.01180
G1 X186.529 Y73.379 E0.00992
G1 X186.142 Y73.350 F10800.000
G1 F1200
G1 X186.142 Y72.913 E0.01371
G1 X186.213 Y72.481 E0.01371
G1 X186.351 Y72.066 E0.01371
G1 X186.554 Y71.679 E0.01371
G1 X186.817 Y71.329 E0.01371
G1 X187.132 Y71.026 E0.01371
G1 X187.492 Y70.778 E0.01371
G1 X187.887 Y70.591 E0.01371
G1 X188.307 Y70.469 E0.01371
G1 X188.736 Y70.417 E0.01352
G1 X189.177 Y70.434 E0.01386
G1 X189.607 Y70.521 E0.01375
G1 X190.016 Y70.676 E0.01371
G1 X190.394 Y70.895 E0.01371
G1 X190.733 Y71.172 E0.01371
G1 X191.023 Y71.499 E0.01371
G1 X191.254 Y71.863 E0.01352
G1 X191.428 Y72.270 E0.01386
G1 X191.533 Y72.695 E0.01375
G1 X191.568 Y73.131 E0.01371
G1 X191.533 Y73.567 E0.01371
G1 X191.428 Y73.992 E0.01371
G1 X191.259 Y74.389 E0.01352
G1 X191.024 Y74.763 E0.01386
G1 X190.733 Y75.091 E0.01375
G1 X190.394 Y75.368 E0.01371
G1 X190.016 Y75.586 E0.01371
G1 X189.607 Y75.741 E0.01371
G1 X189.178 Y75.829 E0.01371
G1 X188.741 Y75.846 E0.01371
G1 X188.307 Y75.794 E0.01371
G1 X187.887 Y75.672 E0.01371
G1 X187.492 Y75.485 E0.01371
G1 X187.132 Y75.236 E0.01371
G1 X186.817 Y74.933 E0.01371
G1 X186.554 Y74.584 E0.01371
G1 X186.351 Y74.196 E0.01371
G1 X186.213 Y73.782 E0.01371
G1 X186.152 Y73.409 E0.01183
G1 X185.765 Y73.380 F10800.000
G1 F1200
G1 X185.765 Y72.882 E0.01562
G1 X185.845 Y72.390 E0.01562
G1 X186.003 Y71.918 E0.01562
G1 X186.235 Y71.477 E0.01562
G1 X186.534 Y71.079 E0.01562
G1 X186.893 Y70.733 E0.01562
G1 X187.303 Y70.450 E0.01562
G1 X187.753 Y70.237 E0.01562
G1 X188.232 Y70.098 E0.01562
G1 X188.720 Y70.039 E0.01542
G1 X189.222 Y70.058 E0.01577
G1 X189.712 Y70.158 E0.01568
G1 X190.178 Y70.335 E0.01562
G1 X190.609 Y70.584 E0.01562
G1 X190.995 Y70.899 E0.01562
G1 X191.326 Y71.272 E0.01562
G1 X191.588 Y71.687 E0.01542
G1 X191.787 Y72.149 E0.01577
G1 X191.906 Y72.635 E0.01568
G1 X191.946 Y73.131 E0.01562
G1 X191.906 Y73.628 E0.01562
G1 X191.787 Y74.112 E0.01562
G1 X191.594 Y74.564 E0.01542
G1 X191.327 Y74.990 E0.01577
G1 X190.995 Y75.364 E0.01568
G1 X190.609 Y75.679 E0.01562
G1 X190.178 Y75.928 E0.01562
G1 X189.712 Y76.105 E0.01562
G1 X189.224 Y76.204 E0.01562
G1 X188.726 Y76.224 E0.01562
G1 X188.232 Y76.164 E0.01562
G1 X187.753 Y76.026 E0.01562
G1 X187.303 Y75.812 E0.01562
G1 X186.893 Y75.529 E0.01562
G1 X186.534 Y75.184 E0.01562
G1 X186.235 Y74.786 E0.01562
G1 X186.003 Y74.345 E0.01562
G1 X185.845 Y73.872 E0.01562
G1 X185.775 Y73.440 E0.01374
