; generated by PrusaSlicer 2.8.0+win64 on 2024-12-10 at 17:35:05 UTC


;
;
; 

; external perimeters extrusion width = 0.60mm
; perimeters extrusion width = 0.50mm
; infill extrusion width = 0.50mm
; solid infill extrusion width = 0.50mm
; top infill extrusion width = 0.45mm
; first layer extrusion width = 0.42mm

M73 P0 R202
M73 Q0 S204
M201 X1000 Y1000 Z200 E5000 ; sets maximum accelerations, mm/sec^2
M203 X200 Y200 Z12 E120 ; sets maximum feedrates, mm / sec
M204 S1250 T1250 ; sets acceleration (S) and retract acceleration (R), mm/sec^2
M205 X8.00 Y8.00 Z0.40 E4.50 ; sets the jerk limits, mm/sec
M205 S0 T0 ; sets the minimum extruding and travel feed rate, mm/sec

; printing object box_top.stl id:0 copy 0
; stop printing object box_top.stl id:0 copy 0

;TYPE:Custom
M862.3 P "MK3S" ; printer model check
M862.1 P0.4 ; nozzle diameter check
M115 U3.13.3 ; tell printer latest fw version
G90 ; use absolute coordinates
M83 ; extruder relative mode
M104 S230 ; set extruder temp
M140 S85 ; set bed temp
M190 S85 ; wait for bed temp
M109 S230 ; wait for extruder temp
G28 W ; home all without mesh bed level
G80 X14.8012 Y14.3783 W217 H139.204 ; mesh bed levelling

G1 Z0.2 F720
G1 Y-3 F1000 ; go outside print area
G92 E0
G1 X60 E9 F1000 ; intro line
G1 X100 E12.5 F1000 ; intro line
M73 Q0 S203

G92 E0
M221 S95

; Don't change E values below. Excessive value can damage the printer.

M907 E538 ; set extruder motor current
G21 ; set units to millimeters
G90 ; use absolute coordinates
M83 ; use relative distances for extrusion

M900 K0.08 ; Filament gcode LA 1.5
M900 K45 ; Filament gcode LA 1.0




M107
;LAYER_CHANGE
;Z:0.2
;HEIGHT:0.2
G1 E-1 F2100
G1 Z.4 F720
; printing object box_top.stl id:0 copy 0
G1 X115.449 Y76.112 F10800
G1 Z.2 F720
G1 E1 F2100
M204 S800
;TYPE:Perimeter
;WIDTH:0.419999
G1 F1200
G1 X114.76 Y75.95 E.02219
G1 X113.973 Y75.611 E.02687
G1 X113.257 Y75.141 E.02685
G1 X112.65 Y74.571 E.02611
G1 X112.128 Y73.877 E.02723
G1 X112.02 Y73.704 E.00639
G1 X111.735 Y73.102 E.02088
G1 X111.489 Y72.281 E.02687
G1 X111.388 Y71.43 E.02687
G1 X111.437 Y70.575 E.02685
G1 X111.634 Y69.741 E.02687
G1 X111.973 Y68.954 E.02687
G1 X112.443 Y68.238 E.02685
G1 X113.03 Y67.614 E.02686
G1 X113.717 Y67.102 E.02686
G1 X114.482 Y66.717 E.02685
G1 X115.302 Y66.47 E.02685
G1 X116.129 Y66.372 E.02611
G1 X116.996 Y66.418 E.02722
G1 X117.842 Y66.616 E.02724
G1 X118.629 Y66.954 E.02686
G1 X119.346 Y67.424 E.02688
G1 X119.97 Y68.011 E.02686
G1 X120.482 Y68.698 E.02686
G1 X120.867 Y69.463 E.02685
G1 X121.114 Y70.284 E.02688
G1 X121.214 Y71.135 E.02687
G1 X121.165 Y71.99 E.02685
G1 X120.968 Y72.824 E.02687
G1 X120.63 Y73.611 E.02686
G1 X120.16 Y74.327 E.02685
G1 X119.572 Y74.951 E.02688
G1 X118.886 Y75.463 E.02684
G1 X118.12 Y75.848 E.02688
G1 X117.3 Y76.095 E.02685
G1 X116.449 Y76.195 E.02687
G1 X115.594 Y76.146 E.02685
G1 X115.508 Y76.126 E.00277
M204 S1000
G1 X115.508 Y76.126 F10800
G1 X115.514 Y75.744
M204 S800
G1 F1200
G1 X114.858 Y75.585 E.02116
G1 X114.132 Y75.269 E.02483
G1 X113.473 Y74.832 E.02479
G1 X112.917 Y74.305 E.02402
G1 X112.351 Y73.524 E.03024
G1 X112.077 Y72.942 E.02017
G1 X111.853 Y72.184 E.02478
G1 X111.764 Y71.398 E.0248
G1 X111.813 Y70.608 E.02482
G1 X111.998 Y69.839 E.0248
G1 X112.314 Y69.114 E.0248
G1 X112.752 Y68.454 E.02484
G1 X113.297 Y67.881 E.02479
G1 X113.933 Y67.411 E.0248
G1 X114.641 Y67.058 E.02481
G1 X115.4 Y66.834 E.02481
G1 X116.162 Y66.748 E.02404
G1 X116.966 Y66.794 E.02525
G1 X117.745 Y66.98 E.02511
G1 X118.47 Y67.296 E.0248
G1 X119.129 Y67.733 E.02479
G1 X119.703 Y68.278 E.02482
G1 X120.173 Y68.914 E.0248
G1 X120.525 Y69.623 E.02482
G1 X120.749 Y70.381 E.02478
G1 X120.838 Y71.168 E.02483
G1 X120.789 Y71.957 E.02479
G1 X120.604 Y72.726 E.0248
G1 X120.288 Y73.451 E.0248
G1 X119.851 Y74.111 E.02482
G1 X119.306 Y74.684 E.02479
G1 X118.669 Y75.154 E.02482
G1 X117.961 Y75.507 E.02481
G1 X117.202 Y75.731 E.02481
G1 X116.416 Y75.82 E.0248
G1 X115.627 Y75.771 E.02479
G1 X115.573 Y75.758 E.00174
M204 S1000
G1 X115.573 Y75.758 F10800
G1 X115.579 Y75.375
M204 S800
G1 F1200
G1 X114.955 Y75.221 E.02015
G1 X114.292 Y74.928 E.02273
G1 X113.689 Y74.523 E.02278
G1 X113.184 Y74.038 E.02195
G1 X112.682 Y73.344 E.02686
G1 X112.419 Y72.783 E.01943
G1 X112.217 Y72.086 E.02275
G1 X112.14 Y71.365 E.02273
G1 X112.189 Y70.641 E.02275
G1 X112.363 Y69.936 E.02277
G1 X112.656 Y69.273 E.02273
G1 X113.061 Y68.671 E.02275
G1 X113.563 Y68.148 E.02273
G1 X114.149 Y67.72 E.02275
G1 X114.801 Y67.4 E.02277
G1 X115.498 Y67.199 E.02274
G1 X116.194 Y67.123 E.02195
G1 X116.936 Y67.169 E.02331
G1 X117.647 Y67.344 E.02296
G1 X118.311 Y67.638 E.02277
G1 X118.913 Y68.042 E.02273
G1 X119.436 Y68.545 E.02275
G1 X119.864 Y69.131 E.02275
G1 X120.184 Y69.782 E.02274
G1 X120.385 Y70.479 E.02274
G1 X120.463 Y71.2 E.02274
G1 X120.414 Y71.924 E.02275
G1 X120.24 Y72.629 E.02277
G1 X119.946 Y73.292 E.02274
G1 X119.542 Y73.895 E.02276
G1 X119.039 Y74.418 E.02275
G1 X118.453 Y74.845 E.02273
G1 X117.802 Y75.165 E.02274
G1 X117.105 Y75.366 E.02274
G1 X116.383 Y75.444 E.02277
G1 X115.659 Y75.395 E.02275
G1 X115.638 Y75.39 E.00068
M204 S1000
G1 X115.638 Y75.39 F10800
G1 X115.644 Y75.007
M204 S800
G1 F1200
G1 X115.053 Y74.857 E.01912
G1 X114.451 Y74.586 E.0207
G1 X113.906 Y74.214 E.02069
G1 X113.45 Y73.771 E.01993
G1 X113.014 Y73.164 E.02343
G1 X112.761 Y72.624 E.0187
G1 X112.582 Y71.989 E.02069
G1 X112.515 Y71.332 E.02071
G1 X112.564 Y70.674 E.02069
G1 X112.727 Y70.034 E.02071
G1 X112.998 Y69.432 E.0207
G1 X113.369 Y68.887 E.02067
G1 X113.83 Y68.414 E.02071
G1 X114.366 Y68.029 E.02069
G1 X114.96 Y67.742 E.02068
G1 X115.595 Y67.563 E.02069
G1 X116.227 Y67.499 E.01992
G1 X116.906 Y67.545 E.02134
G1 X117.55 Y67.708 E.02083
G1 X118.151 Y67.979 E.02067
G1 X118.697 Y68.351 E.02072
G1 X119.17 Y68.811 E.02069
G1 X119.555 Y69.347 E.02069
G1 X119.842 Y69.941 E.02068
G1 X120.021 Y70.577 E.02072
G1 X120.087 Y71.233 E.02067
G1 X120.038 Y71.891 E.02069
G1 X119.876 Y72.531 E.0207
G1 X119.604 Y73.133 E.02071
G1 X119.233 Y73.678 E.02067
G1 X118.772 Y74.151 E.02071
G1 X118.237 Y74.536 E.02067
G1 X117.642 Y74.823 E.02071
G1 X117.007 Y75.002 E.02069
G1 X116.35 Y75.068 E.0207
G1 X115.703 Y75.02 E.02034
M204 S1000
G1 X115.703 Y75.02 F10800
G1 X115.709 Y74.64
M204 S800
;TYPE:External perimeter
G1 F1200
G1 X115.15 Y74.493 E.01812
G1 X114.61 Y74.244 E.01864
G1 X114.122 Y73.905 E.01863
G1 X113.717 Y73.505 E.01785
G1 X113.345 Y72.984 E.02007
G1 X113.102 Y72.464 E.018
G1 X112.946 Y71.891 E.01862
G1 X112.891 Y71.299 E.01864
G1 X112.94 Y70.707 E.01863
G1 X113.091 Y70.132 E.01864
G1 X113.34 Y69.592 E.01864
G1 X113.678 Y69.103 E.01864
G1 X114.097 Y68.681 E.01865
G1 X114.582 Y68.338 E.01863
G1 X115.119 Y68.084 E.01863
G1 X115.693 Y67.927 E.01866
G1 X116.26 Y67.875 E.01785
G1 X116.876 Y67.921 E.01937
G1 X117.452 Y68.072 E.01867
G1 X117.992 Y68.321 E.01864
G1 X118.481 Y68.66 E.01866
G1 X118.903 Y69.078 E.01862
G1 X119.246 Y69.563 E.01863
G1 X119.5 Y70.101 E.01865
G1 X119.657 Y70.674 E.01863
G1 X119.711 Y71.266 E.01864
G1 X119.662 Y71.859 E.01866
G1 X119.511 Y72.433 E.01861
G1 X119.263 Y72.973 E.01863
G1 X118.924 Y73.462 E.01866
G1 X118.506 Y73.884 E.01862
G1 X118.02 Y74.228 E.01867
G1 X117.483 Y74.481 E.01861
G1 X116.91 Y74.638 E.01863
G1 X116.318 Y74.693 E.01864
G1 X115.768 Y74.647 E.01731
M204 S1000
;WIPE_START
G1 F8640
G1 X115.709 Y74.64 E-.01372
G1 X115.15 Y74.493 E-.13346
G1 X114.61 Y74.244 E-.1373
G1 X114.122 Y73.905 E-.1372
G1 X113.717 Y73.505 E-.13144
G1 X113.345 Y72.984 E-.14782
G1 X113.102 Y72.464 E-.13253
G1 X112.946 Y71.891 E-.13712
G1 X112.934 Y71.764 E-.02941
;WIPE_END
G1 Z.4 F720
G1 X40.681 Y101.351 F10800
G1 Z.2 F720
G1 E1 F2100
M204 S800
;TYPE:Perimeter
G1 F1200
G1 X40.563 Y101.246 E.00495
G1 X40.315 Y100.846 E.01476
G1 X40.182 Y100.363 E.01571
G1 X40.17 Y95.716 E.1457
G1 X40.241 Y95.231 E.01537
G1 X40.306 Y95.051 E.006
G1 X40.541 Y94.657 E.01438
G1 X40.904 Y94.319 E.01555
G1 X41.262 Y94.131 E.01268
G1 X41.686 Y94.029 E.01367
G1 X46.309 Y94.02 E.14495
G1 X46.658 Y94.056 E.011
G1 X47.127 Y94.23 E.01568
;WIDTH:0.455148
G1 X47.541 Y94.524 E.0174
G1 X47.729 Y94.756 E.01024
G1 X47.932 Y95.221 E.01739
;WIDTH:0.419999
G1 X48.006 Y95.716 E.01569
G1 X48.006 Y100.159 E.13931
G1 X47.931 Y100.66 E.01588
M73 P0 R201
G1 X47.738 Y101.075 E.01435
G1 X47.428 Y101.435 E.0149
G1 X47.048 Y101.687 E.0143
G1 X46.585 Y101.834 E.01523
G1 X46.309 Y101.856 E.00868
G1 X41.867 Y101.856 E.13928
G1 X41.401 Y101.791 E.01475
G1 X40.943 Y101.583 E.01577
G1 X40.726 Y101.391 E.00908
M204 S1000
G1 X40.726 Y101.391 F10800
G1 X40.945 Y101.082
M204 S800
G1 F1200
G1 X40.809 Y100.949 E.00596
G1 X40.606 Y100.549 E.01406
G1 X40.547 Y100.159 E.01237
G1 X40.547 Y95.716 E.13931
G1 X40.602 Y95.339 E.01195
G1 X40.653 Y95.199 E.00467
G1 X40.879 Y94.841 E.01327
G1 X41.175 Y94.593 E.01211
G1 X41.492 Y94.451 E.01089
G1 X41.867 Y94.397 E.01188
G1 X46.309 Y94.397 E.13928
G1 X46.58 Y94.425 E.00854
G1 X46.946 Y94.56 E.01223
G1 X47.334 Y94.884 E.01585
G1 X47.572 Y95.331 E.01588
G1 X47.629 Y95.716 E.0122
G1 X47.629 Y100.159 E.13931
G1 X47.571 Y100.549 E.01236
G1 X47.382 Y100.928 E.01328
G1 X47.09 Y101.224 E.01304
G1 X46.73 Y101.41 E.01271
G1 X46.309 Y101.479 E.01338
G1 X41.867 Y101.479 E.13928
G1 X41.455 Y101.413 E.01308
G1 X41.097 Y101.232 E.01258
G1 X40.988 Y101.124 E.00481
M204 S1000
G1 X40.988 Y101.124 F10800
G1 X41.193 Y100.811
M204 S800
G1 F1200
G1 X41.004 Y100.541 E.01033
G1 X40.926 Y100.216 E.01048
G1 X40.924 Y95.716 E.14109
G1 X40.999 Y95.347 E.01181
G1 X41.194 Y95.056 E.01098
G1 X41.471 Y94.861 E.01062
G1 X41.766 Y94.779 E.0096
G1 X41.867 Y94.774 E.00317
G1 X46.309 Y94.774 E.13928
G1 X46.503 Y94.794 E.00611
G1 X46.764 Y94.89 E.00872
G1 X47.041 Y95.122 E.01133
G1 X47.211 Y95.441 E.01133
G1 X47.252 Y95.716 E.00872
G1 X47.252 Y100.159 E.13931
G1 X47.186 Y100.508 E.01114
G1 X46.998 Y100.803 E.01097
G1 X46.72 Y101.008 E.01083
G1 X46.309 Y101.102 E.01322
G1 X41.867 Y101.102 E.13928
G1 X41.501 Y101.028 E.01171
G1 X41.235 Y100.852 E.01
M204 S1000
G1 X41.235 Y100.852 F10800
G1 X41.481 Y100.55
M204 S800
G1 F1200
G1 X41.395 Y100.472 E.00364
G1 X41.305 Y100.227 E.00818
G1 X41.301 Y100.159 E.00214
G1 X41.301 Y95.716 E.13931
G1 X41.346 Y95.494 E.0071
G1 X41.504 Y95.283 E.00826
G1 X41.753 Y95.162 E.00868
G1 X41.867 Y95.151 E.00359
G1 X46.309 Y95.151 E.13928
G1 X46.582 Y95.221 E.00884
G1 X46.778 Y95.399 E.0083
G1 X46.875 Y95.716 E.01039
G1 X46.875 Y100.159 E.13931
G1 X46.802 Y100.437 E.00901
G1 X46.602 Y100.644 E.00902
G1 X46.309 Y100.725 E.00953
G1 X41.867 Y100.725 E.13928
G1 X41.603 Y100.66 E.00852
G1 X41.526 Y100.59 E.00326
M204 S1000
G1 X41.764 Y100.3 F10800
M204 S800
;TYPE:External perimeter
G1 F1200
G1 X41.722 Y100.28 E.00146
G1 X41.678 Y100.159 E.00404
G1 X41.678 Y95.716 E.13931
G1 X41.693 Y95.642 E.00237
G1 X41.813 Y95.536 E.00502
G1 X41.867 Y95.528 E.00171
G1 X46.309 Y95.528 E.13928
G1 X46.456 Y95.598 E.0051
G1 X46.498 Y95.716 E.00393
G1 X46.498 Y100.159 E.13931
G1 X46.43 Y100.305 E.00505
G1 X46.309 Y100.348 E.00403
G1 X41.867 Y100.348 E.13928
G1 X41.819 Y100.325 E.00167
M204 S1000
;WIPE_START
G1 F8640
G1 X41.764 Y100.3 E-.01395
G1 X41.722 Y100.28 E-.01074
G1 X41.678 Y100.159 E-.02973
G1 X41.678 Y96.064 E-.94558
;WIPE_END
G1 Z.4 F720
G1 X223.102 Y71.333 F10800
G1 Z.2 F720
G1 E1 F2100
M204 S800
;TYPE:Perimeter
;WIDTH:0.487722
G1 F1200
G1 X222.843 Y71.334 E.00958
;WIDTH:0.445134
G1 X222.583 Y71.335 E.0087
;WIDTH:0.40296
G1 X222.386 Y71.333 E.0059
M204 S1000
;WIPE_START
G1 F8640
G1 X222.583 Y71.335 E-.04549
G1 X222.843 Y71.334 E-.06004
G1 X223.102 Y71.333 E-.0598
;WIPE_END
G1 E-.83467 F2100
G1 Z.4 F720
G1 X222.677 Y62.66 F10800
G1 Z.2 F720
G1 E1 F2100
M204 S800
;WIDTH:0.653846
G1 F1200
G1 X222.31 Y62.657 E.01864
M204 S1000
;WIPE_START
G1 F8640
G1 X222.677 Y62.66 E-.08474
;WIPE_END
G1 E-.91526 F2100
G1 Z.4 F720
G1 X222.31 Y80.008 F10800
G1 Z.2 F720
G1 E1 F2100
M204 S800
;WIDTH:0.651324
G1 F1200
G1 X222.642 Y80.011 E.0168
M204 S1000
G1 X222.642 Y80.011 F10800
G1 X221.691 Y79.824
M204 S800
;WIDTH:0.419999
G1 F1200
G1 X221.139 Y79.69 E.01781
G1 X220.768 Y79.563 E.0123
G1 X220.298 Y79.345 E.01624
G1 X219.844 Y79.058 E.01684
G1 X219.391 Y78.709 E.01793
G1 X219.024 Y78.343 E.01625
G1 X218.537 Y77.692 E.02549
G1 X218.243 Y77.123 E.02008
G1 X218.069 Y76.688 E.01469
G1 X217.927 Y76.156 E.01726
G1 X217.855 Y75.572 E.01845
G1 X217.838 Y75.085 E.01528
G1 X217.884 Y74.569 E.01624
G1 X218.069 Y73.777 E.0255
G1 X218.389 Y73.029 E.02551
G1 X218.834 Y72.349 E.02548
G1 X219.391 Y71.756 E.02551
G1 X219.95 Y71.333 E.02198
G1 X219.492 Y71.002 E.01772
G1 X219.024 Y70.543 E.02055
G1 X218.537 Y69.892 E.02549
G1 X218.184 Y69.197 E.02444
G1 X217.94 Y68.405 E.02598
G1 X217.838 Y67.58 E.02606
G1 X217.884 Y66.769 E.02547
G1 X218.069 Y65.977 E.0255
G1 X218.389 Y65.229 E.02551
G1 X218.834 Y64.549 E.02548
G1 X219.391 Y63.956 E.02551
G1 X219.844 Y63.607 E.01793
G1 X220.298 Y63.321 E.01682
G1 X220.768 Y63.102 E.01626
G1 X221.546 Y62.866 E.02549
;WIDTH:0.459688
G1 X221.707 Y62.826 E.00575
;WIDTH:0.499376
G1 X221.867 Y62.785 E.00627
;WIDTH:0.539064
G1 X222.028 Y62.745 E.00684
;WIDTH:0.578752
G1 X222.188 Y62.705 E.00735
;WIDTH:0.615193
G1 X222.249 Y62.681 E.00312
;WIDTH:0.651634
G1 X222.31 Y62.657 E.00332
G1 X222.205 Y62.616 E.00571
;WIDTH:0.605307
G1 X222.101 Y62.575 E.00523
;WIDTH:0.55898
G1 X221.997 Y62.534 E.0048
;WIDTH:0.512653
G1 X221.893 Y62.493 E.00437
;WIDTH:0.466326
G1 X221.788 Y62.452 E.00397
;WIDTH:0.419999
G1 X221.235 Y62.251 E.01845
G1 X220.829 Y62.016 E.01471
G1 X220.416 Y61.66 E.0171
G1 X220.058 Y61.225 E.01766
G1 X219.818 Y60.742 E.01691
G1 X219.648 Y60.244 E.0165
G1 X219.601 Y59.765 E.01509
G1 X219.608 Y59.26 E.01584
G1 X219.703 Y58.84 E.0135
G1 X219.894 Y58.327 E.01716
G1 X220.143 Y57.931 E.01467
G1 X220.591 Y57.425 E.02119
G1 X221.235 Y57.014 E.02395
G1 X221.775 Y56.815 E.01804
G1 X222.329 Y56.722 E.01761
G1 X222.816 Y56.751 E.0153
G1 X223.518 Y56.896 E.02248
G1 X224.135 Y57.227 E.02195
G1 X224.411 Y57.425 E.01065
G1 X224.86 Y57.931 E.02121
G1 X225.026 Y58.167 E.00905
G1 X225.299 Y58.84 E.02277
G1 X225.376 Y59.123 E.0092
G1 X225.402 Y59.845 E.02265
G1 X225.376 Y60.142 E.00935
G1 X225.154 Y60.824 E.02249
G1 X224.944 Y61.225 E.01419
G1 X224.587 Y61.66 E.01764
G1 X224.173 Y62.016 E.01712
G1 X223.444 Y62.395 E.02576
G1 X223.13 Y62.467 E.0101
;WIDTH:0.466769
G1 X223.04 Y62.506 E.00346
;WIDTH:0.513538
G1 X222.949 Y62.544 E.00386
;WIDTH:0.560308
G1 X222.858 Y62.583 E.00426
;WIDTH:0.607077
G1 X222.768 Y62.621 E.00458
;WIDTH:0.653846
G1 X222.677 Y62.66 E.00503
G1 X222.786 Y62.692 E.00577
;WIDTH:0.607077
G1 X222.896 Y62.725 E.00539
;WIDTH:0.560308
G1 X223.005 Y62.757 E.00489
;WIDTH:0.513538
G1 X223.114 Y62.789 E.00445
;WIDTH:0.466769
G1 X223.224 Y62.821 E.00404
;WIDTH:0.419999
G1 X223.863 Y62.975 E.02061
G1 X224.235 Y63.102 E.01232
G1 X224.704 Y63.321 E.01623
G1 X225.159 Y63.607 E.01685
G1 X225.591 Y63.936 E.01703
G1 X225.978 Y64.322 E.01714
G1 X226.465 Y64.973 E.02549
G1 X226.832 Y65.699 E.02551
G1 X227.067 Y66.477 E.02548
G1 X227.164 Y67.285 E.02552
G1 X227.119 Y68.097 E.0255
G1 X226.933 Y68.888 E.02548
G1 X226.613 Y69.636 E.02551
G1 X226.257 Y70.189 E.02062
G1 X225.978 Y70.543 E.01413
G1 X225.612 Y70.909 E.01623
G1 X225.052 Y71.333 E.02202
G1 X225.511 Y71.663 E.01773
G1 X225.978 Y72.122 E.02053
G1 X226.465 Y72.773 E.02549
G1 X226.832 Y73.499 E.02551
G1 X227.067 Y74.277 E.02548
G1 X227.164 Y75.085 E.02552
G1 X227.119 Y75.897 E.0255
G1 X226.933 Y76.688 E.02548
G1 X226.613 Y77.436 E.02551
G1 X226.168 Y78.116 E.02548
G1 X225.612 Y78.709 E.02549
G1 X225.159 Y79.058 E.01793
G1 X224.704 Y79.345 E.01687
G1 X224.235 Y79.563 E.01622
G1 X223.457 Y79.799 E.02549
;WIDTH:0.462112
G1 X223.278 Y79.842 E.00642
;WIDTH:0.504225
G1 X223.1 Y79.885 E.00702
;WIDTH:0.546338
G1 X222.922 Y79.928 E.00767
;WIDTH:0.58845
G1 X222.743 Y79.972 E.00836
;WIDTH:0.613515
G1 X222.701 Y79.995 E.00227
;WIDTH:0.638579
G1 X222.658 Y80.017 E.00239
G1 X222.757 Y80.055 E.00525
;WIDTH:0.594863
G1 X222.856 Y80.092 E.00485
;WIDTH:0.551147
G1 X222.955 Y80.129 E.00447
;WIDTH:0.507431
G1 X223.054 Y80.166 E.00408
;WIDTH:0.463715
G1 X223.153 Y80.203 E.0037
;WIDTH:0.419999
