; generated by PrusaSlicer 2.8.0+win64 on 2024-12-10 at 17:34:04 UTC


;
;
; 

; external perimeters extrusion width = 0.60mm
; perimeters extrusion width = 0.50mm
; infill extrusion width = 0.50mm
; solid infill extrusion width = 0.50mm
; top infill extrusion width = 0.45mm
; first layer extrusion width = 0.42mm

M73 P0 R84
M73 Q0 S85
M201 X1000 Y1000 Z200 E5000 ; sets maximum accelerations, mm/sec^2
M203 X200 Y200 Z12 E120 ; sets maximum feedrates, mm / sec
M204 S1250 T1250 ; sets acceleration (S) and retract acceleration (R), mm/sec^2
M205 X8.00 Y8.00 Z0.40 E4.50 ; sets the jerk limits, mm/sec
M205 S0 T0 ; sets the minimum extruding and travel feed rate, mm/sec

; printing object lowered_top.stl id:0 copy 0
; stop printing object lowered_top.stl id:0 copy 0

;TYPE:Custom
M862.3 P "MK3S" ; printer model check
M862.1 P0.4 ; nozzle diameter check
M115 U3.13.3 ; tell printer latest fw version
G90 ; use absolute coordinates
M83 ; extruder relative mode
M104 S230 ; set extruder temp
M140 S85 ; set bed temp
M190 S85 ; wait for bed temp
M109 S230 ; wait for extruder temp
G28 W ; home all without mesh bed level
G80 X63.5729 Y15.7191 W159.956 H80.2855 ; mesh bed levelling

G1 Z0.2 F720
G1 Y-3 F1000 ; go outside print area
G92 E0
G1 X60 E9 F1000 ; intro line
G1 X100 E12.5 F1000 ; intro line

G92 E0
M221 S95

; Don't change E values below. Excessive value can damage the printer.

M907 E538 ; set extruder motor current
G21 ; set units to millimeters
G90 ; use absolute coordinates
M83 ; use relative distances for extrusion

M900 K0.08 ; Filament gcode LA 1.5
M900 K45 ; Filament gcode LA 1.0




M107
;LAYER_CHANGE
;Z:0.2
;HEIGHT:0.2
G1 E-1 F2100
M73 Q0 S84
G1 Z.4 F720
; printing object lowered_top.stl id:0 copy 0
G1 X170.332 Y85.305 F10800
G1 Z.2 F720
G1 E1 F2100
M204 S800
;TYPE:Perimeter
;WIDTH:0.419999
G1 F1200
G1 X170.104 Y85.525 E.00993
G1 X169.696 Y85.728 E.01429
G1 X169.15 Y85.819 E.01736
G1 X153.007 Y85.819 E.50615
G1 X152.728 Y85.796 E.00878
G1 X152.306 Y85.667 E.01384
G1 X151.867 Y85.379 E.01646
G1 X151.64 Y85.127 E.01063
G1 X151.414 Y84.707 E.01495
;WIDTH:0.445256
G1 X151.353 Y84.49 E.00754
;WIDTH:0.470512
G1 X151.292 Y84.272 E.00805
G1 X151.289 Y84.122 E.00533
;WIDTH:0.463145
G1 X151.289 Y72.679 E.39984
G1 X151.489 Y71.92 E.02743
;WIDTH:0.419999
G1 X151.807 Y71.479 E.01705
G1 X152.333 Y71.122 E.01993
G1 X152.714 Y71.008 E.01247
G1 X153.007 Y70.982 E.00922
G1 X169.15 Y70.982 E.50615
G1 X169.582 Y71.038 E.01366
G1 X169.94 Y71.177 E.01204
G1 X170.345 Y71.474 E.01575
G1 X170.55 Y71.72 E.01004
G1 X170.716 Y72.026 E.01092
;WIDTH:0.463145
G1 X170.868 Y72.679 E.02343
G1 X170.868 Y84.122 E.39984
;WIDTH:0.470511
G1 X170.866 Y84.272 E.00533
G1 X170.804 Y84.49 E.00806
;WIDTH:0.445255
G1 X170.743 Y84.707 E.00754
;WIDTH:0.419999
G1 X170.517 Y85.127 E.01495
G1 X170.375 Y85.264 E.00619
M204 S1000
G1 X170.375 Y85.264 F10800
G1 X170.069 Y85.043
M204 S800
G1 F1200
G1 X169.892 Y85.213 E.00769
G1 X169.575 Y85.371 E.01111
G1 X169.15 Y85.442 E.01351
G1 X153.007 Y85.442 E.50615
G1 X152.79 Y85.424 E.00683
G1 X152.376 Y85.281 E.01373
G1 X152.121 Y85.099 E.00982
G1 X151.944 Y84.904 E.00826
G1 X151.768 Y84.577 E.01164
G1 X151.687 Y84.122 E.01449
G1 X151.687 Y72.679 E.35879
G1 X151.827 Y72.088 E.01904
G1 X152.074 Y71.745 E.01325
G1 X152.483 Y71.468 E.01549
G1 X152.779 Y71.379 E.00969
G1 X153.007 Y71.359 E.00718
G1 X169.15 Y71.359 E.50615
G1 X169.486 Y71.403 E.01062
G1 X169.765 Y71.511 E.00938
G1 X170.079 Y71.742 E.01222
G1 X170.239 Y71.933 E.00781
G1 X170.368 Y72.171 E.00849
G1 X170.442 Y72.41 E.00784
G1 X170.47 Y72.679 E.00848
G1 X170.47 Y84.122 E.35879
G1 X170.389 Y84.577 E.01449
G1 X170.213 Y84.904 E.01164
G1 X170.112 Y85.001 E.00439
M204 S1000
G1 X170.112 Y85.001 F10800
G1 X169.806 Y84.78
M204 S800
G1 F1200
G1 X169.68 Y84.901 E.00548
G1 X169.453 Y85.014 E.00795
G1 X169.15 Y85.064 E.00963
G1 X153.007 Y85.064 E.50615
G1 X152.852 Y85.052 E.00487
G1 X152.557 Y84.95 E.00979
G1 X152.374 Y84.82 E.00704
G1 X152.248 Y84.68 E.00591
G1 X152.122 Y84.447 E.00831
G1 X152.064 Y84.122 E.01035
G1 X152.064 Y72.679 E.35879
G1 X152.164 Y72.257 E.0136
G1 X152.341 Y72.012 E.00948
G1 X152.633 Y71.814 E.01106
G1 X153.007 Y71.736 E.01198
G1 X169.15 Y71.736 E.50615
G1 X169.39 Y71.767 E.00759
G1 X169.589 Y71.845 E.0067
G1 X169.814 Y72.009 E.00873
G1 X170.02 Y72.316 E.01159
G1 X170.093 Y72.679 E.01161
G1 X170.093 Y84.122 E.35879
G1 X170.035 Y84.447 E.01035
G1 X169.91 Y84.68 E.00829
G1 X169.849 Y84.738 E.00264
M204 S1000
G1 X169.849 Y84.738 F10800
G1 X169.555 Y84.504
M204 S800
G1 F1200
G1 X169.53 Y84.541 E.0014
G1 X169.332 Y84.657 E.0072
G1 X169.15 Y84.687 E.00578
G1 X152.914 Y84.68 E.50907
G1 X152.689 Y84.589 E.00761
G1 X152.551 Y84.457 E.00599
G1 X152.444 Y84.171 E.00957
G1 X152.441 Y84.122 E.00154
G1 X152.441 Y72.679 E.35879
G1 X152.501 Y72.426 E.00815
G1 X152.607 Y72.279 E.00568
G1 X152.909 Y72.122 E.01067
G1 X153.007 Y72.113 E.00309
G1 X169.15 Y72.113 E.50615
G1 X169.413 Y72.178 E.00849
G1 X169.617 Y72.359 E.00855
G1 X169.704 Y72.563 E.00695
G1 X169.716 Y72.679 E.00366
G1 X169.716 Y84.122 E.35879
G1 X169.681 Y84.317 E.00621
G1 X169.588 Y84.454 E.00519
M204 S1000
G1 X169.588 Y84.454 F10800
G1 X169.293 Y84.223
M204 S800
;TYPE:External perimeter
G1 F1200
G1 X169.277 Y84.261 E.00129
G1 X169.15 Y84.31 E.00427
G1 X152.976 Y84.308 E.50712
G1 X152.855 Y84.233 E.00446
M73 P0 R83
G1 X152.819 Y84.122 E.00366
G1 X152.819 Y72.679 E.35879
G1 X152.874 Y72.546 E.00451
G1 X153.007 Y72.49 E.00452
G1 X169.15 Y72.49 E.50615
G1 X169.283 Y72.545 E.00451
G1 X169.339 Y72.679 E.00455
G1 X169.339 Y84.122 E.35879
G1 X169.318 Y84.169 E.00161
M204 S1000
;WIPE_START
G1 F8640
G1 X169.293 Y84.223 E-.01374
G1 X169.277 Y84.261 E-.00952
G1 X169.15 Y84.31 E-.03143
G1 X165.056 Y84.309 E-.94531
;WIPE_END
G1 Z.4 F720
G1 X190.332 Y85.305 F10800
G1 Z.2 F720
G1 E1 F2100
M204 S800
;TYPE:Perimeter
G1 F1200
G1 X190.104 Y85.525 E.00993
G1 X189.696 Y85.728 E.01429
G1 X189.15 Y85.819 E.01736
G1 X173.007 Y85.819 E.50615
G1 X172.461 Y85.728 E.01736
G1 X172.053 Y85.525 E.01429
G1 X171.64 Y85.127 E.01798
G1 X171.414 Y84.707 E.01495
;WIDTH:0.445255
G1 X171.353 Y84.49 E.00754
;WIDTH:0.470511
G1 X171.292 Y84.272 E.00805
G1 X171.289 Y84.122 E.00533
;WIDTH:0.463145
G1 X171.289 Y72.679 E.39984
G1 X171.441 Y72.026 E.02343
;WIDTH:0.419999
G1 X171.532 Y71.875 E.00553
G1 X171.441 Y71.724 E.00553
G1 X171.341 Y71.391 E.0109
G1 X171.31 Y70.35 E.03265
G1 X171.31 Y68.798 E.04866
;WIDTH:0.463145
G1 X171.289 Y68.022 E.02712
G1 X171.289 Y62.629 E.18844
G1 X171.441 Y61.976 E.02343
;WIDTH:0.419999
G1 X171.778 Y61.459 E.01935
G1 X172.209 Y61.132 E.01696
G1 X172.635 Y60.973 E.01426
G1 X173.007 Y60.932 E.01173
G1 X189.15 Y60.932 E.50615
G1 X189.488 Y60.966 E.01065
G1 X189.913 Y61.113 E.0141
G1 X190.24 Y61.329 E.01229
G1 X190.478 Y61.573 E.01069
G1 X190.727 Y62.002 E.01555
;WIDTH:0.463138
G1 X190.868 Y62.629 E.02246
G1 X190.868 Y71.072 E.29501
G1 X190.822 Y71.42 E.01227
;WIDTH:0.441079
G1 X190.625 Y71.875 E.01642
;WIDTH:0.419999
G1 X190.716 Y72.026 E.00553
;WIDTH:0.463138
G1 X190.868 Y72.679 E.02343
G1 X190.868 Y84.122 E.39983
;WIDTH:0.470504
G1 X190.866 Y84.272 E.00533
G1 X190.804 Y84.49 E.00806
;WIDTH:0.445252
G1 X190.743 Y84.707 E.00754
;WIDTH:0.419999
G1 X190.517 Y85.127 E.01495
G1 X190.375 Y85.264 E.00619
M204 S1000
G1 X190.375 Y85.264 F10800
G1 X190.069 Y85.043
M204 S800
G1 F1200
G1 X189.892 Y85.213 E.00769
G1 X189.575 Y85.371 E.01111
G1 X189.15 Y85.442 E.01351
G1 X173.007 Y85.442 E.50615
G1 X172.582 Y85.371 E.01351
G1 X172.265 Y85.213 E.01111
G1 X171.944 Y84.904 E.01397
G1 X171.768 Y84.577 E.01164
G1 X171.687 Y84.122 E.01449
G1 X171.687 Y72.679 E.35879
G1 X171.715 Y72.41 E.00848
G1 X171.789 Y72.171 E.00784
G1 X171.968 Y71.875 E.01085
G1 X171.789 Y71.579 E.01085
G1 X171.711 Y71.32 E.00848
G1 X171.687 Y70.35 E.03042
G1 X171.687 Y62.629 E.24209
G1 X171.789 Y62.121 E.01625
G1 X172.051 Y61.719 E.01505
G1 X172.386 Y61.464 E.0132
G1 X172.717 Y61.341 E.01107
G1 X173.944 Y61.309 E.03848
G1 X189.15 Y61.309 E.47677
G1 X189.413 Y61.336 E.00829
G1 X189.853 Y61.512 E.01486
G1 X190.183 Y61.808 E.0139
G1 X190.376 Y62.141 E.01207
G1 X190.47 Y62.629 E.01558
G1 X190.47 Y71.072 E.26472
G1 X190.442 Y71.341 E.00848
G1 X190.368 Y71.579 E.00781
G1 X190.189 Y71.875 E.01085
G1 X190.368 Y72.171 E.01085
G1 X190.442 Y72.41 E.00784
G1 X190.47 Y72.679 E.00848
G1 X190.47 Y84.122 E.35879
G1 X190.389 Y84.577 E.01449
G1 X190.213 Y84.904 E.01164
G1 X190.112 Y85.001 E.00439
M204 S1000
G1 X190.112 Y85.001 F10800
G1 X189.806 Y84.78
M204 S800
G1 F1200
G1 X189.68 Y84.901 E.00548
G1 X189.454 Y85.014 E.00792
G1 X189.15 Y85.064 E.00966
G1 X173.007 Y85.064 E.50615
G1 X172.666 Y85 E.01088
G1 X172.374 Y84.82 E.01076
G1 X172.248 Y84.68 E.00591
G1 X172.122 Y84.447 E.00831
G1 X172.064 Y84.122 E.01035
G1 X172.064 Y72.679 E.35879
G1 X172.137 Y72.316 E.01161
G1 X172.283 Y72.075 E.00883
G1 X172.666 Y71.875 E.01355
G1 X172.283 Y71.675 E.01355
G1 X172.137 Y71.434 E.00883
G1 X172.064 Y71.072 E.01158
G1 X172.064 Y62.629 E.26472
G1 X172.137 Y62.266 E.01161
G1 X172.324 Y61.979 E.01074
G1 X172.563 Y61.797 E.00942
G1 X172.8 Y61.709 E.00793
G1 X173.944 Y61.686 E.03588
G1 X189.15 Y61.686 E.47677
G1 X189.514 Y61.759 E.01164
G1 X189.756 Y61.906 E.00888
G1 X189.888 Y62.042 E.00594
G1 X190.026 Y62.281 E.00865
G1 X190.093 Y62.629 E.01111
G1 X190.093 Y71.072 E.26472
G1 X190.02 Y71.434 E.01158
G1 X189.874 Y71.675 E.00883
G1 X189.447 Y71.875 E.01478
G1 X189.874 Y72.075 E.01478
G1 X190.02 Y72.316 E.00883
G1 X190.093 Y72.679 E.01161
G1 X190.093 Y84.122 E.35879
G1 X190.035 Y84.447 E.01035
G1 X189.91 Y84.68 E.00829
G1 X189.849 Y84.738 E.00264
M204 S1000
G1 X189.849 Y84.738 F10800
G1 X189.555 Y84.504
M204 S800
G1 F1200
G1 X189.53 Y84.541 E.0014
G1 X189.332 Y84.657 E.0072
G1 X189.15 Y84.687 E.00578
G1 X173.007 Y84.687 E.50615
G1 X172.737 Y84.619 E.00873
G1 X172.551 Y84.457 E.00773
G1 X172.444 Y84.171 E.00957
G1 X172.441 Y84.122 E.00154
G1 X172.441 Y72.679 E.35879
G1 X172.485 Y72.461 E.00697
G1 X172.573 Y72.317 E.00529
;WIDTH:0.469378
G1 X173.007 Y72.089 E.01738
G1 X189.15 Y72.089 E.57243
G1 X189.585 Y72.317 E.01742
;WIDTH:0.419999
G1 X189.704 Y72.563 E.00857
G1 X189.716 Y72.679 E.00366
G1 X189.716 Y84.122 E.35879
G1 X189.681 Y84.317 E.00621
G1 X189.588 Y84.454 E.00519
M204 S1000
G1 X189.588 Y84.454 F10800
G1 X189.293 Y84.223
M204 S800
;TYPE:External perimeter
G1 F1200
G1 X189.277 Y84.261 E.00129
G1 X189.15 Y84.31 E.00427
G1 X173.007 Y84.31 E.50615
G1 X172.88 Y84.261 E.00427
G1 X172.819 Y84.122 E.00476
G1 X172.819 Y72.679 E.35879
G1 X172.862 Y72.558 E.00403
G1 X173.007 Y72.49 E.00502
G1 X189.15 Y72.49 E.50615
G1 X189.324 Y72.606 E.00656
G1 X189.339 Y72.679 E.00234
G1 X189.339 Y84.122 E.35879
G1 X189.318 Y84.169 E.00161
M204 S1000
;WIPE_START
G1 F8640
G1 X189.293 Y84.223 E-.01374
G1 X189.277 Y84.261 E-.00952
G1 X189.15 Y84.31 E-.03143
G1 X185.056 Y84.31 E-.94531
;WIPE_END
G1 Z.4 F720
G1 X172.635 Y71.471 F10800
G1 Z.2 F720
G1 E1 F2100
M204 S800
;TYPE:Perimeter
;WIDTH:0.446224
G1 F1200
G1 X172.573 Y71.434 E.00242
;WIDTH:0.419999
G1 X172.452 Y71.178 E.00888
G1 X172.441 Y62.629 E.26805
G1 X172.485 Y62.411 E.00697
G1 X172.597 Y62.239 E.00644
G1 X172.883 Y62.077 E.01031
G1 X173.944 Y62.063 E.03327
G1 X189.15 Y62.063 E.47677
G1 X189.404 Y62.124 E.00819
G1 X189.593 Y62.277 E.00762
G1 X189.676 Y62.42 E.00518
G1 X189.716 Y62.629 E.00667
G1 X189.716 Y71.072 E.26472
G1 X189.672 Y71.289 E.00694
G1 X189.585 Y71.434 E.0053
;WIDTH:0.469378
G1 X189.15 Y71.662 E.01742
G1 X173.007 Y71.662 E.57243
;WIDTH:0.472448
G1 X172.955 Y71.661 E.00186
G1 X172.764 Y71.548 E.00793
;WIDTH:0.446224
G1 X172.687 Y71.502 E.00301
M204 S1000
G1 X172.901 Y71.194 F10800
M204 S800
;TYPE:External perimeter
;WIDTH:0.419999
G1 F1200
G1 X172.833 Y71.144 E.00265
G1 X172.819 Y70.35 E.0249
G1 X172.819 Y62.629 E.24209
G1 X172.871 Y62.499 E.00439
G1 X173.007 Y62.44 E.00465
G1 X189.15 Y62.44 E.50615
G1 X189.298 Y62.512 E.00516
G1 X189.339 Y62.629 E.00389
G1 X189.339 Y71.072 E.26472
G1 X189.295 Y71.192 E.00401
G1 X189.15 Y71.26 E.00502
G1 X172.991 Y71.26 E.50665
G1 X172.949 Y71.229 E.00164
M204 S1000
;WIPE_START
G1 F8640
G1 X172.901 Y71.194 E-.01372
G1 X172.833 Y71.144 E-.01949
G1 X172.819 Y70.35 E-.18337
G1 X172.819 Y66.957 E-.78342
;WIPE_END
G1 Z.4 F720
G1 X209.552 Y71.461 F10800
G1 Z.2 F720
G1 E1 F2100
M204 S800
;TYPE:Perimeter
G1 F1200
G1 X209.523 Y71.497 E.00145
;WIDTH:0.469378
G1 X209.15 Y71.662 E.01446
G1 X193.007 Y71.662 E.57243
G1 X192.573 Y71.434 E.01738
;WIDTH:0.419999
G1 X192.453 Y71.187 E.00861
G1 X192.441 Y71.072 E.00363
G1 X192.441 Y62.629 E.26472
G1 X192.481 Y62.42 E.00667
G1 X192.644 Y62.195 E.00871
G1 X192.909 Y62.072 E.00916
G1 X193.007 Y62.063 E.00309
G1 X209.15 Y62.063 E.50615
G1 X209.426 Y62.135 E.00894
G1 X209.627 Y62.325 E.00867
G1 X209.713 Y62.577 E.00835
G1 X209.716 Y71.072 E.26635
G1 X209.642 Y71.352 E.00908
M73 P1 R83
M73 Q1 S84
G1 X209.59 Y71.415 E.00256
M204 S1000
G1 X209.292 Y71.174 F10800
M204 S800
;TYPE:External perimeter
G1 F1200
G1 X209.274 Y71.213 E.00135
G1 X209.15 Y71.26 E.00416
G1 X193.007 Y71.26 E.50615
G1 X192.862 Y71.192 E.00502
G1 X192.819 Y71.072 E.004
G1 X192.819 Y62.629 E.26472
G1 X192.886 Y62.484 E.00501
G1 X193.007 Y62.44 E.00404
G1 X209.15 Y62.44 E.50615
G1 X209.288 Y62.5 E.00472
G1 X209.339 Y62.629 E.00435
G1 X209.339 Y71.072 E.26472
G1 X209.317 Y71.119 E.00163
M204 S1000
;WIPE_START
G1 F8640
G1 X209.292 Y71.174 E-.01395
G1 X209.274 Y71.213 E-.00992
G1 X209.15 Y71.26 E-.03062
G1 X205.055 Y71.26 E-.94551
;WIPE_END
G1 Z.4 F720
G1 X210.351 Y85.31 F10800
G1 Z.2 F720
G1 E1 F2100
M204 S800
;TYPE:Perimeter
G1 F1200
G1 X210.314 Y85.356 E.00185
G1 X209.99 Y85.596 E.01264
G1 X209.592 Y85.76 E.0135
G1 X209.15 Y85.819 E.01398
G1 X193.007 Y85.819 E.50615
G1 X192.461 Y85.728 E.01736
G1 X192.053 Y85.525 E.01429
G1 X191.64 Y85.127 E.01798
G1 X191.414 Y84.707 E.01495
;WIDTH:0.445252
G1 X191.353 Y84.49 E.00754
;WIDTH:0.470504
G1 X191.292 Y84.272 E.00805
G1 X191.289 Y84.122 E.00533
;WIDTH:0.463138
G1 X191.289 Y72.679 E.39983
G1 X191.441 Y72.026 E.02343
;WIDTH:0.419999
G1 X191.532 Y71.875 E.00553
;WIDTH:0.441079
G1 X191.336 Y71.42 E.0164
;WIDTH:0.463138
G1 X191.289 Y71.072 E.01227
G1 X191.289 Y62.629 E.29501
G1 X191.43 Y62.002 E.02246
;WIDTH:0.419999
G1 X191.679 Y61.573 E.01555
G1 X192.104 Y61.192 E.0179
G1 X192.351 Y61.064 E.00872
G1 X192.714 Y60.958 E.01186
G1 X193.007 Y60.932 E.00922
G1 X209.15 Y60.932 E.50615
G1 X209.598 Y60.992 E.01417
G1 X209.977 Y61.147 E.01284
G1 X210.388 Y61.468 E.01635
G1 X210.656 Y61.846 E.01453
G1 X210.799 Y62.23 E.01285
G1 X210.847 Y62.629 E.0126
G1 X210.847 Y71.072 E.26472
G1 X210.782 Y71.536 E.01469
G1 X210.642 Y71.875 E.0115
G1 X210.804 Y72.302 E.01432
G1 X210.847 Y72.679 E.0119
G1 X210.847 Y84.122 E.35879
G1 X210.794 Y84.541 E.01324
G1 X210.602 Y85 E.0156
G1 X210.389 Y85.264 E.01064
M204 S1000
G1 X210.389 Y85.264 F10800
G1 X210.071 Y85.041
M204 S800
G1 F1200
G1 X209.937 Y85.181 E.00608
G1 X209.654 Y85.341 E.01019
G1 X209.324 Y85.43 E.01072
G1 X209.15 Y85.442 E.00547
G1 X193.007 Y85.442 E.50615
G1 X192.582 Y85.371 E.01351
G1 X192.265 Y85.213 E.01111
G1 X191.944 Y84.904 E.01397
G1 X191.768 Y84.577 E.01164
G1 X191.687 Y84.122 E.01449
G1 X191.687 Y72.679 E.35879
G1 X191.715 Y72.41 E.00848
G1 X191.789 Y72.171 E.00784
G1 X191.968 Y71.875 E.01085
G1 X191.789 Y71.579 E.01085
G1 X191.692 Y71.187 E.01266
G1 X191.687 Y71.072 E.00361
G1 X191.687 Y62.629 E.26472
G1 X191.781 Y62.141 E.01558
G1 X191.974 Y61.808 E.01207
G1 X192.304 Y61.512 E.0139
G1 X192.744 Y61.336 E.01486
G1 X193.007 Y61.309 E.00829
G1 X209.15 Y61.309 E.50615
G1 X209.498 Y61.356 E.01101
G1 X209.912 Y61.551 E.01435
G1 X210.194 Y61.822 E.01226
G1 X210.405 Y62.22 E.01412
G1 X210.47 Y62.629 E.01298
G1 X210.47 Y71.072 E.26472
G1 X210.419 Y71.433 E.01143
G1 X210.297 Y71.725 E.00992
G1 X210.174 Y71.875 E.00608
G1 X210.384 Y72.21 E.0124
G1 X210.461 Y72.53 E.01032
G1 X210.47 Y72.679 E.00468
G1 X210.47 Y84.122 E.35879
G1 X210.429 Y84.448 E.0103
G1 X210.242 Y84.864 E.0143
G1 X210.113 Y84.998 E.00583
M204 S1000
G1 X210.113 Y84.998 F10800
G1 X209.803 Y84.786
M204 S800
G1 F1200
G1 X209.616 Y84.941 E.00762
G1 X209.274 Y85.056 E.01131
