; generated by PrusaSlicer 2.8.0+win64 on 2024-12-10 at 17:36:32 UTC


;
;
; 

; external perimeters extrusion width = 0.60mm
; perimeters extrusion width = 0.50mm
; infill extrusion width = 0.50mm
; solid infill extrusion width = 0.50mm
; top infill extrusion width = 0.45mm
; first layer extrusion width = 0.42mm

M73 P0 R172
M73 Q0 S173
M201 X1000 Y1000 Z200 E5000 ; sets maximum accelerations, mm/sec^2
M203 X200 Y200 Z12 E120 ; sets maximum feedrates, mm / sec
M204 S1250 T1250 ; sets acceleration (S) and retract acceleration (R), mm/sec^2
M205 X8.00 Y8.00 Z0.40 E4.50 ; sets the jerk limits, mm/sec
M205 S0 T0 ; sets the minimum extruding and travel feed rate, mm/sec

; printing object screen_case.stl id:0 copy 0
; stop printing object screen_case.stl id:0 copy 0

;TYPE:Custom
M862.3 P "MK3S" ; printer model check
M862.1 P0.4 ; nozzle diameter check
M115 U3.13.3 ; tell printer latest fw version
G90 ; use absolute coordinates
M83 ; extruder relative mode
M104 S230 ; set extruder temp
M140 S85 ; set bed temp
M190 S85 ; wait for bed temp
M109 S230 ; wait for extruder temp
G28 W ; home all without mesh bed level
G80 X24.1551 Y18.6009 W204 H115.8 ; mesh bed levelling

G1 Z0.2 F720
G1 Y-3 F1000 ; go outside print area
G92 E0
G1 X60 E9 F1000 ; intro line
G1 X100 E12.5 F1000 ; intro line

G92 E0
M221 S95

; Don't change E values below. Excessive value can damage the printer.

M907 E538 ; set extruder motor current
G21 ; set units to millimeters
G90 ; use absolute coordinates
M83 ; use relative distances for extrusion

M900 K0.08 ; Filament gcode LA 1.5
M900 K45 ; Filament gcode LA 1.0




M107
;LAYER_CHANGE
;Z:0.2
;HEIGHT:0.2
G1 E-1 F2100
G1 Z.4 F720
; printing object screen_case.stl id:0 copy 0
G1 X198.314 Y37.68 F10800
G1 Z.2 F720
G1 E1 F2100
M204 S800
;TYPE:Perimeter
;WIDTH:0.419999
G1 F1200
G1 X198.369 Y37.724 E.00221
G1 X198.617 Y38.068 E.0133
G1 X198.781 Y38.501 E.01452
G1 X198.823 Y38.879 E.01192
G1 X198.823 Y49.322 E.32743
G1 X198.767 Y49.756 E.01372
G1 X198.567 Y50.219 E.01581
G1 X198.269 Y50.577 E.0146
G1 X197.873 Y50.846 E.01501
G1 X197.436 Y50.991 E.01444
G1 X197.127 Y51.019 E.00973
G1 X180.684 Y51.019 E.51556
G1 X180.378 Y50.991 E.00963
G1 X180.031 Y50.889 E.01134
G1 X179.665 Y50.68 E.01321
G1 X179.326 Y50.341 E.01503
G1 X179.078 Y49.873 E.01661
G1 X178.987 Y49.322 E.01751
G1 X178.987 Y38.879 E.32743
G1 X179.078 Y38.329 E.01748
G1 X179.326 Y37.861 E.01661
G1 X179.665 Y37.522 E.01503
G1 X180.031 Y37.313 E.01321
G1 X180.378 Y37.21 E.01135
G1 X181.227 Y37.183 E.02663
G1 X197.127 Y37.183 E.49853
G1 X197.524 Y37.23 E.01253
G1 X198 Y37.425 E.01613
G1 X198.268 Y37.642 E.01081
M204 S1000
G1 X198.268 Y37.642 F10800
G1 X198.046 Y37.959
M204 S800
G1 F1200
G1 X198.201 Y38.113 E.00685
G1 X198.395 Y38.514 E.01397
G1 X198.446 Y38.879 E.01156
G1 X198.446 Y49.322 E.32743
G1 X198.384 Y49.724 E.01275
G1 X198.212 Y50.073 E.0122
G1 X197.929 Y50.37 E.01286
G1 X197.576 Y50.563 E.01261
G1 X197.127 Y50.642 E.01429
G1 X180.684 Y50.642 E.51556
G1 X180.446 Y50.621 E.00749
G1 X180.176 Y50.541 E.00883
G1 X179.892 Y50.378 E.01027
G1 X179.628 Y50.114 E.01171
G1 X179.435 Y49.75 E.01292
G1 X179.364 Y49.322 E.0136
G1 X179.364 Y38.879 E.32743
G1 X179.435 Y38.451 E.0136
G1 X179.628 Y38.088 E.01289
G1 X179.892 Y37.824 E.01171
G1 X180.176 Y37.661 E.01027
G1 X180.446 Y37.581 E.00883
G1 X181.227 Y37.56 E.0245
G1 X197.127 Y37.56 E.49853
G1 X197.535 Y37.624 E.01295
G1 X197.887 Y37.801 E.01235
G1 X198.004 Y37.917 E.00517
M204 S1000
G1 X198.004 Y37.917 F10800
G1 X197.797 Y38.227
M204 S800
G1 F1200
G1 X197.979 Y38.477 E.0097
G1 X198.069 Y38.879 E.01292
G1 X198.069 Y49.322 E.32743
G1 X198.009 Y49.654 E.01058
G1 X197.821 Y49.96 E.01126
G1 X197.541 Y50.169 E.01096
G1 X197.2 Y50.262 E.01108
G1 X197.127 Y50.265 E.00229
G1 X180.684 Y50.265 E.51556
G1 X180.321 Y50.193 E.0116
G1 X180.118 Y50.077 E.00733
G1 X179.929 Y49.888 E.00838
G1 X179.755 Y49.485 E.01376
G1 X179.741 Y49.322 E.00513
G1 X179.741 Y38.879 E.32743
G1 X179.792 Y38.574 E.0097
G1 X179.929 Y38.314 E.00921
G1 X180.118 Y38.125 E.00838
G1 X180.514 Y37.952 E.01355
G1 X181.227 Y37.937 E.02236
G1 X197.127 Y37.937 E.49853
G1 X197.486 Y38.008 E.01147
G1 X197.758 Y38.183 E.01014
M204 S1000
G1 X197.758 Y38.183 F10800
G1 X197.511 Y38.486
M204 S800
G1 F1200
G1 X197.587 Y38.551 E.00314
G1 X197.689 Y38.816 E.0089
G1 X197.692 Y38.879 E.00198
G1 X197.692 Y49.322 E.32743
G1 X197.621 Y49.598 E.00894
G1 X197.433 Y49.798 E.00861
G1 X197.127 Y49.888 E.01
G1 X180.684 Y49.888 E.51556
G1 X180.466 Y49.845 E.00697
G1 X180.231 Y49.662 E.00934
G1 X180.126 Y49.42 E.00827
G1 X180.118 Y49.322 E.00308
G1 X180.118 Y38.879 E.32743
G1 X180.149 Y38.696 E.00582
G1 X180.231 Y38.54 E.00553
G1 X180.466 Y38.357 E.00934
G1 X180.684 Y38.314 E.00697
G1 X197.127 Y38.314 E.51556
G1 X197.381 Y38.374 E.00818
G1 X197.466 Y38.447 E.00351
M204 S1000
G1 X197.466 Y38.447 F10800
G1 X197.229 Y38.74
M204 S800
;TYPE:External perimeter
G1 F1200
G1 X197.273 Y38.76 E.00152
G1 X197.315 Y38.879 E.00396
G1 X197.315 Y49.322 E.32743
G1 X197.247 Y49.467 E.00502
G1 X197.127 Y49.511 E.00401
G1 X180.684 Y49.511 E.51556
G1 X180.533 Y49.436 E.00529
G1 X180.495 Y49.322 E.00377
G1 X180.495 Y38.879 E.32743
G1 X180.533 Y38.766 E.00374
G1 X180.684 Y38.691 E.00529
G1 X197.127 Y38.691 E.51556
G1 X197.175 Y38.714 E.00167
M204 S1000
;WIPE_START
G1 F8640
G1 X197.229 Y38.74 E-.01384
G1 X197.273 Y38.76 E-.01116
G1 X197.315 Y38.879 E-.02914
G1 X197.315 Y42.976 E-.94586
;WIPE_END
G1 Z.4 F720
G1 X179.495 Y116.51 F10800
G1 Z.2 F720
G1 E1 F2100
M204 S800
;TYPE:Perimeter
G1 F1200
G1 X179.319 Y116.331 E.00787
G1 X179.076 Y115.867 E.01642
G1 X178.987 Y115.322 E.01731
G1 X178.987 Y104.879 E.32743
G1 X179.078 Y104.329 E.01748
G1 X179.326 Y103.861 E.01661
G1 X179.665 Y103.522 E.01503
G1 X180.031 Y103.313 E.01321
G1 X180.378 Y103.21 E.01135
G1 X180.684 Y103.183 E.00963
G1 X197.127 Y103.183 E.51556
G1 X197.594 Y103.248 E.01478
G1 X198.045 Y103.453 E.01553
G1 X198.376 Y103.731 E.01355
G1 X198.647 Y104.127 E.01505
G1 X198.798 Y104.586 E.01515
G1 X198.823 Y104.879 E.00922
G1 X198.823 Y115.322 E.32743
G1 X198.764 Y115.766 E.01404
G1 X198.563 Y116.225 E.01571
G1 X198.259 Y116.586 E.0148
G1 X198.054 Y116.743 E.0081
G1 X197.687 Y116.924 E.01283
G1 X197.271 Y117.013 E.01334
G1 X197.127 Y117.019 E.00452
G1 X180.684 Y117.019 E.51556
G1 X180.231 Y116.958 E.01433
G1 X180.014 Y116.882 E.00721
G1 X179.653 Y116.67 E.01313
G1 X179.537 Y116.553 E.00517
M204 S1000
G1 X179.537 Y116.553 F10800
G1 X179.759 Y116.246
M204 S800
G1 F1200
G1 X179.622 Y116.107 E.00612
G1 X179.434 Y115.746 E.01276
G1 X179.364 Y115.322 E.01347
G1 X179.364 Y104.879 E.32743
G1 X179.435 Y104.451 E.0136
G1 X179.628 Y104.088 E.01289
G1 X179.892 Y103.824 E.01171
G1 X180.176 Y103.661 E.01027
G1 X180.446 Y103.581 E.00883
G1 X180.684 Y103.56 E.00749
G1 X197.127 Y103.56 E.51556
G1 X197.533 Y103.624 E.01289
G1 X197.885 Y103.799 E.01233
G1 X198.176 Y104.079 E.01266
G1 X198.362 Y104.415 E.01204
G1 X198.445 Y104.811 E.01269
G1 X198.446 Y115.322 E.32956
G1 X198.38 Y115.737 E.01318
G1 X198.195 Y116.097 E.01269
G1 X197.931 Y116.369 E.01188
G1 X197.848 Y116.428 E.00319
G1 X197.458 Y116.6 E.01336
G1 X197.127 Y116.642 E.01046
G1 X180.684 Y116.642 E.51556
G1 X180.331 Y116.594 E.01117
G1 X179.882 Y116.371 E.01572
G1 X179.801 Y116.289 E.00361
M204 S1000
G1 X179.801 Y116.289 F10800
G1 X180.023 Y115.982
M204 S800
G1 F1200
G1 X179.925 Y115.883 E.00437
G1 X179.755 Y115.485 E.01357
G1 X179.741 Y115.322 E.00513
G1 X179.741 Y104.879 E.32743
G1 X179.792 Y104.574 E.0097
G1 X179.929 Y104.314 E.00921
G1 X180.118 Y104.125 E.00838
G1 X180.514 Y103.952 E.01355
G1 X180.684 Y103.937 E.00535
G1 X197.127 Y103.937 E.51556
G1 X197.478 Y104.005 E.01121
G1 X197.791 Y104.211 E.01175
G1 X197.991 Y104.504 E.01112
G1 X198.069 Y104.879 E.01201
G1 X198.069 Y115.322 E.32743
G1 X198.003 Y115.669 E.01107
G1 X197.805 Y115.977 E.01148
G1 X197.642 Y116.112 E.00664
G1 X197.289 Y116.251 E.0119
G1 X197.127 Y116.265 E.0051
G1 X180.684 Y116.265 E.51556
G1 X180.312 Y116.189 E.0119
G1 X180.111 Y116.071 E.00731
G1 X180.065 Y116.025 E.00204
M204 S1000
G1 X180.065 Y116.025 F10800
G1 X180.302 Y115.716
M204 S800
G1 F1200
G1 X180.229 Y115.659 E.0029
G1 X180.126 Y115.42 E.00816
G1 X180.118 Y115.322 E.00308
G1 X180.118 Y104.879 E.32743
G1 X180.149 Y104.696 E.00582
G1 X180.344 Y104.427 E.01042
G1 X180.582 Y104.323 E.00814
G1 X180.684 Y104.314 E.00321
G1 X197.127 Y104.314 E.51556
G1 X197.394 Y104.381 E.00863
G1 X197.592 Y104.558 E.00833
G1 X197.689 Y104.821 E.00879
G1 X197.692 Y104.879 E.00182
G1 X197.692 Y115.322 E.32743
G1 X197.624 Y115.592 E.00873
G1 X197.436 Y115.796 E.0087
G1 X197.127 Y115.888 E.01011
G1 X180.684 Y115.888 E.51556
G1 X180.46 Y115.842 E.00717
G1 X180.349 Y115.754 E.00444
M204 S1000
G1 X180.349 Y115.754 F10800
G1 X180.546 Y115.425
M204 S800
;TYPE:External perimeter
G1 F1200
G1 X180.495 Y115.322 E.0036
G1 X180.495 Y104.879 E.32743
G1 X180.57 Y104.729 E.00526
G1 X180.684 Y104.691 E.00377
G1 X197.127 Y104.691 E.51556
G1 X197.271 Y104.758 E.00498
M73 P0 R171
G1 X197.315 Y104.879 E.00404
G1 X197.315 Y115.322 E.32743
G1 X197.23 Y115.48 E.00563
G1 X197.127 Y115.511 E.00337
G1 X180.684 Y115.511 E.51556
G1 X180.576 Y115.475 E.00357
M204 S1000
;WIPE_START
G1 F8640
G1 X180.546 Y115.425 E-.01346
G1 X180.495 Y115.322 E-.02654
G1 X180.495 Y111.165 E-.96
;WIPE_END
G1 Z.4 F720
G1 X53.495 Y116.529 F10800
G1 Z.2 F720
G1 E1 F2100
M204 S800
;TYPE:Perimeter
G1 F1200
G1 X53.477 Y116.516 E.0007
G1 X53.205 Y116.156 E.01415
G1 X53.031 Y115.709 E.01504
G1 X52.987 Y115.322 E.01221
G1 X52.987 Y104.879 E.32743
G1 X53.046 Y104.433 E.01411
G1 X53.214 Y104.032 E.01363
G1 X53.513 Y103.651 E.01519
G1 X53.92 Y103.364 E.01561
G1 X54.371 Y103.212 E.01492
G1 X54.684 Y103.183 E.00986
G1 X70.631 Y103.183 E.50001
G1 X70.94 Y103.211 E.00973
G1 X71.291 Y103.316 E.01149
G1 X71.66 Y103.53 E.01337
G1 X72.001 Y103.878 E.01528
G1 X72.245 Y104.355 E.0168
G1 X72.328 Y104.879 E.01663
G1 X72.119 Y115.356 E.32856
G1 X72.031 Y115.862 E.0161
G1 X71.81 Y116.298 E.01533
G1 X71.506 Y116.628 E.01407
G1 X71.171 Y116.845 E.01251
G1 X70.717 Y116.994 E.01498
G1 X69.452 Y117.019 E.03967
G1 X54.684 Y117.019 E.46304
G1 X54.265 Y116.967 E.01324
G1 X53.884 Y116.819 E.01282
G1 X53.543 Y116.565 E.01333
M204 S1000
G1 X53.543 Y116.565 F10800
G1 X53.76 Y116.246
M204 S800
G1 F1200
G1 X53.627 Y116.113 E.0059
G1 X53.438 Y115.759 E.01258
G1 X53.364 Y115.322 E.0139
G1 X53.364 Y104.879 E.32743
G1 X53.43 Y104.466 E.01311
G1 X53.611 Y104.111 E.01249
G1 X53.906 Y103.813 E.01315
G1 X54.27 Y103.626 E.01283
G1 X54.684 Y103.56 E.01314
G1 X70.631 Y103.56 E.50001
G1 X70.872 Y103.582 E.00759
G1 X71.144 Y103.664 E.00891
G1 X71.431 Y103.83 E.0104
G1 X71.696 Y104.1 E.01186
G1 X71.886 Y104.472 E.0131
G1 X71.951 Y104.906 E.01376
G1 X71.742 Y115.349 E.3275
G1 X71.673 Y115.742 E.01251
G1 X71.502 Y116.082 E.01193
G1 X71.265 Y116.338 E.01094
G1 X70.81 Y116.584 E.01622
G1 X70.422 Y116.642 E.0123
G1 X54.684 Y116.642 E.49345
G1 X54.255 Y116.571 E.01363
G1 X53.891 Y116.378 E.01292
G1 X53.802 Y116.289 E.00395
M204 S1000
G1 X53.802 Y116.289 F10800
G1 X54.018 Y115.973
M204 S800
G1 F1200
G1 X53.836 Y115.734 E.00942
G1 X53.742 Y115.377 E.01157
G1 X53.741 Y104.879 E.32916
G1 X53.805 Y104.538 E.01088
G1 X54.003 Y104.227 E.01156
G1 X54.292 Y104.022 E.01111
G1 X54.684 Y103.937 E.01258
G1 X70.631 Y103.937 E.50001
G1 X70.998 Y104.011 E.01174
G1 X71.203 Y104.13 E.00743
G1 X71.392 Y104.323 E.00847
G1 X71.528 Y104.588 E.00934
G1 X71.574 Y104.898 E.00983
G1 X71.365 Y115.341 E.3275
G1 X71.316 Y115.622 E.00894
G1 X71.193 Y115.865 E.00854
G1 X71.024 Y116.048 E.00781
G1 X70.7 Y116.223 E.01155
G1 X70.422 Y116.265 E.00882
G1 X54.684 Y116.265 E.49345
G1 X54.377 Y116.214 E.00976
G1 X54.063 Y116.032 E.01138
G1 X54.054 Y116.021 E.00045
M204 S1000
G1 X54.054 Y116.021 F10800
G1 X54.298 Y115.712
M204 S800
G1 F1200
G1 X54.209 Y115.631 E.00377
G1 X54.122 Y115.388 E.00809
G1 X54.118 Y115.322 E.00207
G1 X54.118 Y104.879 E.32743
G1 X54.18 Y104.622 E.00829
G1 X54.37 Y104.409 E.00895
G1 X54.684 Y104.314 E.01029
G1 X70.631 Y104.314 E.50001
G1 X70.851 Y104.358 E.00703
G1 X71.088 Y104.546 E.00949
G1 X71.169 Y104.705 E.00559
G1 X71.197 Y104.891 E.0059
G1 X70.988 Y115.334 E.3275
G1 X70.958 Y115.502 E.00535
G1 X70.783 Y115.758 E.00972
G1 X70.52 Y115.879 E.00908
G1 X54.684 Y115.888 E.49653
G1 X54.417 Y115.821 E.00863
G1 X54.342 Y115.753 E.00317
M204 S1000
G1 X54.342 Y115.753 F10800
G1 X54.582 Y115.464
M204 S800
;TYPE:External perimeter
G1 F1200
G1 X54.541 Y115.445 E.00142
G1 X54.495 Y115.322 E.00412
G1 X54.495 Y104.879 E.32743
G1 X54.56 Y104.737 E.0049
G1 X54.684 Y104.691 E.00415
G1 X70.631 Y104.691 E.50001
G1 X70.745 Y104.73 E.00378
G1 X70.82 Y104.883 E.00534
G1 X70.611 Y115.326 E.3275
G1 X70.543 Y115.467 E.00491
G1 X70.422 Y115.511 E.00404
G1 X54.684 Y115.511 E.49345
G1 X54.636 Y115.489 E.00166
M204 S1000
;WIPE_START
G1 F8640
G1 X54.582 Y115.464 E-.01374
G1 X54.541 Y115.445 E-.01043
G1 X54.495 Y115.322 E-.03032
G1 X54.495 Y111.227 E-.94551
;WIPE_END
G1 Z.4 F720
G1 X71.814 Y50.51 F10800
G1 Z.2 F720
G1 E1 F2100
M204 S800
;TYPE:Perimeter
G1 F1200
G1 X71.645 Y50.68 E.00752
G1 X71.279 Y50.889 E.01321
G1 X70.933 Y50.991 E.01131
G1 X70.627 Y51.019 E.00963
G1 X54.684 Y51.019 E.49988
G1 X54.208 Y50.951 E.01508
G1 X53.802 Y50.772 E.01391
G1 X53.458 Y50.496 E.01383
G1 X53.173 Y50.095 E.01543
M73 Q0 S172
G1 X53.046 Y49.769 E.01097
G1 X52.987 Y49.322 E.01414
G1 X52.987 Y38.879 E.32743
G1 X53.062 Y38.38 E.01582
G1 X53.259 Y37.958 E.0146
G1 X53.538 Y37.628 E.01355
G1 X53.933 Y37.358 E.015
G1 X54.421 Y37.203 E.01605
G1 X54.684 Y37.183 E.00827
G1 X70.627 Y37.183 E.49988
G1 X70.933 Y37.21 E.00963
G1 X71.279 Y37.313 E.01132
G1 X71.645 Y37.522 E.01321
G1 X71.984 Y37.861 E.01503
G1 X72.232 Y38.329 E.01661
G1 X72.323 Y38.879 E.01748
G1 X72.323 Y49.322 E.32743
G1 X72.232 Y49.873 E.01751
G1 X71.984 Y50.341 E.01661
G1 X71.857 Y50.468 E.00563
M204 S1000
G1 X71.857 Y50.468 F10800
G1 X71.55 Y50.246
M204 S800
G1 F1200
G1 X71.418 Y50.378 E.00585
G1 X71.134 Y50.541 E.01027
G1 X70.865 Y50.621 E.0088
G1 X70.627 Y50.642 E.00749
G1 X54.684 Y50.642 E.49988
G1 X54.27 Y50.576 E.01314
G1 X53.906 Y50.389 E.01283
G1 X53.611 Y50.091 E.01315
G1 X53.41 Y49.67 E.01463
G1 X53.364 Y49.322 E.01101
G1 X53.364 Y38.879 E.32743
G1 X53.422 Y38.491 E.0123
G1 X53.621 Y38.096 E.01387
G1 X53.935 Y37.792 E.0137
G1 X54.283 Y37.622 E.01214
G1 X54.684 Y37.56 E.01272
G1 X70.627 Y37.56 E.49988
G1 X70.865 Y37.581 E.00749
G1 X71.134 Y37.661 E.0088
G1 X71.418 Y37.824 E.01027
G1 X71.682 Y38.088 E.01171
G1 X71.875 Y38.451 E.01289
G1 X71.946 Y38.879 E.0136
G1 X71.946 Y49.322 E.32743
G1 X71.875 Y49.75 E.0136
G1 X71.682 Y50.114 E.01292
G1 X71.593 Y50.204 E.00397
M204 S1000
G1 X71.593 Y50.204 F10800
G1 X71.286 Y49.982
M204 S800
G1 F1200
G1 X71.192 Y50.077 E.00419
G1 X70.797 Y50.25 E.01352
G1 X70.627 Y50.265 E.00535
G1 X54.684 Y50.265 E.49988
G1 X54.324 Y50.194 E.0115
G1 X54.033 Y50.005 E.01088
G1 X53.824 Y49.709 E.01136
G1 X53.774 Y49.57 E.00463
G1 X53.741 Y49.322 E.00784
G1 X53.741 Y38.879 E.32743
G1 X53.798 Y38.556 E.01028
G1 X53.961 Y38.274 E.01021
G1 X54.206 Y38.067 E.01006
G1 X54.538 Y37.948 E.01106
G1 X54.684 Y37.937 E.00459
G1 X70.627 Y37.937 E.49988
G1 X70.989 Y38.009 E.01157
G1 X71.192 Y38.125 E.00733
G1 X71.381 Y38.314 E.00838
G1 X71.518 Y38.574 E.00921
G1 X71.569 Y38.879 E.0097
G1 X71.569 Y49.322 E.32743
G1 X71.518 Y49.628 E.00973
G1 X71.381 Y49.888 E.00921
G1 X71.329 Y49.94 E.00231
M204 S1000
G1 X71.329 Y49.94 F10800
G1 X71.02 Y49.7
M204 S800
G1 F1200
G1 X70.966 Y49.775 E.0029
G1 X70.729 Y49.879 E.00811
G1 X70.627 Y49.888 E.00321
G1 X54.684 Y49.888 E.49988
G1 X54.409 Y49.817 E.00891
G1 X54.208 Y49.629 E.00863
G1 X54.138 Y49.471 E.00542
G1 X54.118 Y49.322 E.00471
G1 X54.118 Y38.879 E.32743
G1 X54.191 Y38.601 E.00901
G1 X54.363 Y38.414 E.00797
G1 X54.596 Y38.321 E.00787
G1 X54.684 Y38.314 E.00277
G1 X70.627 Y38.314 E.49988
G1 X70.844 Y38.357 E.00694
G1 X71.079 Y38.54 E.00934
G1 X71.162 Y38.696 E.00554
G1 X71.192 Y38.879 E.00581
G1 X71.192 Y49.322 E.32743
G1 X71.162 Y49.506 E.00585
G1 X71.056 Y49.652 E.00566
M204 S1000
G1 X71.056 Y49.652 F10800
G1 X70.764 Y49.425
