; generated by PrusaSlicer 2.8.0+win64 on 2024-12-10 at 17:37:48 UTC


;
;
; 

; external perimeters extrusion width = 0.60mm
; perimeters extrusion width = 0.50mm
; infill extrusion width = 0.50mm
; solid infill extrusion width = 0.50mm
; top infill extrusion width = 0.45mm
; first layer extrusion width = 0.42mm

M73 P0 R103
M73 Q0 S105
M201 X1000 Y1000 Z200 E5000 ; sets maximum accelerations, mm/sec^2
M203 X200 Y200 Z12 E120 ; sets maximum feedrates, mm / sec
M204 S1250 T1250 ; sets acceleration (S) and retract acceleration (R), mm/sec^2
M205 X8.00 Y8.00 Z0.40 E4.50 ; sets the jerk limits, mm/sec
M205 S0 T0 ; sets the minimum extruding and travel feed rate, mm/sec

; printing object screen_back.stl id:0 copy 0
; stop printing object screen_back.stl id:0 copy 0

;TYPE:Custom
M862.3 P "MK3S" ; printer model check
M862.1 P0.4 ; nozzle diameter check
M115 U3.13.3 ; tell printer latest fw version
G90 ; use absolute coordinates
M83 ; extruder relative mode
M104 S230 ; set extruder temp
M140 S85 ; set bed temp
M190 S85 ; wait for bed temp
M109 S230 ; wait for extruder temp
G28 W ; home all without mesh bed level
G80 X124.497 Y19.2736 W101.5 H100.5 ; mesh bed levelling

G1 Z0.2 F720
G1 Y-3 F1000 ; go outside print area
G92 E0
G1 X60 E9 F1000 ; intro line
G1 X100 E12.5 F1000 ; intro line
M73 Q0 S104

G92 E0
M221 S95

; Don't change E values below. Excessive value can damage the printer.

M907 E538 ; set extruder motor current
G21 ; set units to millimeters
G90 ; use absolute coordinates
M83 ; use relative distances for extrusion

M900 K0.08 ; Filament gcode LA 1.5
M900 K45 ; Filament gcode LA 1.0




M107
;LAYER_CHANGE
;Z:0.2
;HEIGHT:0.2
G1 E-1 F2100
G1 Z.4 F720
; printing object screen_back.stl id:0 copy 0
G1 X153.296 Y58.48 F10800
G1 Z.2 F720
G1 E1 F2100
M204 S800
;TYPE:Perimeter
;WIDTH:0.419999
G1 F1200
G1 X152.85 Y58.46 E.014
G1 X152.268 Y58.331 E.01869
G1 X151.718 Y58.103 E.01867
G1 X151.216 Y57.783 E.01867
G1 X150.777 Y57.381 E.01866
G1 X150.415 Y56.908 E.01868
G1 X150.14 Y56.38 E.01867
G1 X149.961 Y55.812 E.01867
G1 X149.884 Y55.221 E.01869
G1 X149.91 Y54.627 E.01864
G1 X150.039 Y54.045 E.01869
G1 X150.267 Y53.495 E.01867
G1 X150.587 Y52.993 E.01867
G1 X150.99 Y52.554 E.01868
G1 X151.462 Y52.192 E.01865
G1 X151.99 Y51.917 E.01867
G1 X152.405 Y51.785 E.01365
G1 X152.973 Y51.683 E.01809
G1 X153.386 Y51.661 E.01297
G1 X153.889 Y51.706 E.01583
G1 X154.397 Y51.837 E.01645
G1 X154.875 Y52.044 E.01633
G1 X155.377 Y52.364 E.01867
G1 X155.816 Y52.767 E.01868
G1 X156.178 Y53.239 E.01865
G1 X156.453 Y53.767 E.01867
G1 X156.632 Y54.335 E.01867
G1 X156.709 Y54.926 E.01869
G1 X156.683 Y55.521 E.01867
G1 X156.554 Y56.102 E.01866
G1 X156.326 Y56.651 E.01864
G1 X156.006 Y57.154 E.01869
G1 X155.604 Y57.593 E.01866
G1 X155.131 Y57.955 E.01868
G1 X154.603 Y58.23 E.01867
G1 X154.035 Y58.409 E.01867
G1 X153.444 Y58.486 E.01869
G1 X153.356 Y58.482 E.00276
M204 S1000
G1 X153.356 Y58.482 F10800
G1 X153.296 Y58.112
M204 S800
G1 F1200
G1 X152.83 Y58.079 E.01465
G1 X152.324 Y57.955 E.01633
G1 X151.828 Y57.737 E.01699
G1 X151.387 Y57.441 E.01665
G1 X150.992 Y57.059 E.01723
G1 X150.682 Y56.629 E.01662
G1 X150.452 Y56.151 E.01663
G1 X150.308 Y55.64 E.01665
G1 X150.26 Y55.189 E.01422
G1 X150.286 Y54.659 E.01664
G1 X150.403 Y54.143 E.01659
G1 X150.609 Y53.655 E.01661
G1 X150.896 Y53.21 E.0166
G1 X151.256 Y52.821 E.01662
G1 X151.678 Y52.501 E.01661
G1 X152.15 Y52.259 E.01663
G1 X152.472 Y52.157 E.01059
G1 X153.038 Y52.054 E.01804
G1 X153.36 Y52.038 E.01011
G1 X153.876 Y52.088 E.01625
G1 X154.391 Y52.236 E.0168
G1 X154.868 Y52.469 E.01664
G1 X155.296 Y52.782 E.01663
G1 X155.671 Y53.173 E.01699
G1 X155.965 Y53.615 E.01664
G1 X156.169 Y54.072 E.01569
G1 X156.299 Y54.586 E.01662
G1 X156.338 Y55.112 E.01654
G1 X156.285 Y55.641 E.01667
G1 X156.144 Y56.144 E.01638
G1 X155.928 Y56.6 E.01582
G1 X155.636 Y57.018 E.01599
G1 X155.276 Y57.384 E.0161
G1 X154.847 Y57.691 E.01654
G1 X154.376 Y57.917 E.01638
G1 X153.864 Y58.062 E.01668
G1 X153.356 Y58.113 E.01601
M204 S1000
G1 X153.356 Y58.113 F10800
G1 X153.297 Y57.729
M204 S800
G1 F1200
G1 X153.204 Y57.734 E.00292
G1 X152.753 Y57.68 E.01424
G1 X152.309 Y57.546 E.01454
G1 X151.895 Y57.337 E.01454
G1 X151.523 Y57.06 E.01454
G1 X151.205 Y56.721 E.01457
G1 X150.951 Y56.333 E.01454
G1 X150.768 Y55.907 E.01454
G1 X150.661 Y55.455 E.01456
G1 X150.635 Y55.156 E.00941
G1 X150.668 Y54.638 E.01627
G1 X150.802 Y54.136 E.01629
G1 X151.033 Y53.672 E.01625
G1 X151.311 Y53.3 E.01456
G1 X151.649 Y52.982 E.01455
G1 X152.037 Y52.728 E.01454
G1 X152.499 Y52.536 E.01569
G1 X153.098 Y52.426 E.0191
G1 X153.662 Y52.437 E.01769
G1 X154.17 Y52.556 E.01636
G1 X154.63 Y52.766 E.01585
G1 X155.041 Y53.06 E.01584
G1 X155.388 Y53.426 E.01581
G1 X155.642 Y53.814 E.01454
G1 X155.826 Y54.241 E.01458
G1 X155.932 Y54.693 E.01456
G1 X155.958 Y55.156 E.01454
G1 X155.903 Y55.617 E.01456
G1 X155.769 Y56.061 E.01454
G1 X155.56 Y56.475 E.01454
G1 X155.283 Y56.847 E.01454
G1 X154.944 Y57.165 E.01457
G1 X154.556 Y57.42 E.01456
G1 X154.13 Y57.603 E.01454
G1 X153.678 Y57.709 E.01456
G1 X153.357 Y57.726 E.01008
M204 S1000
G1 X153.357 Y57.726 F10800
G1 X153.297 Y57.355
M204 S800
G1 F1200
G1 X153.237 Y57.358 E.00188
G1 X152.851 Y57.316 E.01217
G1 X152.468 Y57.205 E.0125
G1 X152.111 Y57.028 E.01249
G1 X151.79 Y56.793 E.01247
G1 X151.514 Y56.505 E.01251
G1 X151.292 Y56.174 E.0125
G1 X151.132 Y55.809 E.0125
G1 X151.037 Y55.422 E.01249
G1 X151.011 Y55.123 E.00941
G1 X151.054 Y54.628 E.01558
G1 X151.165 Y54.245 E.0125
G1 X151.342 Y53.888 E.01249
G1 X151.577 Y53.567 E.01247
G1 X151.865 Y53.291 E.01251
G1 X152.196 Y53.069 E.0125
G1 X152.607 Y52.899 E.01395
G1 X153.168 Y52.797 E.01788
G1 X153.689 Y52.82 E.01635
G1 X154.125 Y52.943 E.0142
G1 X154.482 Y53.119 E.01248
G1 X154.804 Y53.354 E.0125
G1 X155.079 Y53.642 E.01249
G1 X155.301 Y53.973 E.0125
G1 X155.461 Y54.338 E.0125
G1 X155.556 Y54.726 E.01252
G1 X155.582 Y55.123 E.01247
G1 X155.539 Y55.519 E.01249
G1 X155.428 Y55.902 E.0125
G1 X155.251 Y56.259 E.01249
G1 X155.016 Y56.581 E.0125
G1 X154.728 Y56.856 E.01249
G1 X154.397 Y57.078 E.0125
G1 X154.032 Y57.238 E.0125
G1 X153.645 Y57.333 E.01249
G1 X153.357 Y57.351 E.00905
M204 S1000
G1 X153.357 Y57.351 F10800
G1 X153.297 Y56.981
M204 S800
;TYPE:External perimeter
G1 F1200
G1 X153.27 Y56.983 E.00085
G1 X152.949 Y56.952 E.01011
G1 X152.628 Y56.863 E.01044
G1 X152.327 Y56.72 E.01045
G1 X152.056 Y56.526 E.01045
G1 X151.823 Y56.289 E.01042
G1 X151.634 Y56.014 E.01046
G1 X151.496 Y55.711 E.01044
G1 X151.413 Y55.389 E.01043
G1 X151.386 Y55.09 E.00941
G1 X151.418 Y54.726 E.01146
G1 X151.507 Y54.405 E.01044
G1 X151.651 Y54.104 E.01046
G1 X151.844 Y53.833 E.01043
G1 X152.081 Y53.6 E.01042
G1 X152.356 Y53.411 E.01046
G1 X152.674 Y53.27 E.01091
G1 X153.233 Y53.168 E.01782
G1 X153.644 Y53.195 E.01291
G1 X153.965 Y53.284 E.01044
G1 X154.266 Y53.428 E.01046
G1 X154.537 Y53.621 E.01043
G1 X154.77 Y53.858 E.01042
G1 X154.959 Y54.133 E.01046
G1 X155.097 Y54.436 E.01044
G1 X155.181 Y54.758 E.01043
G1 X155.207 Y55.09 E.01044
G1 X155.175 Y55.421 E.01043
G1 X155.086 Y55.742 E.01044
G1 X154.943 Y56.043 E.01045
G1 X154.749 Y56.314 E.01045
G1 X154.512 Y56.547 E.01042
G1 X154.237 Y56.736 E.01046
G1 X153.934 Y56.874 E.01044
G1 X153.612 Y56.958 E.01043
G1 X153.356 Y56.976 E.00805
M204 S1000
;WIPE_START
G1 F8640
G1 X153.297 Y56.981 E-.01367
G1 X153.27 Y56.983 E-.00625
G1 X152.949 Y56.952 E-.07446
G1 X152.628 Y56.863 E-.07692
G1 X152.327 Y56.72 E-.07695
G1 X152.056 Y56.526 E-.07696
G1 X151.823 Y56.289 E-.07674
G1 X151.634 Y56.014 E-.07705
G1 X151.496 Y55.711 E-.07688
G1 X151.413 Y55.389 E-.07678
G1 X151.386 Y55.09 E-.06932
G1 X151.418 Y54.726 E-.08437
G1 X151.507 Y54.405 E-.07692
G1 X151.651 Y54.104 E-.07705
G1 X151.801 Y53.894 E-.05968
;WIPE_END
G1 Z.4 F720
G1 X150.347 Y105.777 F10800
G1 Z.2 F720
G1 E1 F2100
M204 S800
;TYPE:Perimeter
G1 F1200
G1 X150.267 Y105.652 E.00465
G1 X150.039 Y105.102 E.01867
G1 X149.917 Y104.585 E.01666
G1 X149.877 Y104.074 E.01607
G1 X149.922 Y103.528 E.01718
G1 X150.068 Y102.95 E.01869
G1 X150.312 Y102.406 E.01869
G1 X150.647 Y101.912 E.01871
G1 X151.045 Y101.502 E.01792
G1 X151.462 Y101.192 E.01629
G1 X151.99 Y100.917 E.01867
G1 X152.405 Y100.785 E.01365
G1 X152.963 Y100.684 E.01778
G1 X153.386 Y100.661 E.01328
G1 X153.892 Y100.707 E.01593
G1 X154.423 Y100.846 E.01721
G1 X154.911 Y101.062 E.01673
G1 X155.377 Y101.364 E.01741
G1 X155.816 Y101.767 E.01868
G1 X156.178 Y102.239 E.01865
G1 X156.453 Y102.767 E.01867
G1 X156.632 Y103.335 E.01867
G1 X156.709 Y103.926 E.01869
G1 X156.683 Y104.521 E.01867
G1 X156.554 Y105.102 E.01866
G1 X156.326 Y105.652 E.01867
G1 X156.006 Y106.154 E.01867
G1 X155.604 Y106.593 E.01866
G1 X155.131 Y106.955 E.01868
G1 X154.603 Y107.23 E.01867
G1 X154.035 Y107.409 E.01867
G1 X153.444 Y107.486 E.01869
G1 X152.85 Y107.46 E.01864
G1 X152.558 Y107.409 E.00929
G1 X151.99 Y107.23 E.01867
G1 X151.462 Y106.955 E.01867
G1 X150.99 Y106.593 E.01865
G1 X150.587 Y106.154 E.01868
G1 X150.379 Y105.827 E.01215
M204 S1000
G1 X150.379 Y105.827 F10800
G1 X150.671 Y105.589
M204 S800
G1 F1200
G1 X150.609 Y105.492 E.00361
G1 X150.403 Y105.004 E.01661
G1 X150.286 Y104.488 E.01659
G1 X150.26 Y103.959 E.01661
G1 X150.326 Y103.433 E.01662
G1 X150.482 Y102.927 E.0166
G1 X150.724 Y102.455 E.01663
G1 X151.044 Y102.033 E.01661
G1 X151.433 Y101.673 E.01662
G1 X151.878 Y101.386 E.0166
G1 X152.35 Y101.185 E.01609
G1 X153.031 Y101.055 E.02174
G1 X153.36 Y101.038 E.01033
G1 X153.864 Y101.085 E.01587
G1 X154.376 Y101.23 E.01668
G1 X154.847 Y101.457 E.01639
G1 X155.258 Y101.749 E.01581
G1 X155.613 Y102.102 E.0157
G1 X155.909 Y102.515 E.01593
G1 X156.128 Y102.965 E.01569
G1 X156.28 Y103.485 E.01699
G1 X156.338 Y104.031 E.01722
G1 X156.299 Y104.56 E.01663
G1 X156.156 Y105.111 E.01785
G1 X155.933 Y105.592 E.01662
G1 X155.628 Y106.027 E.01666
G1 X155.253 Y106.403 E.01665
G1 X154.819 Y106.707 E.01661
G1 X154.338 Y106.932 E.01665
G1 X153.825 Y107.069 E.01665
G1 X153.297 Y107.116 E.01662
G1 X152.656 Y107.045 E.02022
G1 X152.15 Y106.888 E.01661
G1 X151.678 Y106.646 E.01663
G1 X151.256 Y106.326 E.01661
G1 X150.896 Y105.938 E.0166
G1 X150.704 Y105.64 E.01111
M204 S1000
G1 X150.704 Y105.64 F10800
G1 X150.996 Y105.402
M204 S800
G1 F1200
G1 X150.951 Y105.333 E.00258
G1 X150.768 Y104.907 E.01454
G1 X150.661 Y104.455 E.01456
G1 X150.635 Y103.991 E.01457
G1 X150.69 Y103.531 E.01453
G1 X150.824 Y103.086 E.01457
G1 X151.033 Y102.672 E.01454
G1 X151.311 Y102.3 E.01456
G1 X151.649 Y101.982 E.01455
G1 X152.037 Y101.728 E.01454
G1 X152.52 Y101.531 E.01636
G1 X153.098 Y101.426 E.01842
G1 X153.662 Y101.437 E.01769
G1 X154.157 Y101.552 E.01593
G1 X154.615 Y101.757 E.01573
G1 X155.026 Y102.047 E.01577
G1 X155.379 Y102.414 E.01597
G1 X155.642 Y102.814 E.01501
G1 X155.826 Y103.241 E.01458
G1 X155.932 Y103.692 E.01453
G1 X155.958 Y104.156 E.01457
G1 X155.903 Y104.617 E.01456
G1 X155.769 Y105.061 E.01454
G1 X155.56 Y105.475 E.01454
G1 X155.283 Y105.847 E.01454
G1 X154.944 Y106.165 E.01457
G1 X154.556 Y106.42 E.01456
G1 X154.13 Y106.603 E.01454
G1 X153.678 Y106.709 E.01456
G1 X153.214 Y106.735 E.01457
G1 X152.753 Y106.68 E.01456
G1 X152.309 Y106.546 E.01454
G1 X151.895 Y106.337 E.01454
G1 X151.523 Y106.06 E.01454
G1 X151.205 Y105.721 E.01457
G1 X151.029 Y105.452 E.01008
M204 S1000
G1 X151.029 Y105.452 F10800
G1 X151.32 Y105.215
M204 S800
G1 F1200
G1 X151.292 Y105.174 E.00156
G1 X151.132 Y104.809 E.0125
G1 X151.037 Y104.422 E.01249
G1 X151.011 Y104.024 E.01251
G1 X151.054 Y103.628 E.01249
G1 X151.166 Y103.245 E.01251
G1 X151.342 Y102.888 E.01248
G1 X151.577 Y102.567 E.01247
G1 X151.865 Y102.291 E.01251
G1 X152.196 Y102.069 E.0125
G1 X152.607 Y101.899 E.01395
G1 X153.165 Y101.797 E.01779
G1 X153.678 Y101.818 E.0161
G1 X154.125 Y101.943 E.01455
G1 X154.482 Y102.119 E.01248
G1 X154.804 Y102.354 E.0125
G1 X155.079 Y102.642 E.01249
G1 X155.301 Y102.973 E.0125
G1 X155.461 Y103.338 E.0125
G1 X155.556 Y103.725 E.01249
G1 X155.582 Y104.123 E.01251
G1 X155.539 Y104.519 E.01249
G1 X155.428 Y104.902 E.0125
G1 X155.251 Y105.259 E.01249
G1 X155.016 Y105.581 E.0125
G1 X154.728 Y105.856 E.01249
G1 X154.397 Y106.078 E.0125
G1 X154.032 Y106.238 E.0125
G1 X153.645 Y106.333 E.01249
G1 X153.247 Y106.359 E.01251
G1 X152.851 Y106.316 E.01249
G1 X152.468 Y106.205 E.0125
G1 X152.111 Y106.028 E.01249
G1 X151.79 Y105.793 E.01247
G1 X151.514 Y105.505 E.01251
G1 X151.353 Y105.265 E.00906
M204 S1000
G1 X151.353 Y105.265 F10800
G1 X151.644 Y105.028
M204 S800
;TYPE:External perimeter
G1 F1200
G1 X151.634 Y105.014 E.00054
G1 X151.496 Y104.711 E.01044
G1 X151.413 Y104.389 E.01043
G1 X151.386 Y104.057 E.01044
G1 X151.418 Y103.726 E.01043
G1 X151.507 Y103.405 E.01044
G1 X151.651 Y103.104 E.01046
G1 X151.844 Y102.833 E.01043
G1 X152.081 Y102.6 E.01042
G1 X152.356 Y102.411 E.01046
G1 X152.674 Y102.27 E.01091
G1 X153.232 Y102.168 E.01779
G1 X153.644 Y102.195 E.01295
G1 X153.965 Y102.284 E.01044
G1 X154.266 Y102.428 E.01046
G1 X154.537 Y102.621 E.01043
G1 X154.77 Y102.858 E.01042
G1 X154.959 Y103.133 E.01046
G1 X155.097 Y103.436 E.01044
G1 X155.181 Y103.758 E.01043
G1 X155.207 Y104.09 E.01044
G1 X155.175 Y104.421 E.01043
G1 X155.086 Y104.742 E.01044
G1 X154.943 Y105.043 E.01045
G1 X154.749 Y105.314 E.01045
G1 X154.512 Y105.547 E.01042
G1 X154.237 Y105.736 E.01046
G1 X153.934 Y105.874 E.01044
G1 X153.612 Y105.958 E.01043
G1 X153.28 Y105.984 E.01044
G1 X152.949 Y105.952 E.01043
G1 X152.628 Y105.863 E.01044
G1 X152.327 Y105.72 E.01045
G1 X152.056 Y105.526 E.01045
G1 X151.823 Y105.289 E.01042
G1 X151.678 Y105.078 E.00803
M204 S1000
;WIPE_START
G1 F8640
G1 X151.644 Y105.028 E-.01396
G1 X151.634 Y105.014 E-.00397
G1 X151.496 Y104.711 E-.07688
G1 X151.413 Y104.389 E-.07678
G1 X151.386 Y104.057 E-.07691
G1 X151.418 Y103.726 E-.07679
G1 X151.507 Y103.405 E-.07692
G1 X151.651 Y103.104 E-.07705
G1 X151.844 Y102.833 E-.07682
G1 X152.081 Y102.6 E-.07674
G1 X152.356 Y102.411 E-.07705
G1 X152.674 Y102.27 E-.08032
G1 X153.232 Y102.168 E-.13098
G1 X153.573 Y102.191 E-.07883
;WIPE_END
G1 Z.4 F720
G1 X214.651 Y104.665 F10800
G1 Z.2 F720
G1 E1 F2100
M204 S800
;TYPE:Perimeter
G1 F1200
G1 X214.632 Y104.812 E.00465
G1 X214.453 Y105.38 E.01867
G1 X214.178 Y105.908 E.01867
G1 X213.816 Y106.381 E.01868
G1 X213.377 Y106.783 E.01866
G1 X212.875 Y107.103 E.01867
G1 X212.325 Y107.331 E.01867
G1 X211.744 Y107.46 E.01866
G1 X211.149 Y107.486 E.01867
G1 X210.558 Y107.409 E.01869
G1 X209.99 Y107.23 E.01867
G1 X209.462 Y106.955 E.01867
G1 X209.216 Y106.783 E.00941
G1 X208.777 Y106.381 E.01866
G1 X208.415 Y105.908 E.01868
G1 X208.14 Y105.38 E.01867
G1 X207.961 Y104.812 E.01867
G1 X207.884 Y104.221 E.01869
G1 X207.91 Y103.627 E.01864
G1 X208.039 Y103.045 E.01869
G1 X208.267 Y102.495 E.01867
G1 X208.587 Y101.993 E.01867
G1 X208.99 Y101.554 E.01868
G1 X209.462 Y101.192 E.01865
G1 X209.99 Y100.917 E.01867
G1 X210.405 Y100.785 E.01365
G1 X210.963 Y100.684 E.01778
G1 X211.386 Y100.661 E.01328
G1 X211.924 Y100.713 E.01695
G1 X212.462 Y100.859 E.01748
G1 X213.003 Y101.111 E.01871
G1 X213.492 Y101.452 E.01869
G1 X213.914 Y101.874 E.01871
G1 X214.257 Y102.363 E.01873
G1 X214.554 Y103.045 E.02332
G1 X214.683 Y103.627 E.01869
G1 X214.709 Y104.221 E.01864
G1 X214.659 Y104.606 E.01217
M204 S1000
G1 X214.659 Y104.606 F10800
G1 X214.282 Y104.6
M204 S800
G1 F1200
G1 X214.267 Y104.714 E.00361
G1 X214.111 Y105.22 E.0166
G1 X213.869 Y105.692 E.01663
G1 X213.549 Y106.114 E.01661
G1 X213.161 Y106.474 E.0166
G1 X212.715 Y106.761 E.01663
G1 X212.227 Y106.967 E.01661
G1 X211.711 Y107.084 E.01659
G1 X211.182 Y107.111 E.01661
G1 X210.656 Y107.045 E.01662
G1 X210.15 Y106.888 E.01661
G1 X209.678 Y106.646 E.01663
G1 X209.433 Y106.474 E.00939
G1 X209.044 Y106.114 E.01662
G1 X208.724 Y105.692 E.01661
G1 X208.482 Y105.22 E.01663
G1 X208.326 Y104.714 E.0166
G1 X208.26 Y104.189 E.01659
G1 X208.286 Y103.659 E.01664
G1 X208.403 Y103.143 E.01659
G1 X208.609 Y102.655 E.01661
G1 X208.896 Y102.21 E.0166
G1 X209.256 Y101.821 E.01662
G1 X209.678 Y101.501 E.01661
G1 X210.149 Y101.259 E.0166
G1 X210.472 Y101.157 E.01062
G1 X211.031 Y101.055 E.01782
G1 X211.36 Y101.038 E.01033
G1 X211.937 Y101.103 E.01821
