; generated by PrusaSlicer 2.8.0+win64 on 2024-12-10 at 17:40:49 UTC


;
;
; 

; external perimeters extrusion width = 0.60mm
; perimeters extrusion width = 0.50mm
; infill extrusion width = 0.50mm
; solid infill extrusion width = 0.50mm
; top infill extrusion width = 0.45mm
; first layer extrusion width = 0.42mm

; external perimeters extrusion width = 0.60mm
; perimeters extrusion width = 0.50mm
; infill extrusion width = 0.50mm
; solid infill extrusion width = 0.50mm
; top infill extrusion width = 0.45mm
; first layer extrusion width = 0.42mm

M73 P0 R72
M73 Q0 S73
M201 X1000 Y1000 Z200 E5000 ; sets maximum accelerations, mm/sec^2
M203 X200 Y200 Z12 E120 ; sets maximum feedrates, mm / sec
M204 S1250 T1250 ; sets acceleration (S) and retract acceleration (R), mm/sec^2
M205 X8.00 Y8.00 Z0.40 E4.50 ; sets the jerk limits, mm/sec
M205 S0 T0 ; sets the minimum extruding and travel feed rate, mm/sec

; printing object left_screen_hinge.stl id:0 copy 0
; stop printing object left_screen_hinge.stl id:0 copy 0
; printing object left_screen_hinge.stl id:1 copy 0
; stop printing object left_screen_hinge.stl id:1 copy 0

;TYPE:Custom
M862.3 P "MK3S" ; printer model check
M862.1 P0.4 ; nozzle diameter check
M115 U3.13.3 ; tell printer latest fw version
G90 ; use absolute coordinates
M83 ; extruder relative mode
M104 S230 ; set extruder temp
M140 S85 ; set bed temp
M190 S85 ; wait for bed temp
M109 S230 ; wait for extruder temp
G28 W ; home all without mesh bed level
G80 X115.876 Y14.5806 W115.622 H30.6928 ; mesh bed levelling

G1 Z0.2 F720
G1 Y-3 F1000 ; go outside print area
G92 E0
G1 X60 E9 F1000 ; intro line
G1 X100 E12.5 F1000 ; intro line

G92 E0
M221 S95

; Don't change E values below. Excessive value can damage the printer.

M907 E538 ; set extruder motor current
G21 ; set units to millimeters
G90 ; use absolute coordinates
M83 ; use relative distances for extrusion

M900 K0.08 ; Filament gcode LA 1.5
M900 K45 ; Filament gcode LA 1.0




M107
;LAYER_CHANGE
;Z:0.2
;HEIGHT:0.2
G1 E-1 F2100
G1 Z.4 F720
; printing object left_screen_hinge.stl id:0 copy 0
G1 X118.501 Y29.711 F10800
G1 Z.2 F720
G1 E1 F2100
M204 S800
;TYPE:Perimeter
;WIDTH:0.419999
G1 F1200
G1 X118.285 Y29.378 E.01245
G1 X118.087 Y28.883 E.01672
G1 X117.983 Y28.253 E.02002
G1 X117.964 Y27.967 E.00899
G1 X118.014 Y27.501 E.01469
G1 X118.138 Y27.049 E.0147
G1 X118.333 Y26.622 E.01472
G1 X118.594 Y26.233 E.01469
G1 X118.913 Y25.89 E.01469
G1 X119.284 Y25.603 E.01471
G1 X119.559 Y25.445 E.00994
G1 X120.057 Y25.245 E.01683
G1 X120.818 Y25.138 E.0241
G1 X121.374 Y25.174 E.01747
G1 X121.904 Y25.315 E.0172
G1 X122.397 Y25.559 E.01725
G1 X122.776 Y25.835 E.0147
G1 X123.157 Y26.237 E.01737
G1 X123.437 Y26.665 E.01604
G1 X123.685 Y27.272 E.02056
G1 X123.782 Y27.812 E.0172
G1 X123.772 Y28.353 E.01697
G1 X123.658 Y28.884 E.01703
G1 X123.41 Y29.466 E.01984
G1 X123.106 Y29.917 E.01705
G1 X122.731 Y30.291 E.01661
G1 X122.266 Y30.602 E.01754
G1 X121.837 Y30.792 E.01471
G1 X121.384 Y30.911 E.01469
G1 X120.917 Y30.955 E.01471
G1 X120.45 Y30.924 E.01467
G1 X119.915 Y30.789 E.0173
G1 X119.404 Y30.552 E.01766
G1 X118.947 Y30.223 E.01766
G1 X118.594 Y29.853 E.01603
G1 X118.534 Y29.761 E.00344
M204 S1000
G1 X118.534 Y29.761 F10800
M73 P0 R71
G1 X118.812 Y29.514
M204 S800
G1 F1200
G1 X118.609 Y29.181 E.01223
G1 X118.447 Y28.758 E.0142
G1 X118.345 Y28.134 E.01982
G1 X118.38 Y27.591 E.01706
G1 X118.485 Y27.197 E.01278
G1 X118.651 Y26.824 E.0128
G1 X118.876 Y26.483 E.01281
G1 X119.152 Y26.182 E.0128
G1 X119.473 Y25.93 E.0128
G1 X119.748 Y25.771 E.00996
G1 X120.226 Y25.592 E.016
G1 X120.865 Y25.512 E.02019
G1 X121.365 Y25.553 E.01573
G1 X121.818 Y25.688 E.01482
G1 X122.183 Y25.869 E.01277
G1 X122.515 Y26.107 E.01281
G1 X122.856 Y26.464 E.01548
G1 X123.191 Y27.007 E.02
G1 X123.349 Y27.48 E.01564
G1 X123.407 Y28.103 E.01962
G1 X123.35 Y28.602 E.01575
G1 X123.063 Y29.318 E.02419
G1 X122.744 Y29.759 E.01707
G1 X122.32 Y30.122 E.0175
G1 X121.882 Y30.367 E.01574
G1 X121.345 Y30.536 E.01765
G1 X120.932 Y30.579 E.01302
G1 X120.525 Y30.555 E.01278
G1 X120.048 Y30.436 E.01541
G1 X119.593 Y30.225 E.01573
G1 X119.186 Y29.931 E.01574
G1 X118.849 Y29.561 E.01569
M204 S1000
G1 X118.849 Y29.561 F10800
G1 X119.13 Y29.313
M204 S800
;TYPE:External perimeter
G1 F1200
G1 X118.956 Y29.033 E.01034
G1 X118.819 Y28.698 E.01135
M73 Q0 S72
G1 X118.718 Y28.073 E.01985
G1 X118.746 Y27.681 E.01232
G1 X118.832 Y27.344 E.01091
G1 X118.97 Y27.026 E.01087
G1 X119.158 Y26.733 E.01092
G1 X119.39 Y26.474 E.0109
G1 X119.661 Y26.256 E.01091
G1 X119.936 Y26.098 E.00994
G1 X120.304 Y25.961 E.01231
G1 X120.911 Y25.886 E.01918
G1 X121.323 Y25.929 E.01299
G1 X121.656 Y26.028 E.01089
G1 X121.969 Y26.18 E.01091
G1 X122.254 Y26.379 E.0109
G1 X122.554 Y26.69 E.01355
G1 X122.857 Y27.182 E.01812
G1 X122.997 Y27.663 E.01571
G1 X123.03 Y28.201 E.0169
G1 X122.964 Y28.589 E.01234
G1 X122.716 Y29.171 E.01984
G1 X122.442 Y29.525 E.01404
G1 X121.969 Y29.906 E.01904
G1 X121.628 Y30.068 E.01184
G1 X121.293 Y30.162 E.01091
G1 X120.948 Y30.202 E.01089
G1 X120.6 Y30.185 E.01092
G1 X120.182 Y30.084 E.01348
G1 X119.661 Y29.829 E.01819
G1 X119.369 Y29.59 E.01183
G1 X119.168 Y29.36 E.00958
M204 S1000
;WIPE_START
G1 F8640
G1 X119.13 Y29.313 E-.01396
G1 X118.956 Y29.033 E-.07612
G1 X118.819 Y28.698 E-.08357
G1 X118.718 Y28.073 E-.14619
G1 X118.746 Y27.681 E-.09074
G1 X118.832 Y27.344 E-.08031
G1 X118.97 Y27.026 E-.08004
G1 X119.158 Y26.733 E-.08038
G1 X119.39 Y26.474 E-.08029
G1 X119.661 Y26.256 E-.08031
G1 X119.936 Y26.098 E-.07323
G1 X120.304 Y25.961 E-.09067
G1 X120.408 Y25.948 E-.02419
;WIPE_END
G1 Z.4 F720
G1 X123.956 Y23.167 F10800
G1 Z.2 F720
G1 E1 F2100
M204 S800
;TYPE:Perimeter
G1 F1200
G1 X123.887 Y23.225 E.00283
G1 X123.649 Y23.563 E.01296
G1 X123.507 Y23.92 E.01205
G1 X123.447 Y24.364 E.01405
G1 X123.447 Y25.434 E.03355
G1 X123.087 Y25.119 E.015
G1 X122.589 Y24.802 E.01851
G1 X122.047 Y24.569 E.0185
G1 X121.458 Y24.424 E.01902
G1 X120.725 Y24.389 E.02301
G1 X120.118 Y24.465 E.01918
G1 X119.725 Y24.562 E.01269
G1 X119.182 Y24.792 E.01849
G1 X118.682 Y25.105 E.0185
G1 X118.24 Y25.495 E.01848
G1 X117.794 Y26.063 E.02264
G1 X117.794 Y21.883 E.13106
G1 X117.814 Y21.722 E.00509
G1 X117.977 Y21.64 E.00572
G1 X121.547 Y20.993 E.11376
G1 X125.241 Y20.371 E.11745
G1 X128.943 Y19.795 E.11747
G1 X132.651 Y19.265 E.11744
G1 X136.366 Y18.782 E.11746
G1 X140.087 Y18.344 E.11747
G1 X143.813 Y17.953 E.11747
G1 X147.543 Y17.609 E.11745
G1 X151.278 Y17.31 E.11748
G1 X155.015 Y17.059 E.11743
G1 X158.755 Y16.854 E.11744
G1 X162.498 Y16.695 E.11746
G1 X166.243 Y16.583 E.11747
G1 X169.989 Y16.518 E.11747
G1 X173.765 Y16.499 E.1184
G1 X177.481 Y16.527 E.11652
G1 X181.226 Y16.601 E.11744
G1 X184.97 Y16.722 E.11745
G1 X188.713 Y16.89 E.11748
G1 X192.483 Y17.106 E.1184
G1 X196.19 Y17.365 E.11651
G1 X199.924 Y17.672 E.11747
G1 X203.653 Y18.026 E.11745
G1 X207.378 Y18.426 E.11747
G1 X211.097 Y18.872 E.11744
G1 X214.87 Y19.373 E.11934
G1 X218.535 Y19.906 E.11612
G1 X222.219 Y20.488 E.11694
G1 X225.911 Y21.119 E.11744
G1 X229.051 Y21.696 E.1001
G1 X229.115 Y22.668 E.03054
G1 X125.144 Y22.668 E3.25993
G1 X124.665 Y22.737 E.01517
G1 X124.231 Y22.934 E.01494
G1 X124.002 Y23.128 E.00941
M204 S1000
G1 X124.002 Y23.128 F10800
G1 X124.222 Y23.432
M204 S800
G1 F1200
G1 X124.166 Y23.478 E.00227
G1 X123.981 Y23.741 E.01008
G1 X123.9 Y23.925 E.0063
G1 X123.825 Y24.364 E.01396
G1 X123.825 Y25.803 E.04512
;WIDTH:0.468736
G1 X123.818 Y25.935 E.00468
;WIDTH:0.517473
G1 X123.811 Y26.066 E.00518
;WIDTH:0.56621
G1 X123.804 Y26.198 E.00575
;WIDTH:0.614946
G1 X123.798 Y26.33 E.00628
G1 X123.742 Y26.277 E.00367
;WIDTH:0.576877
G1 X123.686 Y26.224 E.00342
;WIDTH:0.538808
G1 X123.63 Y26.172 E.00315
;WIDTH:0.500738
G1 X123.448 Y25.977 E.01015
;WIDTH:0.460369
G1 X123.266 Y25.783 E.00923
;WIDTH:0.419999
G1 X122.873 Y25.429 E.01658
G1 X122.428 Y25.142 E.0166
G1 X121.942 Y24.931 E.01661
G1 X121.416 Y24.799 E.017
G1 X120.772 Y24.763 E.02022
G1 X120.092 Y24.85 E.02149
G1 X119.562 Y25.027 E.01752
G1 X119.096 Y25.277 E.01658
G1 X118.675 Y25.598 E.0166
G1 X118.311 Y25.983 E.01661
G1 X118.014 Y26.421 E.01659
G1 X117.791 Y26.901 E.01659
;WIDTH:0.466818
G1 X117.74 Y26.997 E.00383
;WIDTH:0.513637
G1 X117.688 Y27.094 E.00431
;WIDTH:0.560456
G1 X117.637 Y27.19 E.00468
;WIDTH:0.607275
G1 X117.585 Y27.286 E.00512
;WIDTH:0.654094
G1 X117.534 Y27.383 E.00557
G1 X117.511 Y27.303 E.00423
;WIDTH:0.607319
G1 X117.487 Y27.224 E.00387
;WIDTH:0.560543
G1 X117.464 Y27.145 E.00354
;WIDTH:0.513768
G1 X117.441 Y27.065 E.00326
;WIDTH:0.466992
G1 X117.417 Y26.825 E.00851
;WIDTH:0.419999
G1 X117.417 Y21.883 E.15495
G1 X117.448 Y21.618 E.00837
G1 X117.575 Y21.412 E.00759
G1 X117.884 Y21.273 E.01062
G1 X121.482 Y20.621 E.11465
G1 X125.181 Y19.999 E.11761
G1 X128.887 Y19.422 E.1176
G1 X132.6 Y18.892 E.1176
G1 X136.32 Y18.407 E.11762
G1 X140.045 Y17.97 E.1176
G1 X143.776 Y17.578 E.11763
G1 X147.511 Y17.233 E.11761
G1 X151.25 Y16.934 E.11761
G1 X154.992 Y16.682 E.11759
G1 X158.737 Y16.477 E.1176
G1 X162.485 Y16.318 E.11762
G1 X166.234 Y16.206 E.1176
G1 X169.984 Y16.141 E.1176
G1 X173.765 Y16.122 E.11855
G1 X177.486 Y16.15 E.11667
G1 X181.236 Y16.224 E.1176
G1 X184.985 Y16.345 E.11761
G1 X188.732 Y16.513 E.1176
G1 X192.507 Y16.73 E.11856
G1 X196.219 Y16.989 E.11667
G1 X199.957 Y17.296 E.1176
G1 X203.691 Y17.65 E.1176
G1 X207.421 Y18.051 E.11763
G1 X211.145 Y18.498 E.1176
G1 X214.922 Y18.999 E.11946
G1 X218.592 Y19.533 E.11628
G1 X222.28 Y20.116 E.11707
G1 X225.977 Y20.748 E.1176
G1 X229.407 Y21.378 E.10934
G1 X229.518 Y23.045 E.05238
G1 X125.144 Y23.045 E3.27257
G1 X124.771 Y23.098 E.01181
G1 X124.434 Y23.252 E.01162
G1 X124.267 Y23.393 E.00685
M204 S1000
;WIPE_START
G1 F8640
G1 X124.222 Y23.432 E-.01375
G1 X124.166 Y23.478 E-.01673
G1 X123.981 Y23.741 E-.07425
G1 X123.9 Y23.925 E-.04642
G1 X123.825 Y24.364 E-.10283
G1 X123.825 Y25.803 E-.33227
G1 X123.818 Y25.935 E-.03052
G1 X123.811 Y26.066 E-.03029
G1 X123.804 Y26.198 E-.03052
G1 X123.798 Y26.33 E-.03051
G1 X123.742 Y26.277 E-.0178
G1 X123.686 Y26.224 E-.0178
G1 X123.63 Y26.172 E-.01765
G1 X123.448 Y25.977 E-.06159
G1 X123.266 Y25.783 E-.06142
G1 X122.894 Y25.448 E-.11565
;WIPE_END
G1 Z.4 F720
G1 X123.798 Y26.33 F10800
G1 Z.2 F720
G1 E1 F2100
M204 S800
;WIDTH:0.614946
G1 F1200
G1 X124.019 Y26.821 E.02561
;WIDTH:0.585998
G1 X124.169 Y27.347 E.0247
;WIDTH:0.573442
G1 X124.236 Y27.884 E.02387
;WIDTH:0.56926
G1 X124.217 Y28.425 E.02369
;WIDTH:0.568776
G1 X124.122 Y28.929 E.02243
;WIDTH:0.575888
G1 X123.829 Y29.645 E.03428
;WIDTH:0.579512
G1 X123.662 Y29.938 E.01505
G1 X123.321 Y30.359 E.02417
;WIDTH:0.578156
G1 X122.916 Y30.719 E.02412
;WIDTH:0.572066
G1 X122.46 Y31.01 E.0238
;WIDTH:0.568684
G1 X121.963 Y31.226 E.02369
;WIDTH:0.56985
G1 X121.455 Y31.357 E.02299
;WIDTH:0.574604
G1 X120.899 Y31.409 E.02469
;WIDTH:0.582482
G1 X120.369 Y31.376 E.02382
G1 X119.831 Y31.244 E.02485
;WIDTH:0.576114
G1 X119.333 Y31.033 E.02398
;WIDTH:0.570804
G1 X118.874 Y30.746 E.02376
;WIDTH:0.568244
G1 X118.466 Y30.389 E.02368
;WIDTH:0.570986
G1 X118.123 Y29.978 E.02351
;WIDTH:0.576296
G1 X117.843 Y29.507 E.0243
;WIDTH:0.583692
G1 X117.641 Y28.988 E.02504
;WIDTH:0.599276
G1 X117.522 Y28.328 E.03102
;WIDTH:0.616944
G1 X117.516 Y27.612 E.03418
;WIDTH:0.654094
G1 X117.534 Y27.383 E.01167
M204 S1000
;WIPE_START
G1 F8640
G1 X117.516 Y27.612 E-.05304
G1 X117.522 Y28.328 E-.16533
G1 X117.641 Y28.988 E-.15485
G1 X117.843 Y29.507 E-.1286
G1 X118.123 Y29.978 E-.12652
G1 X118.466 Y30.389 E-.12361
G1 X118.874 Y30.746 E-.12518
G1 X119.325 Y31.028 E-.12287
;WIPE_END
G1 Z.4 F720
G1 X124.487 Y23.697 F10800
G1 Z.2 F720
G1 E1 F2100
M204 S800
;WIDTH:0.419999
G1 F1200
G1 X124.446 Y23.732 E.00169
G1 X124.255 Y24.051 E.01166
G1 X124.202 Y24.364 E.00995
G1 X124.202 Y25.803 E.04512
G1 X124.249 Y26.182 E.01197
G1 X124.454 Y26.668 E.01654
G1 X124.651 Y27.389 E.02344
G1 X124.707 Y28.112 E.02274
G1 X124.625 Y28.83 E.02266
G1 X124.41 Y29.522 E.02272
G1 X124.069 Y30.161 E.02271
G1 X123.613 Y30.724 E.02272
G1 X123.06 Y31.191 E.02269
G1 X122.428 Y31.546 E.02273
G1 X121.741 Y31.775 E.02271
G1 X121.023 Y31.871 E.02271
G1 X120.3 Y31.831 E.0227
G1 X119.597 Y31.655 E.02272
G1 X118.941 Y31.35 E.02268
G1 X118.353 Y30.926 E.02273
G1 X117.855 Y30.4 E.02271
G1 X117.466 Y29.79 E.02268
G1 X117.198 Y29.117 E.02271
G1 X117.064 Y28.416 E.02238
G1 X117.04 Y28.015 E.0126
G1 X117.04 Y21.883 E.19226
G1 X117.066 Y21.628 E.00804
G1 X117.173 Y21.306 E.01064
G1 X117.413 Y21.066 E.01064
G1 X117.79 Y20.907 E.01283
G1 X121.417 Y20.25 E.11557
G1 X125.121 Y19.626 E.11777
G1 X128.832 Y19.049 E.11775
G1 X132.549 Y18.518 E.11773
G1 X136.273 Y18.033 E.11775
G1 X140.003 Y17.595 E.11775
G1 X143.739 Y17.203 E.11778
G1 X147.479 Y16.857 E.11777
G1 X151.222 Y16.558 E.11773
G1 X154.969 Y16.306 E.11775
G1 X158.719 Y16.1 E.11776
G1 X162.471 Y15.941 E.11775
G1 X166.225 Y15.829 E.11776
G1 X169.98 Y15.764 E.11775
G1 X173.766 Y15.745 E.11871
G1 X177.491 Y15.773 E.1168
G1 X181.246 Y15.847 E.11776
G1 X184.999 Y15.969 E.11773
G1 X188.751 Y16.137 E.11776
G1 X192.531 Y16.354 E.11871
G1 X196.247 Y16.613 E.1168
G1 X199.99 Y16.921 E.11776
G1 X203.729 Y17.275 E.11776
G1 X207.463 Y17.676 E.11775
G1 X211.192 Y18.124 E.11776
G1 X214.974 Y18.626 E.11962
G1 X218.648 Y19.16 E.11641
G1 X222.341 Y19.744 E.11723
G1 X226.043 Y20.376 E.11775
G1 X228.783 Y20.88 E.08735
G1 X229.739 Y21.07 E.03056
G1 X229.772 Y21.186 E.00378
G1 X229.921 Y23.422 E.07026
G1 X125.426 Y23.422 E3.27636
G1 X124.988 Y23.435 E.01374
M73 P1 R71
M73 Q1 S72
G1 X124.637 Y23.57 E.01179
G1 X124.533 Y23.658 E.00427
M204 S1000
G1 X124.533 Y23.658 F10800
G1 X124.755 Y23.979
M204 S800
G1 F1200
G1 X124.646 Y24.097 E.00504
G1 X124.579 Y24.364 E.00863
G1 X124.579 Y25.545 E.03703
G1 X124.607 Y26.065 E.01633
G1 X124.811 Y26.543 E.0163
G1 X125.024 Y27.324 E.02538
G1 X125.085 Y28.118 E.02497
G1 X124.996 Y28.908 E.02493
G1 X124.76 Y29.668 E.02495
G1 X124.384 Y30.37 E.02497
G1 X123.884 Y30.989 E.02495
G1 X123.275 Y31.502 E.02497
G1 X122.582 Y31.892 E.02493
G1 X121.827 Y32.144 E.02496
G1 X121.038 Y32.25 E.02496
G1 X120.243 Y32.205 E.02497
G1 X119.471 Y32.012 E.02495
G1 X118.749 Y31.676 E.02497
G1 X118.103 Y31.211 E.02496
G1 X117.557 Y30.633 E.02493
G1 X117.129 Y29.963 E.02493
G1 X116.834 Y29.223 E.02498
G1 X116.693 Y28.487 E.0235
G1 X116.663 Y28.024 E.01455
G1 X116.663 Y21.883 E.19255
G1 X116.715 Y21.41 E.01492
G1 X116.849 Y21.106 E.01042
G1 X117.062 Y20.849 E.01047
G1 X117.337 Y20.661 E.01044
G1 X117.696 Y20.541 E.01187
G1 X121.352 Y19.879 E.1165
G1 X125.06 Y19.254 E.1179
G1 X128.776 Y18.676 E.11791
G1 X132.498 Y18.144 E.11789
G1 X136.227 Y17.659 E.1179
G1 X139.962 Y17.22 E.11791
G1 X143.702 Y16.828 E.11791
G1 X147.446 Y16.482 E.11789
G1 X151.195 Y16.182 E.11792
G1 X154.946 Y15.93 E.11787
G1 X158.7 Y15.724 E.11788
G1 X162.458 Y15.565 E.11793
G1 X166.216 Y15.452 E.11788
G1 X169.976 Y15.387 E.11791
G1 X173.766 Y15.368 E.11883
G1 X177.496 Y15.396 E.11695
G1 X181.256 Y15.47 E.11791
G1 X185.014 Y15.592 E.11789
G1 X188.771 Y15.76 E.11792
G1 X192.555 Y15.977 E.11884
G1 X196.276 Y16.237 E.11695
G1 X200.024 Y16.545 E.11791
G1 X203.767 Y16.9 E.11789
G1 X207.506 Y17.302 E.11791
G1 X211.239 Y17.75 E.11789
G1 X215.026 Y18.252 E.11978
G1 X218.705 Y18.787 E.11657
G1 X222.402 Y19.372 E.11736
G1 X226.109 Y20.005 E.11791
G1 X229.707 Y20.666 E.1147
G1 X229.93 Y20.739 E.00736
G1 X230.068 Y20.878 E.00614
G1 X230.149 Y21.161 E.00923
G1 X230.325 Y23.799 E.0829
G1 X125.05 Y23.807 E3.30082
G1 X124.84 Y23.888 E.00706
G1 X124.796 Y23.935 E.00202
M204 S1000
G1 X124.796 Y23.935 F10800
G1 X125.043 Y24.221
M204 S800
;TYPE:External perimeter
G1 F1200
G1 X125.005 Y24.238 E.00131
G1 X124.956 Y24.364 E.00424
G1 X124.965 Y25.947 E.04963
G1 X125.168 Y26.418 E.01608
G1 X125.397 Y27.26 E.02736
G1 X125.464 Y28.125 E.0272
G1 X125.367 Y28.986 E.02717
G1 X125.109 Y29.814 E.02719
G1 X124.7 Y30.58 E.02723
G1 X124.154 Y31.254 E.0272
G1 X123.491 Y31.813 E.02719
G1 X122.735 Y32.238 E.02719
G1 X121.912 Y32.513 E.02721
G1 X121.052 Y32.628 E.0272
G1 X120.186 Y32.58 E.02719
G1 X119.345 Y32.369 E.02719
G1 X118.558 Y32.003 E.02721
G1 X117.854 Y31.496 E.0272
