; generated by PrusaSlicer 2.8.0+win64 on 2025-01-05 at 20:44:48 UTC


;
;
; 

; external perimeters extrusion width = 0.45mm
; perimeters extrusion width = 0.45mm
; infill extrusion width = 0.45mm
; solid infill extrusion width = 0.45mm
; top infill extrusion width = 0.40mm
; support material extrusion width = 0.35mm
; first layer extrusion width = 0.42mm

M73 P0 R22
M73 Q0 S22
M201 X1000 Y1000 Z200 E5000 ; sets maximum accelerations, mm/sec^2
M203 X200 Y200 Z12 E120 ; sets maximum feedrates, mm / sec
M204 S1250 T1250 ; sets acceleration (S) and retract acceleration (R), mm/sec^2
M205 X8.00 Y8.00 Z0.40 E4.50 ; sets the jerk limits, mm/sec
M205 S0 T0 ; sets the minimum extruding and travel feed rate, mm/sec

; printing object sdcard_cover.stl id:0 copy 0
; stop printing object sdcard_cover.stl id:0 copy 0

;TYPE:Custom
M862.3 P "MK3S" ; printer model check
M862.1 P0.4 ; nozzle diameter check
M115 U3.13.3 ; tell printer latest fw version
G90 ; use absolute coordinates
M83 ; extruder relative mode
M104 S230 ; set extruder temp
M140 S85 ; set bed temp
M190 S85 ; wait for bed temp
M109 S230 ; wait for extruder temp
G28 W ; home all without mesh bed level
G80 X193.51 Y20.236 W41.5573 H10.8 ; mesh bed levelling

G1 Z0.2 F720
G1 Y-3 F1000 ; go outside print area
G92 E0
G1 X60 E9 F1000 ; intro line
G1 X100 E12.5 F1000 ; intro line

G92 E0
M221 S95

; Don't change E values below. Excessive value can damage the printer.
M907 E430 ; set extruder motor current
G21 ; set units to millimeters
G90 ; use absolute coordinates
M83 ; use relative distances for extrusion

M900 K0.08 ; Filament gcode LA 1.5
M900 K45 ; Filament gcode LA 1.0




M107
;LAYER_CHANGE
;Z:0.2
;HEIGHT:0.2
G1 E-1 F2100
G1 Z.4 F720
G1 X195.529 Y23.837 F10800
G1 Z.2 F720
G1 E1 F2100
M204 S800
;TYPE:Skirt/Brim
;WIDTH:0.42
G1 F1200
G1 X195.823 Y22.812 E.03343
G1 X196.338 Y21.99 E.03041
G1 X197.019 Y21.347 E.02937
G1 X197.72 Y20.948 E.02529
G1 X198.567 Y20.693 E.02773
G1 X230.32 Y20.681 E.99559
G1 X231.191 Y20.92 E.02832
G1 X231.965 Y21.35 E.02776
G1 X232.562 Y21.901 E.02547
G1 X233.041 Y22.581 E.02608
G1 X233.433 Y23.729 E.03804
G1 X233.472 Y27.265 E.11088
G1 X233.176 Y28.409 E.03705
G1 X232.637 Y29.282 E.03217
G1 X232.027 Y29.87 E.02657
G1 X231.467 Y30.231 E.02089
G1 X230.45 Y30.571 E.03362
G1 X198.842 Y30.618 E.99105
G1 X197.711 Y30.321 E.03666
G1 X196.729 Y29.69 E.0366
G1 X195.965 Y28.757 E.03781
G1 X195.554 Y27.596 E.03862
G1 X195.53 Y23.897 E.11598
M204 S1000
G1 X195.53 Y23.897 F10800
G1 X195.907 Y23.895
M204 S800
G1 F1200
G1 X195.906 Y23.862 E.00104
G1 X196.157 Y22.988 E.02851
G1 X196.616 Y22.247 E.02733
G1 X197.261 Y21.637 E.02784
G1 X197.885 Y21.288 E.02242
G1 X198.648 Y21.062 E.02495
G1 X230.247 Y21.052 E.99076
G1 X231.028 Y21.261 E.02535
M73 P1 R22
M73 Q1 S22
G1 X231.761 Y21.668 E.02629
G1 X232.291 Y22.164 E.02276
G1 X232.695 Y22.732 E.02185
G1 X233.056 Y23.765 E.03431
G1 X233.095 Y27.244 E.10909
G1 X232.84 Y28.235 E.03208
G1 X232.329 Y29.062 E.03048
G1 X231.78 Y29.585 E.02377
G1 X231.324 Y29.881 E.01705
G1 X230.359 Y30.203 E.0319
G1 X198.866 Y30.241 E.98744
G1 X197.888 Y29.987 E.03168
M73 P1 R21
G1 X196.989 Y29.415 E.03341
G1 X196.29 Y28.564 E.03453
G1 X195.921 Y27.502 E.03525
G1 X195.907 Y23.955 E.11121
M204 S1000
G1 X195.907 Y23.955 F10800
G1 X196.284 Y23.955
M204 S800
G1 F1200
G1 X196.283 Y23.89 E.00204
G1 X196.511 Y23.121 E.02515
G1 X196.921 Y22.47 E.02412
G1 X197.501 Y21.929 E.02487
G1 X198.012 Y21.643 E.01836
G1 X198.729 Y21.431 E.02344
G1 X230.176 Y21.423 E.986
G1 X230.867 Y21.602 E.02238
G1 X231.556 Y21.985 E.02472
G1 X232.018 Y22.424 E.01998
G1 X232.35 Y22.886 E.01784
G1 X232.679 Y23.802 E.03052
G1 X232.718 Y27.222 E.10724
G1 X232.483 Y28.11 E.0288
G1 X232.024 Y28.84 E.02704
G1 X231.181 Y29.531 E.03418
G1 X230.269 Y29.836 E.03015
G1 X198.891 Y29.864 E.98384
G1 X198.014 Y29.63 E.02846
M73 Q1 S21
G1 X197.249 Y29.141 E.02847
G1 X196.615 Y28.373 E.03123
G1 X196.288 Y27.411 E.03186
G1 X196.284 Y24.015 E.10648
M204 S1000
G1 X196.284 Y24.015 F10800
G1 X196.66 Y24.015
M204 S800
G1 F1200
G1 X196.66 Y23.92 E.00298
G1 X196.863 Y23.257 E.02174
G1 X197.224 Y22.695 E.02094
G1 X197.739 Y22.222 E.02192
G1 X198.139 Y21.999 E.01436
G1 X198.81 Y21.801 E.02194
G1 X230.107 Y21.794 E.9813
G1 X230.708 Y21.945 E.01943
G1 X231.315 Y22.276 E.02168
G1 X231.745 Y22.685 E.01861
G1 X232.027 Y23.083 E.01529
G1 X232.303 Y23.838 E.0252
G1 X232.34 Y27.2 E.10542
G1 X232.127 Y27.982 E.02541
G1 X231.72 Y28.615 E.0236
G1 X231.036 Y29.182 E.02786
G1 X230.178 Y29.469 E.02837
G1 X198.917 Y29.487 E.98017
G1 X198.142 Y29.275 E.02519
G1 X197.51 Y28.868 E.02357
G1 X196.942 Y28.183 E.0279
G1 X196.655 Y27.321 E.02849
G1 X196.66 Y24.075 E.10178
M204 S1000
G1 X196.66 Y24.075 F10800
G1 X197.037 Y24.077
M204 S800
G1 F1200
G1 X197.037 Y23.952 E.00392
G1 X197.214 Y23.397 E.01827
G1 X197.497 Y22.956 E.01643
G1 X197.977 Y22.515 E.02044
G1 X198.89 Y22.17 E.0306
G1 X230.041 Y22.166 E.97672
G1 X230.55 Y22.289 E.01642
G1 X231.111 Y22.594 E.02002
G1 X231.47 Y22.943 E.0157
G1 X231.685 Y23.242 E.01155
G1 X231.926 Y23.877 E.0213
G1 X231.963 Y27.176 E.10344
G1 X231.773 Y27.851 E.02199
M73 Q2 S21
G1 X231.447 Y28.354 E.01879
G1 X230.848 Y28.854 E.02446
G1 X230.09 Y29.101 E.025
G1 X198.943 Y29.11 E.97659
G1 X198.273 Y28.92 E.02184
M73 P2 R21
G1 X197.77 Y28.595 E.01878
G1 X197.27 Y27.995 E.02449
G1 X197.023 Y27.234 E.02509
G1 X197.036 Y24.137 E.09711
M204 S1000
G1 X197.036 Y24.137 F10800
G1 X197.413 Y24.14
M204 S800
G1 F1200
G1 X197.414 Y23.986 E.00483
G1 X197.564 Y23.54 E.01475
G1 X197.772 Y23.215 E.0121
G1 X198.185 Y22.83 E.0177
G1 X198.971 Y22.539 E.02628
G1 X230.019 Y22.543 E.97349
G1 X230.392 Y22.632 E.01202
G1 X230.906 Y22.912 E.01835
G1 X231.345 Y23.406 E.02072
G1 X231.549 Y23.918 E.01728
G1 X231.585 Y27.151 E.10137
G1 X231.419 Y27.717 E.01849
G1 X231.174 Y28.093 E.01407
G1 X230.664 Y28.524 E.02094
G1 X230.005 Y28.733 E.02168
G1 X198.971 Y28.733 E.97305
G1 X198.407 Y28.567 E.01843
G1 X198.032 Y28.322 E.01404
G1 X197.6 Y27.811 E.02098
G1 X197.392 Y27.15 E.02173
G1 X197.413 Y24.2 E.0925
M204 S1000
G1 X197.413 Y24.2 F10800
G1 X197.79 Y24.202
M204 S800
G1 F1200
G1 X197.791 Y24.022 E.00564
G1 X198.048 Y23.473 E.01901
G1 X198.399 Y23.141 E.01515
G1 X199.001 Y22.916 E.02015
G1 X229.997 Y22.92 E.97186
G1 X230.66 Y23.199 E.02255
G1 X231.024 Y23.606 E.01712
G1 X231.185 Y24.021 E.01396
G1 X231.208 Y27.123 E.09726
G1 X231.068 Y27.579 E.01496
G1 X230.901 Y27.832 E.0095
G1 X230.482 Y28.193 E.01734
G1 X229.975 Y28.356 E.0167
G1 X199.001 Y28.356 E.97117
G1 X198.545 Y28.215 E.01497
G1 X198.293 Y28.049 E.00946
G1 X197.931 Y27.629 E.01739
G1 X197.769 Y27.122 E.01669
G1 X197.789 Y24.262 E.08968
M204 S1000
G1 X197.789 Y24.262 F10800
G1 X198.156 Y24.264
M204 S800
G1 F1200
G1 X198.157 Y24.119 E.00455
G1 X198.348 Y23.702 E.01438
G1 X198.671 Y23.412 E.01361
G1 X199.033 Y23.293 E.01195
G1 X229.976 Y23.297 E.9702
G1 X230.416 Y23.488 E.01504
G1 X230.701 Y23.801 E.01327
G1 X230.82 Y24.12 E.01068
G1 X230.831 Y27.092 E.09319
G1 X230.629 Y27.57 E.01627
G1 X230.306 Y27.86 E.01361
G1 X229.944 Y27.979 E.01195
G1 X199.033 Y27.979 E.96919
G1 X198.555 Y27.776 E.01628
G1 X198.265 Y27.453 E.01361
G1 X198.146 Y27.092 E.01192
G1 X198.156 Y24.324 E.08679
M204 S1000
G1 X198.156 Y24.324 F10800
M73 Q3 S21
G1 X198.523 Y24.324
M204 S800
G1 F1200
G1 X198.523 Y24.215 E.00342
G1 X198.62 Y23.964 E.00844
G1 X198.855 Y23.747 E.01003
G1 X199.068 Y23.67 E.0071
G1 X229.955 Y23.677 E.96844
G1 X230.355 Y23.961 E.01538
M73 P3 R21
G1 X230.454 Y24.215 E.00855
G1 X230.454 Y27.057 E.08911
G1 X230.357 Y27.308 E.00844
G1 X230.122 Y27.525 E.01003
G1 X229.909 Y27.602 E.0071
G1 X199.068 Y27.602 E.967
G1 X198.816 Y27.504 E.00848
G1 X198.599 Y27.27 E.01001
G1 X198.523 Y27.057 E.00709
G1 X198.523 Y24.384 E.08381
M204 S1000
G1 X198.523 Y24.384 F10800
G1 X198.9 Y24.384
M204 S800
G1 F1200
G1 X198.9 Y24.257 E.00398
G1 X199.11 Y24.047 E.00931
G1 X229.867 Y24.047 E.96436
G1 X230.077 Y24.257 E.00931
G1 X230.077 Y27.015 E.08648
G1 X229.867 Y27.225 E.00931
G1 X199.11 Y27.225 E.96436
G1 X198.9 Y27.015 E.00931
G1 X198.9 Y24.444 E.08061
M204 S1000
;WIPE_START
G1 F8640
G1 X198.9 Y24.384 E-.01385
G1 X198.9 Y24.257 E-.02932
G1 X199.11 Y24.047 E-.06857
G1 X202.957 Y24.047 E-.88826
;WIPE_END
G1 Z.4 F720
; printing object sdcard_cover.stl id:0 copy 0
G1 X234.879 Y29.926 F10800
G1 Z.2 F720
G1 E1 F2100
M204 S800
;TYPE:Support material
G1 F1200
G1 X233.151 Y29.926 E.05418
G1 X233.888 Y28.984 E.0375
G1 X234.299 Y27.159 E.05865
G1 X234.299 Y24.123 E.09519
G1 X234.204 Y23.346 E.02454
G1 X234.879 Y23.346 E.02116
G1 X234.879 Y29.869 E.20452
M204 S1000
G1 X234.879 Y29.869 F10800
G1 X234.399 Y29.756
M204 S800
G1 F1200
G1 X234.399 Y28.257 E.047
G1 X234.202 Y29.133 E.02815
G1 X233.98 Y29.417 E.0113
G1 X233.98 Y29.756 E.01063
M204 S1000
;WIPE_START
G1 F8640
G1 X233.98 Y29.417 E-.07828
G1 X234.202 Y29.133 E-.08323
G1 X234.399 Y28.257 E-.20732
G1 X234.399 Y29.756 E-.34612
;WIPE_END
G1 E-.28505 F2100
G1 Z.4 F720
G1 X195.089 Y22.288 F10800
G1 Z.2 F720
G1 E1 F2100
M204 S800
G1 F1200
G1 X194.679 Y24.113 E.05865
G1 X194.679 Y27.149 E.09519
G1 X194.762 Y27.833 E.0216
G1 X193.699 Y26.694 E.04885
G1 X193.699 Y24.18 E.07882
G1 X194.199 Y23.68 E.02217
G1 X194.199 Y21.346 E.07318
G1 X195.826 Y21.346 E.05101
G1 X195.124 Y22.243 E.03571
M204 S1000
G1 X195.124 Y22.243 F10800
G1 X195.016 Y22.106
M204 S800
G1 F1200
G1 X195.016 Y21.685 E.0132
G1 X194.597 Y21.685 E.01314
G1 X194.597 Y23.704 E.0633
M204 S1000
G1 X194.597 Y23.704 F10800
G1 X194.178 Y26.959
M204 S800
G1 F1200
G1 X194.178 Y23.941 E.09463
M204 S1000
;WIPE_START
G1 F8640
G1 X194.178 Y26.959 E-.69686
;WIPE_END
G1 E-.30314 F2100
G1 Z.4 F720
G1 X228.751 Y25.898 F10800
G1 Z.2 F720
G1 E1 F2100
M204 S800
;TYPE:Perimeter
;WIDTH:0.567302
G1 F1200
G1 X200.226 Y25.898 E1.24376
G1 X200.226 Y25.374 E.02285
G1 X228.751 Y25.374 E1.24376
G1 X228.751 Y25.636 E.01142
M73 P4 R21
M73 Q4 S21
G1 X228.751 Y25.838 E.00881
M204 S1000
G1 X228.751 Y25.838 F10800
G1 X229.201 Y26.349
M204 S800
;WIDTH:0.419999
G1 F1200
G1 X199.776 Y26.349 E.9226
G1 X199.776 Y24.923 E.04471
G1 X229.201 Y24.923 E.9226
G1 X229.201 Y25.636 E.02236
G1 X229.201 Y26.289 E.02047
M204 S1000
G1 X229.201 Y26.289 F10800
G1 X229.579 Y26.726
M204 S800
;TYPE:External perimeter
G1 F1200
G1 X199.399 Y26.726 E.94627
G1 X199.399 Y24.546 E.06835
G1 X229.579 Y24.546 E.94627
G1 X229.579 Y25.636 E.03418
G1 X229.579 Y26.666 E.03229
M204 S1000
;LAYER_CHANGE
;Z:0.4
;HEIGHT:0.2
;BEFORE_LAYER_CHANGE
G92 E0.0
;0.4


;WIPE_START
G1 F8640
G1 X229.579 Y26.726 E-.01385
G1 X225.308 Y26.726 E-.98615
;WIPE_END
G1 Z.4 F720
;AFTER_LAYER_CHANGE
;0.4
M104 S240 ; set temperature
M140 S90 ; set bed temperature
G1 Z.6
G1 X228.949 Y26.097 F10800
G1 Z.4 F720
G1 E1 F2100
M204 S800
;TYPE:Perimeter
;WIDTH:0.449999
G1 F922
G1 X200.028 Y26.097 E.97894
G1 X200.028 Y25.175 E.03121
G1 X228.949 Y25.175 E.97894
G1 X228.949 Y25.636 E.0156
G1 X228.949 Y26.037 E.01357
M204 S1000
G1 X228.949 Y26.037 F10800
G1 X229.356 Y26.504
M204 S800
G1 F922
G1 X199.621 Y26.504 E1.00649
G1 X199.621 Y24.768 E.05876
M73 P5 R21
M73 Q5 S21
G1 X229.356 Y24.768 E1.00649
G1 X229.356 Y25.636 E.02938
G1 X229.356 Y26.444 E.02735
M204 S1000
G1 X229.356 Y26.444 F10800
G1 X229.764 Y26.911
M204 S800
;TYPE:External perimeter
G1 F922
G1 X199.214 Y26.911 E1.03408
G1 X199.214 Y24.361 E.08631
G1 X229.764 Y24.361 E1.03408
G1 X229.764 Y25.636 E.04316
G1 X229.764 Y26.851 E.04113
M204 S1000
;WIPE_START
G1 F8640
G1 X229.764 Y26.911 E-.01385
G1 X225.493 Y26.911 E-.98615
;WIPE_END
G1 Z.6 F720
G1 X200.489 Y25.636 F10800
G1 Z.4 F720
G1 E1 F2100
;TYPE:Solid infill
;WIDTH:0.638944
G1 F922
G1 X228.489 Y25.636 E1.38767
;LAYER_CHANGE
;Z:0.447917
;HEIGHT:0.0479167
;BEFORE_LAYER_CHANGE
G92 E0.0
;0.447917


;WIPE_START
G1 F8640
M73 P5 R20
G1 X224.158 Y25.636 E-1
;WIPE_END
G1 Z.448 F720
;AFTER_LAYER_CHANGE
;0.447917
G1 Z.648
G1 X230.588 Y26.983 F10800
G1 Z.448 F720
G1 E1 F2100
;TYPE:Support material
;WIDTH:0.35
;HEIGHT:0.247917
G1 F993
G1 X231.935 Y26.983 E.04121
G1 X231.935 Y26.289 E.02123
G1 X230.542 Y26.289 E.04261
G1 X230.542 Y26.983 E.02123
;WIPE_START
G1 F8640
G1 X230.542 Y26.289 E-.16025
G1 X231.935 Y26.289 E-.32165
G1 X231.935 Y26.983 E-.16025
G1 X230.588 Y26.983 E-.31103
;WIPE_END
G1 E-.04682 F2100
G1 Z.648 F720
G1 X198.236 Y25.77 F10800
G1 Z.448 F720
G1 E1 F2100
G1 F993
G1 X198.435 Y26.068 E.01096
G1 X198.435 Y26.958 E.02723
G1 X197.679 Y26.631 E.0252
G1 X196.738 Y25.636 E.04189
G1 X198.16 Y25.636 E.0435
G1 X197.835 Y25.056 E.02034
G1 X197.835 Y24.289 E.02346
G1 X197.142 Y24.289 E.0212
G1 X197.142 Y24.436 E.0045
G1 X196.814 Y25.227 E.0262
G1 X196.642 Y25.4 E.00746
G1 X196.642 Y25.52 E.00367
;LAYER_CHANGE
;Z:0.6
;HEIGHT:0.152083
;BEFORE_LAYER_CHANGE
G92 E0.0
;0.6


;WIPE_START
G1 F8640
G1 X196.642 Y25.4 E-.02771
G1 X196.814 Y25.227 E-.05633
G1 X197.142 Y24.436 E-.19772
G1 X197.142 Y24.289 E-.03394
G1 X197.835 Y24.289 E-.16002
G1 X197.835 Y25.056 E-.1771
G1 X198.16 Y25.636 E-.15352
G1 X197.321 Y25.636 E-.19366
;WIPE_END
G1 Z.6 F720
;AFTER_LAYER_CHANGE
;0.6
G1 Z.8
G1 X228.949 Y26.097 F10800
G1 Z.6 F720
G1 E1 F2100
M204 S800
;TYPE:Perimeter
;WIDTH:0.449999
;HEIGHT:0.2
G1 F993
G1 X200.028 Y26.097 E.97894
G1 X200.028 Y25.175 E.03121
M73 P6 R20
M73 Q6 S20
G1 X228.949 Y25.175 E.97894
G1 X228.949 Y25.636 E.0156
G1 X228.949 Y26.037 E.01357
M204 S1000
G1 X228.949 Y26.037 F10800
G1 X229.356 Y26.504
M204 S800
G1 F993
G1 X199.621 Y26.504 E1.00649
G1 X199.621 Y24.768 E.05876
G1 X229.356 Y24.768 E1.00649
G1 X229.356 Y25.636 E.02938
G1 X229.356 Y26.444 E.02735
M204 S1000
G1 X229.356 Y26.444 F10800
G1 X229.764 Y26.911
M204 S800
;TYPE:External perimeter
G1 F993
G1 X199.214 Y26.911 E1.03408
G1 X199.214 Y24.361 E.08631
G1 X229.764 Y24.361 E1.03408
G1 X229.764 Y25.636 E.04316
G1 X229.764 Y26.851 E.04113
M204 S1000
;WIPE_START
G1 F8640
G1 X229.764 Y26.911 E-.01385
G1 X225.493 Y26.911 E-.98615
;WIPE_END
G1 Z.8 F720
G1 X200.489 Y25.636 F10800
G1 Z.6 F720
G1 E1 F2100
;TYPE:Solid infill
;WIDTH:0.638944
G1 F993
G1 X228.489 Y25.636 E1.38767
M106 S63.75
;LAYER_CHANGE
;Z:0.695833
;HEIGHT:0.0958333
;BEFORE_LAYER_CHANGE
G92 E0.0
;0.695833


;WIPE_START
G1 F8640
G1 X224.158 Y25.636 E-1
;WIPE_END
G1 Z.696 F720
;AFTER_LAYER_CHANGE
;0.695833
G1 Z.896
G1 X230.588 Y26.983 F10800
G1 Z.696 F720
G1 E1 F2100
;TYPE:Support material
;WIDTH:0.35
;HEIGHT:0.247917
G1 F993
G1 X231.935 Y26.983 E.04121
G1 X231.935 Y26.289 E.02123
G1 X230.542 Y26.289 E.04261
G1 X230.542 Y26.983 E.02123
M73 Q7 S20
;WIPE_START
G1 F8640
G1 X230.542 Y26.289 E-.16025
G1 X231.935 Y26.289 E-.32165
G1 X231.935 Y26.983 E-.16025
G1 X230.588 Y26.983 E-.31103
;WIPE_END
G1 E-.04682 F2100
G1 Z.896 F720
G1 X198.236 Y25.77 F10800
G1 Z.696 F720
M73 P7 R20
G1 E1 F2100
G1 F993
G1 X198.435 Y26.068 E.01096
G1 X198.435 Y26.958 E.02723
G1 X197.679 Y26.631 E.0252
G1 X196.738 Y25.636 E.04189
G1 X198.16 Y25.636 E.0435
G1 X197.835 Y25.056 E.02034
G1 X197.835 Y24.289 E.02346
G1 X197.142 Y24.289 E.0212
G1 X197.142 Y24.436 E.0045
G1 X196.814 Y25.227 E.0262
G1 X196.642 Y25.4 E.00746
G1 X196.642 Y25.52 E.00367
;LAYER_CHANGE
;Z:0.8
;HEIGHT:0.104167
;BEFORE_LAYER_CHANGE
G92 E0.0
;0.8


;WIPE_START
G1 F8640
G1 X196.642 Y25.4 E-.02771
G1 X196.814 Y25.227 E-.05633
G1 X197.142 Y24.436 E-.19772
G1 X197.142 Y24.289 E-.03394
G1 X197.835 Y24.289 E-.16002
G1 X197.835 Y25.056 E-.1771
G1 X198.16 Y25.636 E-.15352
G1 X197.321 Y25.636 E-.19366
;WIPE_END
G1 Z.8 F720
;AFTER_LAYER_CHANGE
;0.8
G1 Z1
G1 X228.949 Y26.097 F10800
G1 Z.8 F720
G1 E1 F2100
M204 S800
;TYPE:Perimeter
;WIDTH:0.449999
;HEIGHT:0.2
G1 F993
G1 X200.028 Y26.097 E.97894
G1 X200.028 Y25.175 E.03121
G1 X228.949 Y25.175 E.97894
G1 X228.949 Y25.636 E.0156
G1 X228.949 Y26.037 E.01357
M204 S1000
G1 X228.949 Y26.037 F10800
G1 X229.356 Y26.504
M204 S800
G1 F993
G1 X199.621 Y26.504 E1.00649
G1 X199.621 Y24.768 E.05876
G1 X229.356 Y24.768 E1.00649
G1 X229.356 Y25.636 E.02938
G1 X229.356 Y26.444 E.02735
M204 S1000
G1 X229.356 Y26.444 F10800
G1 X229.764 Y26.911
M204 S800
;TYPE:External perimeter
G1 F993
G1 X199.214 Y26.911 E1.03408
G1 X199.214 Y24.361 E.08631
G1 X229.764 Y24.361 E1.03408
G1 X229.764 Y25.636 E.04316
M73 Q8 S20
