; generated by PrusaSlicer 2.8.0+win64 on 2025-01-17 at 18:54:57 UTC


;
;
; 

; external perimeters extrusion width = 0.60mm
; perimeters extrusion width = 0.50mm
; infill extrusion width = 0.50mm
; solid infill extrusion width = 0.50mm
; top infill extrusion width = 0.45mm
; first layer extrusion width = 0.42mm

M73 P0 R8
M73 Q0 S8
M201 X1000 Y1000 Z200 E5000 ; sets maximum accelerations, mm/sec^2
M203 X200 Y200 Z12 E120 ; sets maximum feedrates, mm / sec
M204 S1250 T1250 ; sets acceleration (S) and retract acceleration (R), mm/sec^2
M205 X8.00 Y8.00 Z0.40 E4.50 ; sets the jerk limits, mm/sec
M205 S0 T0 ; sets the minimum extruding and travel feed rate, mm/sec

; printing object USBA_TEMP_BASE.stl id:0 copy 0
; stop printing object USBA_TEMP_BASE.stl id:0 copy 0

;TYPE:Custom
M862.3 P "MK3S" ; printer model check
M862.1 P0.4 ; nozzle diameter check
M115 U3.13.3 ; tell printer latest fw version
G90 ; use absolute coordinates
M83 ; extruder relative mode
M104 S210 ; set extruder temp
M140 S67 ; set bed temp
M190 S67 ; wait for bed temp
M109 S210 ; wait for extruder temp
G28 W ; home all without mesh bed level
G80 X190.002 Y12.4474 W29.5083 H23.3083 ; mesh bed levelling

G1 Z0.2 F720
G1 Y-3 F1000 ; go outside print area
G92 E0
G1 X60 E9 F1000 ; intro line
G1 X100 E12.5 F1000 ; intro line

G92 E0
M221 S95

; Don't change E values below. Excessive value can damage the printer.

M907 E538 ; set extruder motor current
G21 ; set units to millimeters
G90 ; use absolute coordinates
M83 ; use relative distances for extrusion
M900 K0.05 ; Filament gcode LA 1.5
M900 K30 ; Filament gcode LA 1.0
M107
;LAYER_CHANGE
;Z:0.2
;HEIGHT:0.2
G1 E-.8 F2100
M73 P1 R8
M73 Q1 S8
G1 Z.6 F720
G1 X190.19 Y15.202 F10800
G1 Z.2 F720
G1 E.8 F2100
M204 S800
;TYPE:Skirt/Brim
;WIDTH:0.42
G1 F1200
G1 X190.582 Y13.838 E.0445
G1 X191.639 Y12.892 E.04448
G1 X192.756 Y12.636 E.03593
G1 X216.756 Y12.636 E.7525
G1 X218.119 Y13.028 E.04447
G1 X219.066 Y14.085 E.0445
G1 X219.321 Y15.202 E.03592
G1 X219.321 Y33.002 E.55811
G1 X218.929 Y34.365 E.04447
M73 Q2 S8
G1 X217.873 Y35.311 E.04445
G1 X216.756 Y35.567 E.03593
G1 X192.756 Y35.567 E.7525
G1 X191.393 Y35.175 E.04447
M73 P2 R8
G1 X190.446 Y34.118 E.0445
G1 X190.19 Y33.002 E.0359
G1 X190.19 Y15.262 E.55623
M204 S1000
G1 X190.19 Y15.262 F10800
G1 X190.567 Y15.262
M204 S800
G1 F1200
G1 X190.567 Y15.202 E.00188
G1 X190.958 Y13.953 E.04104
G1 X191.991 Y13.151 E.041
G1 X192.756 Y13.013 E.02437
G1 X216.756 Y13.013 E.7525
G1 X218.004 Y13.404 E.04101
M73 P2 R7
G1 X218.806 Y14.437 E.041
G1 X218.944 Y15.202 E.02437
G1 X218.944 Y33.002 E.55811
G1 X218.554 Y34.25 E.041
M73 Q3 S7
G1 X217.521 Y35.052 E.041
G1 X216.756 Y35.19 E.02437
G1 X192.756 Y35.19 E.7525
G1 X191.508 Y34.799 E.04101
M73 P3 R7
G1 X190.705 Y33.766 E.04102
G1 X190.567 Y33.002 E.02434
G1 X190.567 Y15.322 E.55434
M204 S1000
;WIPE_START
G1 F8640
G1 X190.567 Y15.262 E-.01385
G1 X190.567 Y15.202 E-.01385
G1 X190.958 Y13.953 E-.3022
G1 X191.991 Y13.151 E-.30197
G1 X192.707 Y13.022 E-.16813
;WIPE_END
G1 Z.6 F720
; printing object USBA_TEMP_BASE.stl id:0 copy 0
G1 X213.154 Y24.601 F10800
G1 Z.2 F720
G1 E.8 F2100
M204 S800
;TYPE:Perimeter
;WIDTH:0.419999
G1 F1200
G1 X213.081 Y24.948 E.01112
G1 X212.828 Y25.495 E.0189
G1 X212.507 Y25.93 E.01695
G1 X212.109 Y26.297 E.01697
G1 X211.651 Y26.584 E.01695
G1 X211.146 Y26.78 E.01698
G1 X210.615 Y26.878 E.01693
G1 X210.074 Y26.876 E.01696
G1 X209.543 Y26.773 E.01696
G1 X209.04 Y26.573 E.01697
G1 X208.584 Y26.282 E.01696
G1 X208.19 Y25.912 E.01695
G1 X207.872 Y25.475 E.01695
G1 X207.732 Y25.2 E.00968
G1 X207.558 Y24.72 E.01601
G1 X207.474 Y24.193 E.01673
G1 X207.489 Y23.652 E.01697
G1 X207.604 Y23.124 E.01694
G1 X207.816 Y22.626 E.01697
G1 X208.117 Y22.176 E.01697
G1 X208.497 Y21.791 E.01696
G1 X208.942 Y21.483 E.01697
G1 X209.435 Y21.264 E.01691
G1 X210.15 Y21.125 E.02284
G1 X210.763 Y21.142 E.01923
G1 X211.298 Y21.271 E.01726
G1 X211.791 Y21.495 E.01698
G1 X212.233 Y21.806 E.01695
G1 X212.609 Y22.195 E.01696
G1 X212.907 Y22.647 E.01698
G1 X213.115 Y23.146 E.01695
G1 X213.226 Y23.675 E.01695
G1 X213.236 Y24.216 E.01697
G1 X213.167 Y24.542 E.01045
M204 S1000
G1 X213.167 Y24.542 F10800
G1 X212.798 Y24.525
M204 S800
G1 F1200
G1 X212.635 Y25.057 E.01745
G1 X212.398 Y25.464 E.01477
G1 X212.09 Y25.819 E.01474
G1 X211.721 Y26.11 E.01473
G1 X211.304 Y26.328 E.01475
G1 X210.853 Y26.464 E.01477
G1 X210.385 Y26.513 E.01475
G1 X209.917 Y26.475 E.01472
G1 X209.463 Y26.349 E.01477
G1 X209.041 Y26.142 E.01474
G1 X208.665 Y25.859 E.01476
G1 X208.348 Y25.511 E.01476
G1 X208.086 Y25.07 E.01608
G1 X207.905 Y24.56 E.01697
G1 X207.842 Y24.026 E.01686
G1 X207.894 Y23.504 E.01645
G1 X208.03 Y23.054 E.01474
G1 X208.247 Y22.637 E.01474
G1 X208.539 Y22.268 E.01475
G1 X208.894 Y21.959 E.01476
G1 X209.3 Y21.722 E.01474
G1 X209.783 Y21.559 E.01598
G1 X210.34 Y21.488 E.01761
G1 X210.911 Y21.552 E.01802
G1 X211.46 Y21.75 E.0183
G1 X211.77 Y21.925 E.01116
G1 X212.132 Y22.225 E.01474
G1 X212.432 Y22.588 E.01477
G1 X212.659 Y23 E.01475
G1 X212.806 Y23.447 E.01475
G1 X212.866 Y23.913 E.01473
G1 X212.828 Y24.425 E.0161
G1 X212.815 Y24.468 E.00141
M204 S1000
G1 X212.815 Y24.468 F10800
G1 X212.43 Y24.446
M204 S800
G1 F1200
G1 X212.303 Y24.879 E.01415
G1 X212.105 Y25.227 E.01255
M73 Q4 S7
G1 X211.846 Y25.531 E.01252
G1 X211.535 Y25.782 E.01253
G1 X211.182 Y25.971 E.01255
G1 X210.8 Y26.09 E.01255
G1 X210.403 Y26.137 E.01253
G1 X210.004 Y26.108 E.01254
G1 X209.618 Y26.005 E.01253
G1 X209.257 Y25.833 E.01254
G1 X208.935 Y25.596 E.01254
G1 X208.662 Y25.303 E.01256
G1 X208.44 Y24.94 E.01334
G1 X208.27 Y24.468 E.01573
G1 X208.22 Y23.999 E.01479
M73 P4 R7
G1 X208.258 Y23.601 E.01254
G1 X208.37 Y23.216 E.01257
G1 X208.551 Y22.86 E.01252
G1 X208.796 Y22.543 E.01256
G1 X209.095 Y22.278 E.01253
G1 X209.438 Y22.073 E.01253
G1 X209.838 Y21.932 E.0133
G1 X210.34 Y21.865 E.01588
G1 X210.806 Y21.914 E.01469
G1 X211.29 Y22.086 E.01611
G1 X211.54 Y22.224 E.00895
G1 X211.85 Y22.476 E.01253
G1 X212.108 Y22.781 E.01253
G1 X212.305 Y23.13 E.01257
G1 X212.434 Y23.508 E.01252
G1 X212.489 Y23.904 E.01254
G1 X212.464 Y24.329 E.01335
G1 X212.446 Y24.388 E.00193
M204 S1000
G1 X212.446 Y24.388 F10800
G1 X212.062 Y24.367
M204 S800
;TYPE:External perimeter
G1 F1200
G1 X211.971 Y24.701 E.01085
G1 X211.812 Y24.99 E.01034
G1 X211.602 Y25.244 E.01033
G1 X211.349 Y25.454 E.01031
G1 X211.06 Y25.614 E.01036
G1 X210.747 Y25.717 E.01033
G1 X210.421 Y25.76 E.01031
G1 X210.092 Y25.741 E.01033
G1 X209.772 Y25.661 E.01034
G1 X209.473 Y25.523 E.01033
G1 X209.204 Y25.332 E.01034
G1 X208.866 Y24.928 E.01652
G1 X208.794 Y24.81 E.00433
G1 X208.632 Y24.353 E.0152
G1 X208.596 Y24.025 E.01035
G1 X208.623 Y23.697 E.01032
G1 X208.71 Y23.379 E.01034
G1 X208.855 Y23.083 E.01033
G1 X209.053 Y22.819 E.01035
G1 X209.296 Y22.597 E.01032
G1 X209.577 Y22.424 E.01035
G1 X209.892 Y22.305 E.01056
G1 X210.356 Y22.243 E.01468
G1 X210.701 Y22.276 E.01087
G1 X211.119 Y22.423 E.01389
G1 X211.543 Y22.702 E.01591
G1 X211.785 Y22.975 E.01144
G1 X211.951 Y23.259 E.01031
G1 X212.062 Y23.57 E.01035
G1 X212.112 Y23.896 E.01034
G1 X212.099 Y24.233 E.01057
G1 X212.078 Y24.309 E.00247
M204 S1000
;WIPE_START
G1 F8640
G1 X212.062 Y24.367 E-.01389
G1 X211.971 Y24.701 E-.07993
G1 X211.812 Y24.99 E-.07616
G1 X211.602 Y25.244 E-.0761
G1 X211.349 Y25.454 E-.07592
G1 X211.06 Y25.614 E-.07628
G1 X210.747 Y25.717 E-.07609
G1 X210.421 Y25.76 E-.07593
G1 X210.092 Y25.741 E-.07609
G1 X209.772 Y25.661 E-.07616
G1 X209.473 Y25.523 E-.07604
G1 X209.398 Y25.469 E-.02141
;WIPE_END
G1 Z.6 F720
G1 X196.685 Y22.523 F10800
G1 Z.2 F720
G1 E.8 F2100
M204 S800
;TYPE:Perimeter
G1 F1200
G1 X196.917 Y22.176 E.01309
G1 X197.297 Y21.791 E.01696
G1 X197.742 Y21.483 E.01697
G1 X198.235 Y21.264 E.01691
G1 X198.95 Y21.125 E.02284
G1 X199.563 Y21.142 E.01923
G1 X200.098 Y21.271 E.01726
G1 X200.591 Y21.495 E.01698
G1 X201.033 Y21.806 E.01695
G1 X201.409 Y22.195 E.01696
G1 X201.707 Y22.647 E.01698
G1 X201.915 Y23.146 E.01695
G1 X202.026 Y23.675 E.01695
G1 X202.036 Y24.216 E.01697
G1 X201.946 Y24.75 E.01698
G1 X201.757 Y25.257 E.01697
G1 X201.478 Y25.72 E.01695
G1 X201.131 Y26.109 E.01634
G1 X200.511 Y26.547 E.0238
G1 X199.946 Y26.78 E.01916
G1 X199.415 Y26.878 E.01693
G1 X198.874 Y26.876 E.01696
G1 X198.146 Y26.703 E.02346
G1 X197.605 Y26.438 E.01889
G1 X197.178 Y26.106 E.01696
G1 X196.82 Y25.701 E.01695
G1 X196.544 Y25.235 E.01698
G1 X196.36 Y24.727 E.01694
G1 X196.274 Y24.193 E.01696
G1 X196.289 Y23.652 E.01697
G1 X196.404 Y23.124 E.01694
G1 X196.616 Y22.626 E.01697
G1 X196.652 Y22.573 E.00201
M204 S1000
G1 X196.652 Y22.573 F10800
G1 X197.006 Y22.715
M204 S800
G1 F1200
G1 X197.047 Y22.637 E.00276
G1 X197.339 Y22.268 E.01475
G1 X197.694 Y21.959 E.01476
G1 X198.1 Y21.722 E.01474
G1 X198.583 Y21.559 E.01598
G1 X199.14 Y21.488 E.01761
G1 X199.711 Y21.552 E.01802
G1 X200.158 Y21.698 E.01474
G1 X200.57 Y21.925 E.01475
G1 X200.932 Y22.225 E.01474
G1 X201.232 Y22.588 E.01477
G1 X201.459 Y23 E.01475
G1 X201.606 Y23.447 E.01475
G1 X201.666 Y23.913 E.01473
G1 X201.639 Y24.383 E.01476
G1 X201.492 Y24.916 E.01734
G1 X201.274 Y25.345 E.01509
G1 X201.054 Y25.647 E.01172
G1 X200.693 Y25.983 E.01546
G1 X200.104 Y26.328 E.0214
G1 X199.653 Y26.464 E.01477
G1 X199.185 Y26.513 E.01475
G1 X198.675 Y26.464 E.01606
G1 X198.104 Y26.285 E.01876
G1 X197.646 Y26.009 E.01677
G1 X197.298 Y25.693 E.01474
G1 X197.016 Y25.317 E.01474
G1 X196.808 Y24.894 E.01478
G1 X196.683 Y24.441 E.01473
G1 X196.648 Y24.149 E.00922
G1 X196.665 Y23.679 E.01475
G1 X196.83 Y23.054 E.02027
G1 X196.978 Y22.769 E.01007
M204 S1000
G1 X196.978 Y22.769 F10800
G1 X197.327 Y22.907
M204 S800
G1 F1200
G1 X197.351 Y22.86 E.00165
G1 X197.596 Y22.543 E.01256
G1 X197.895 Y22.278 E.01253
G1 X198.238 Y22.073 E.01253
G1 X198.638 Y21.932 E.0133
G1 X199.14 Y21.865 E.01588
G1 X199.606 Y21.914 E.01469
G1 X199.987 Y22.035 E.01253
G1 X200.34 Y22.224 E.01255
G1 X200.65 Y22.476 E.01253
G1 X200.908 Y22.781 E.01253
G1 X201.105 Y23.13 E.01257
G1 X201.234 Y23.508 E.01252
G1 X201.289 Y23.904 E.01254
G1 X201.27 Y24.304 E.01256
G1 X201.144 Y24.77 E.01514
G1 X200.959 Y25.137 E.01289
G1 X200.784 Y25.384 E.00949
G1 X200.49 Y25.665 E.01275
G1 X199.982 Y25.971 E.01859
G1 X199.6 Y26.09 E.01255
G1 X199.203 Y26.137 E.01253
G1 X198.779 Y26.101 E.01334
G1 X198.267 Y25.945 E.01678
G1 X197.89 Y25.722 E.01373
G1 X197.592 Y25.455 E.01255
G1 X197.348 Y25.138 E.01254
G1 X197.168 Y24.781 E.01254
G1 X197.057 Y24.397 E.01253
G1 X197.023 Y24.105 E.00922
G1 X197.058 Y23.601 E.01584
G1 X197.17 Y23.216 E.01257
G1 X197.3 Y22.961 E.00897
M204 S1000
G1 X197.3 Y22.961 F10800
G1 X197.647 Y23.099
M204 S800
;TYPE:External perimeter
G1 F1200
G1 X197.655 Y23.083 E.00056
G1 X197.853 Y22.819 E.01035
G1 X198.096 Y22.597 E.01032
G1 X198.377 Y22.424 E.01035
G1 X198.692 Y22.305 E.01056
G1 X199.156 Y22.243 E.01468
G1 X199.501 Y22.276 E.01087
G1 X199.817 Y22.371 E.01035
G1 X200.109 Y22.523 E.01032
G1 X200.368 Y22.726 E.01032
G1 X200.585 Y22.975 E.01036
G1 X200.751 Y23.259 E.01031
G1 X200.862 Y23.57 E.01035
G1 X200.912 Y23.896 E.01034
G1 X200.901 Y24.225 E.01032
G1 X200.797 Y24.623 E.0129
G1 X200.535 Y25.094 E.0169
G1 X200.286 Y25.348 E.01115
G1 X199.86 Y25.614 E.01575
G1 X199.547 Y25.717 E.01033
G1 X199.221 Y25.76 E.01031
G1 X198.884 Y25.739 E.01059
G1 X198.419 Y25.599 E.01523
G1 X198.134 Y25.434 E.01033
G1 X197.885 Y25.218 E.01034
G1 X197.68 Y24.96 E.01033
G1 X197.527 Y24.668 E.01034
G1 X197.432 Y24.353 E.01032
G1 X197.397 Y24.06 E.00925
G1 X197.423 Y23.697 E.01141
G1 X197.51 Y23.379 E.01034
G1 X197.621 Y23.153 E.00789
M204 S1000
;WIPE_START
G1 F8640
G1 X197.647 Y23.099 E-.01384
G1 X197.655 Y23.083 E-.00413
G1 X197.853 Y22.819 E-.0762
G1 X198.096 Y22.597 E-.076
G1 X198.377 Y22.424 E-.07619
G1 X198.692 Y22.305 E-.07775
G1 X199.156 Y22.243 E-.10809
G1 X199.501 Y22.276 E-.08003
G1 X199.817 Y22.371 E-.07619
G1 X200.109 Y22.523 E-.07601
G1 X200.368 Y22.726 E-.07598
G1 X200.537 Y22.921 E-.05959
;WIPE_END
G1 Z.6 F720
G1 X215.215 Y31.46 F10800
M73 Q5 S7
G1 Z.2 F720
G1 E.8 F2100
M73 P5 R7
M204 S800
;TYPE:Perimeter
G1 F1200
G1 X194.297 Y31.46 E.65587
G1 X194.297 Y16.743 E.46144
G1 X215.215 Y16.743 E.65587
G1 X215.215 Y19.211 E.07738
G1 X215.215 Y31.4 E.38218
M204 S1000
G1 X215.215 Y31.4 F10800
G1 X215.592 Y31.837
M204 S800
G1 F1200
G1 X193.92 Y31.837 E.67951
G1 X193.92 Y16.366 E.48508
M73 Q6 S7
G1 X215.592 Y16.366 E.67951
M73 P6 R7
G1 X215.592 Y19.211 E.0892
G1 X215.592 Y31.777 E.394
M204 S1000
G1 X215.592 Y31.777 F10800
G1 X215.969 Y32.214
M204 S800
G1 F1200
G1 X193.543 Y32.214 E.70315
G1 X193.543 Y15.989 E.50872
G1 X215.969 Y15.989 E.70315
G1 X215.969 Y19.211 E.10102
M73 P7 R7
M73 Q7 S7
G1 X215.969 Y32.154 E.40582
M204 S1000
G1 X215.969 Y32.154 F10800
G1 X216.346 Y32.592
M204 S800
;TYPE:External perimeter
G1 F1200
G1 X193.166 Y32.592 E.72679
G1 X193.166 Y15.612 E.5324
G1 X216.346 Y15.612 E.72679
G1 X216.346 Y19.211 E.11284
M73 Q8 S7
G1 X216.346 Y32.532 E.41767
M73 P8 R7
M204 S1000
;WIPE_START
G1 F8640
G1 X216.346 Y32.592 E-.01385
G1 X212.941 Y32.592 E-.78615
;WIPE_END
G1 Z.6 F720
G1 X215.045 Y17.683 F10800
G1 Z.2 F720
G1 E.8 F2100
M204 S800
;TYPE:Solid infill
;WIDTH:0.424014
G1 F1200
G1 X214.444 Y17.082 E.02693
G1 X213.905 Y17.082 E.01708
G1 X214.875 Y18.053 E.04349
G1 X214.875 Y18.591 E.01705
G1 X213.366 Y17.082 E.06762
G1 X212.827 Y17.082 E.01708
G1 X214.875 Y19.13 E.09178
G1 X214.875 Y19.669 E.01708
G1 X212.288 Y17.082 E.11593
G1 X211.749 Y17.082 E.01708
G1 X214.875 Y20.208 E.14009
G1 X214.875 Y20.747 E.01708
G1 X211.21 Y17.082 E.16424
G1 X210.671 Y17.082 E.01708
G1 X214.875 Y21.286 E.1884
G1 X214.875 Y21.825 E.01708
G1 X210.132 Y17.082 E.21255
G1 X209.593 Y17.082 E.01708
G1 X214.875 Y22.364 E.23671
G1 X214.875 Y22.903 E.01708
G1 X209.054 Y17.082 E.26086
G1 X208.515 Y17.082 E.01708
G1 X214.875 Y23.442 E.28502
G1 X214.875 Y23.981 E.01708
G1 X207.976 Y17.082 E.30917
G1 X207.438 Y17.082 E.01705
M73 P9 R7
M73 Q9 S7
G1 X211.263 Y20.908 E.17143
G1 X210.798 Y20.805 E.01509
G1 X210.607 Y20.791 E.00607
G1 X206.899 Y17.082 E.16619
G1 X206.36 Y17.082 E.01708
G1 X210.071 Y20.793 E.1663
G1 X209.603 Y20.865 E.015
G1 X205.821 Y17.082 E.16951
G1 X205.282 Y17.082 E.01708
G1 X209.194 Y20.994 E.17531
G1 X208.824 Y21.163 E.01289
G1 X204.743 Y17.082 E.18288
G1 X204.204 Y17.082 E.01708
G1 X208.49 Y21.369 E.19209
G1 X208.193 Y21.61 E.01212
G1 X203.665 Y17.082 E.20292
G1 X203.126 Y17.082 E.01708
G1 X207.926 Y21.882 E.21511
G1 X207.691 Y22.187 E.0122
G1 X202.587 Y17.082 E.22875
G1 X202.048 Y17.082 E.01708
G1 X207.495 Y22.529 E.2441
G1 X207.324 Y22.897 E.01286
G1 X201.509 Y17.082 E.26059
G1 X200.97 Y17.082 E.01708
G1 X207.203 Y23.315 E.27932
G1 X207.159 Y23.534 E.00708
M73 Q10 S7
G1 X207.145 Y23.796 E.00831
G1 X200.431 Y17.082 E.30088
M73 P10 R7
G1 X199.892 Y17.082 E.01708
G1 X207.354 Y24.544 E.3344
M204 S1000
;WIPE_START
G1 F8640
G1 X204.904 Y22.094 E-.8
;WIPE_END
G1 Z.6 F720
G1 X213.176 Y22.821 F10800
G1 Z.2 F720
G1 E.8 F2100
M204 S800
G1 F1200
G1 X214.875 Y24.52 E.07614
G1 X214.875 Y25.059 E.01708
G1 X213.566 Y23.75 E.05866
G1 X213.583 Y23.886 E.00434
G1 X213.562 Y24.285 E.01266
G1 X214.875 Y25.598 E.05884
G1 X214.875 Y26.137 E.01708
G1 X213.482 Y24.744 E.06243
G1 X213.36 Y25.161 E.01377
G1 X214.875 Y26.676 E.06789
G1 X214.875 Y27.215 E.01708
G1 X213.193 Y25.533 E.07538
G1 X212.988 Y25.866 E.01239
G1 X214.875 Y27.754 E.08459
G1 X214.875 Y28.293 E.01708
G1 X212.749 Y26.166 E.0953
G1 X212.475 Y26.431 E.01208
G1 X214.875 Y28.832 E.10758
G1 X214.875 Y29.37 E.01705
G1 X212.171 Y26.666 E.12118
G1 X211.833 Y26.867 E.01246
G1 X214.875 Y29.909 E.13632
G1 X214.875 Y30.448 E.01708
G1 X211.455 Y27.028 E.15326
G1 X211.044 Y27.156 E.01364
G1 X214.875 Y30.987 E.17168
G1 X214.875 Y31.121 E.00425
G1 X214.47 Y31.121 E.01283
G1 X210.565 Y27.216 E.175
G1 X210.435 Y27.231 E.00415
G1 X210.021 Y27.211 E.01313
G1 X213.931 Y31.121 E.17522
G1 X213.392 Y31.121 E.01708
G1 X209.329 Y27.058 E.18208
G1 X208.895 Y26.88 E.01486
M73 P11 R7
M73 Q11 S7
G1 X208.637 Y26.733 E.00941
G1 X208.384 Y26.557 E.00977
G1 X208.157 Y26.365 E.00942
G1 X207.942 Y26.144 E.00977
G1 X207.755 Y25.913 E.00942
G1 X207.513 Y25.538 E.01414
