; generated by PrusaSlicer 2.0.0+win64 on 2020-09-20 at 14:32:51

; 

; external perimeters extrusion width = 0.45mm
; perimeters extrusion width = 0.45mm
; infill extrusion width = 0.45mm
; solid infill extrusion width = 0.45mm
; top infill extrusion width = 0.40mm
; support material extrusion width = 0.35mm
; first layer extrusion width = 0.42mm

M73 P0 R26
M73 Q0 S27
M201 X1000 Y1000 Z1000 E5000 ; sets maximum accelerations, mm/sec^2
M203 X200 Y200 Z12 E120 ; sets maximum feedrates, mm/sec
M204 P1250 R1250 T1250 ; sets acceleration (P, T) and retract acceleration (R), mm/sec^2
M205 X8.00 Y8.00 Z0.40 E1.50 ; sets the jerk limits, mm/sec
M205 S0 T0 ; sets the minimum extruding and travel feed rate, mm/sec
M107
M115 U3.8.0 ; tell printer latest fw version
G90 ; use absolute coordinates
M83 ; extruder relative mode
M104 S215 ; set extruder temp
M140 S67 ; set bed temp
M190 S67 ; wait for bed temp
M109 S215 ; wait for extruder temp
G28 W ; home all without mesh bed level
G80 ; mesh bed leveling
G1 Y-3.0 F1000.0 ; go outside print area
G92 E0.0
G1 X60.0 E9.0 F1000.0 ; intro line
M73 Q0 S27
M73 P0 R26
G1 X100.0 E12.5 F1000.0 ; intro line
G92 E0.0
M221 S95
M900 K30 ; Filament gcode
G21 ; set units to millimeters
G90 ; use absolute coordinates
M83 ; use relative distances for extrusion
;BEFORE_LAYER_CHANGE
G92 E0.0
;0.2


G1 E-0.80000 F2100.00000
G1 Z0.600 F10800.000
;AFTER_LAYER_CHANGE
;0.2
G1 X116.817 Y93.065
G1 Z0.200
G1 E0.80000 F2100.00000
M204 S1000
G1 F1200
G1 X116.817 Y84.658 E0.26358
G1 X117.571 Y84.658 E0.02365
G1 X117.571 Y92.895 E0.25826
G1 X118.325 Y92.895 E0.02365
G1 X118.325 Y84.658 E0.25826
G1 X118.377 Y84.658 E0.00162
G1 X118.377 Y82.351 E0.07234
G1 X119.079 Y82.351 E0.02203
G1 X119.079 Y92.895 E0.33060
G1 X119.833 Y92.895 E0.02365
G1 X119.833 Y82.351 E0.33060
G1 X120.588 Y82.351 E0.02365
G1 X120.588 Y92.895 E0.33060
G1 X120.928 Y92.895 E0.01068
G1 X120.928 Y90.452 E0.07661
G1 X121.170 Y90.210 E0.01074
G1 X121.342 Y90.210 E0.00537
G1 X121.342 Y82.351 E0.24640
G1 X122.096 Y82.351 E0.02365
G1 X122.096 Y90.210 E0.24640
G1 X122.850 Y90.210 E0.02365
G1 X122.850 Y82.351 E0.24640
G1 X123.604 Y82.351 E0.02365
G1 X123.604 Y92.895 E0.33060
G1 X124.358 Y92.895 E0.02365
G1 X124.358 Y82.351 E0.33060
G1 X125.112 Y82.351 E0.02365
G1 X125.112 Y92.895 E0.33060
G1 X125.867 Y92.895 E0.02365
G1 X125.867 Y82.351 E0.33060
G1 X126.614 Y82.351 E0.02342
G1 X126.621 Y92.895 E0.33060
G1 X127.375 Y92.895 E0.02365
G1 X127.375 Y84.658 E0.25826
G1 X128.129 Y84.658 E0.02365
G1 X128.129 Y92.895 E0.25826
G1 X128.883 Y92.895 E0.02365
G1 X128.883 Y84.658 E0.25826
G1 X129.637 Y84.658 E0.02365
G1 X129.637 Y92.895 E0.25826
G1 X130.392 Y92.895 E0.02365
G1 X130.392 Y84.658 E0.25826
G1 X131.146 Y84.658 E0.02365
G1 X131.146 Y93.065 E0.26358
G1 F8640
G1 X131.146 Y89.773 E-0.76000
G1 E-0.04000 F2100.00000
G1 Z0.800 F10800.000
G1 X128.883 Y127.671
G1 Z0.200
G1 E0.80000 F2100.00000
G1 F1200
G1 X128.883 Y119.264 E0.26358
G1 X128.129 Y119.264 E0.02365
G1 X128.129 Y127.501 E0.25826
G1 X127.375 Y127.501 E0.02365
G1 X127.375 Y119.264 E0.25826
G1 X126.621 Y119.264 E0.02365
G1 X126.621 Y127.501 E0.25826
G1 X125.867 Y127.501 E0.02365
G1 X125.867 Y119.264 E0.25826
G1 X125.112 Y119.264 E0.02365
G1 X125.112 Y127.501 E0.25826
G1 X124.358 Y127.501 E0.02365
G1 X124.358 Y119.264 E0.25826
G1 X123.604 Y119.264 E0.02365
G1 X123.604 Y127.501 E0.25826
G1 X122.850 Y127.501 E0.02365
G1 X122.850 Y122.037 E0.17134
G1 X122.096 Y122.037 E0.02365
G1 X122.096 Y127.501 E0.17134
G1 X121.342 Y127.501 E0.02365
G1 X121.342 Y122.037 E0.17134
G1 X121.170 Y122.037 E0.00537
G1 X120.928 Y121.795 E0.01074
G1 X120.928 Y119.264 E0.07933
G1 X120.588 Y119.264 E0.01068
G1 X120.588 Y127.501 E0.25826
G1 X119.833 Y127.501 E0.02365
G1 X119.833 Y119.264 E0.25826
G1 X119.079 Y119.264 E0.02365
G1 X119.079 Y127.671 E0.26358
G1 F8640
G1 X119.079 Y124.380 E-0.76000
G1 E-0.04000 F2100.00000
G1 Z0.800 F10800.000
G1 X121.929 Y121.036
G1 Z0.200
G1 E0.80000 F2100.00000
G1 F1200
G1 X121.929 Y91.210 E0.93517
G1 X122.555 Y91.210 E0.01962
G1 X122.555 Y121.036 E0.93517
G1 X121.989 Y121.036 E0.01774
G1 X121.552 Y121.413 F10800.000
G1 F1200
G1 X121.552 Y90.833 E0.95881
G1 X122.932 Y90.833 E0.04327
G1 X122.932 Y121.413 E0.95881
G1 X121.612 Y121.413 E0.04139
G1 X121.558 Y121.013 F10800.000
G1 X122.242 Y120.848
G1 F1200
G1 X122.242 Y91.399 E0.60915
M106 S255
;BEFORE_LAYER_CHANGE
G92 E0.0
;0.4


G1 F8640
G1 X122.242 Y94.690 E-0.76000
G1 E-0.04000 F2100.00000
G1 Z0.800 F10800.000
;AFTER_LAYER_CHANGE
;0.4
M140 S64 ; set bed temperature
G1 X121.974 Y91.255
G1 Z0.400
G1 E0.80000 F2100.00000
M204 S800
G1 F900
G1 X122.510 Y91.255 E0.01814
G1 X122.510 Y120.991 E1.00652
G1 X121.974 Y120.991 E0.01814
G1 X121.974 Y91.315 E1.00449
M204 S1000
G1 X121.567 Y90.848 F10800.000
M204 S800
G1 F900
G1 X122.917 Y90.848 E0.04570
G1 X122.917 Y121.398 E1.03408
G1 X121.567 Y121.398 E0.04570
G1 X121.567 Y90.908 E1.03205
M204 S1000
G1 X121.916 Y91.043 F10800.000
G1 X122.242 Y91.459
G1 F900
G1 X122.242 Y120.788 E0.31402
;BEFORE_LAYER_CHANGE
G92 E0.0
;0.441116


G1 F8640
G1 X122.242 Y117.496 E-0.76000
G1 E-0.04000 F2100.00000
G1 Z1.000 F10800.000
;AFTER_LAYER_CHANGE
;0.441116
G1 X126.094 Y122.229
G1 Z0.441
G1 E0.80000 F2100.00000
G1 F900
G1 X121.342 Y122.229 E0.14209
G1 X121.342 Y124.536 E0.06898
G1 X126.094 Y124.536 E0.14209
G1 F8640
G1 X122.803 Y124.536 E-0.76000
G1 E-0.04000 F2100.00000
G1 Z1.041 F10800.000
G1 X118.896 Y89.930
G1 Z0.441
G1 E0.80000 F2100.00000
G1 F900
G1 X128.263 Y89.930 E0.28005
G1 X128.263 Y87.623 E0.06898
G1 X119.035 Y87.623 E0.27591
G1 X121.342 Y87.623 E0.06898
G1 X121.342 Y85.316 E0.06898
G1 X123.787 Y85.316 E0.07311
;BEFORE_LAYER_CHANGE
G92 E0.0
;0.6


G1 F8640
G1 X121.342 Y85.316 E-0.56463
G1 X121.342 Y86.162 E-0.19537
G1 E-0.04000 F2100.00000
G1 Z1.041 F10800.000
;AFTER_LAYER_CHANGE
;0.6
G1 X121.974 Y91.255
G1 Z0.600
G1 E0.80000 F2100.00000
M204 S800
G1 F900
G1 X122.510 Y91.255 E0.01814
G1 X122.510 Y120.991 E1.00652
G1 X121.974 Y120.991 E0.01814
G1 X121.974 Y91.315 E1.00449
M204 S1000
G1 X121.567 Y90.848 F10800.000
M204 S800
G1 F900
G1 X122.917 Y90.848 E0.04570
G1 X122.917 Y121.398 E1.03408
G1 X121.567 Y121.398 E0.04570
G1 X121.567 Y90.908 E1.03205
M204 S1000
G1 X121.916 Y91.043 F10800.000
G1 X122.242 Y91.459
G1 F900
G1 X122.242 Y120.788 E0.31402
;BEFORE_LAYER_CHANGE
G92 E0.0
;0.682232


G1 F8640
G1 X122.242 Y117.496 E-0.76000
G1 E-0.04000 F2100.00000
G1 Z1.200 F10800.000
;AFTER_LAYER_CHANGE
;0.682232
G1 X126.094 Y122.229
G1 Z0.682
G1 E0.80000 F2100.00000
G1 F900
G1 X121.342 Y122.229 E0.14209
G1 X121.342 Y124.536 E0.06898
G1 X126.094 Y124.536 E0.14209
G1 F8640
G1 X122.803 Y124.536 E-0.76000
G1 E-0.04000 F2100.00000
G1 Z1.282 F10800.000
G1 X118.896 Y89.930
G1 Z0.682
G1 E0.80000 F2100.00000
G1 F900
G1 X128.263 Y89.930 E0.28005
G1 X128.263 Y87.623 E0.06898
G1 X119.035 Y87.623 E0.27591
G1 X121.342 Y87.623 E0.06898
G1 X121.342 Y85.316 E0.06898
G1 X123.787 Y85.316 E0.07311
;BEFORE_LAYER_CHANGE
G92 E0.0
;0.8


G1 F8640
G1 X121.342 Y85.316 E-0.56463
G1 X121.342 Y86.162 E-0.19537
G1 E-0.04000 F2100.00000
G1 Z1.282 F10800.000
;AFTER_LAYER_CHANGE
;0.8
G1 X121.974 Y91.255
G1 Z0.800
G1 E0.80000 F2100.00000
M204 S800
G1 F900
G1 X123.342 Y91.255 E0.04630
G1 F1800
G1 X123.710 Y91.255 E0.01826
G1 X123.710 Y120.991 E1.47587
M73 Q4 S25
G1 X123.342 Y120.991 E0.01826
G1 F900
G1 X121.974 Y120.991 E0.04630
G1 X121.974 Y91.315 E1.00449
M73 P4 R25
M204 S1000
G1 X121.567 Y90.848 F10800.000
M204 S800
G1 F900
G1 X123.342 Y90.848 E0.06008
G1 F1800
G1 X124.117 Y90.848 E0.03847
G1 X124.117 Y121.398 E1.51628
G1 X123.342 Y121.398 E0.03847
G1 F900
G1 X121.567 Y121.398 E0.06008
G1 X121.567 Y90.908 E1.03205
M204 S1000
G1 X121.917 Y91.041 F10800.000
G1 F8640
G1 X123.342 Y90.848 E-0.41009
G1 E-0.38991 F2100.00000
G1 Z1.400 F10800.000
G1 X123.586 Y93.919
G1 Z0.800
G1 E0.80000 F2100.00000
G1 F1800
G1 X122.958 Y91.577 E0.13062
G1 X122.486 Y91.577 E0.02544
G1 X123.388 Y94.943 E0.18772
G1 X123.388 Y96.705 E0.09495
G1 X122.295 Y92.628 E0.22740
G1 X122.295 Y94.391 E0.09495
G1 X123.388 Y98.468 E0.22740
G1 X123.388 Y100.230 E0.09495
G1 X122.295 Y96.153 E0.22740
G1 X122.295 Y97.916 E0.09495
G1 X123.388 Y101.993 E0.22740
G1 X123.388 Y103.756 E0.09495
G1 X122.295 Y99.678 E0.22740
G1 X122.295 Y101.441 E0.09495
G1 X123.388 Y105.518 E0.22740
G1 X123.388 Y107.281 E0.09495
G1 X122.295 Y103.204 E0.22740
G1 X122.295 Y104.966 E0.09495
G1 X123.388 Y109.043 E0.22740
G1 X123.388 Y110.806 E0.09495
G1 X122.295 Y106.729 E0.22740
G1 X122.295 Y108.491 E0.09495
G1 X123.388 Y112.568 E0.22740
G1 X123.388 Y114.331 E0.09495
G1 X122.295 Y110.254 E0.22740
G1 X122.295 Y112.016 E0.09495
G1 X123.388 Y116.093 E0.22740
G1 X123.388 Y117.856 E0.09495
G1 X122.295 Y113.779 E0.22740
G1 X122.295 Y115.541 E0.09495
G1 X123.388 Y119.619 E0.22740
G1 X123.388 Y120.669 E0.05661
G1 X123.197 Y120.669 E0.01027
G1 X122.295 Y117.304 E0.18770
G1 X122.295 Y119.067 E0.09495
G1 X122.778 Y120.867 E0.10044
;BEFORE_LAYER_CHANGE
G92 E0.0
;0.923348


G1 F8640
G1 X122.295 Y119.067 E-0.43049
G1 X122.295 Y117.640 E-0.32951
G1 E-0.04000 F2100.00000
G1 Z1.400 F10800.000
;AFTER_LAYER_CHANGE
;0.923348
G1 X126.094 Y122.229
G1 Z0.923
G1 E0.80000 F2100.00000
G1 F900
G1 X121.342 Y122.229 E0.14209
G1 X121.342 Y124.536 E0.06898
G1 X126.094 Y124.536 E0.14209
G1 F8640
G1 X122.803 Y124.536 E-0.76000
G1 E-0.04000 F2100.00000
G1 Z1.523 F10800.000
G1 X118.896 Y89.930
G1 Z0.923
G1 E0.80000 F2100.00000
G1 F900
G1 X128.263 Y89.930 E0.28005
G1 X128.263 Y87.623 E0.06898
G1 X119.035 Y87.623 E0.27591
G1 X121.342 Y87.623 E0.06898
G1 X121.342 Y85.316 E0.06898
G1 X123.787 Y85.316 E0.07311
;BEFORE_LAYER_CHANGE
G92 E0.0
;1


G1 F8640
G1 X121.342 Y85.316 E-0.56463
G1 X121.342 Y86.162 E-0.19537
G1 E-0.04000 F2100.00000
G1 Z1.523 F10800.000
;AFTER_LAYER_CHANGE
;1
G1 X121.974 Y91.255
G1 Z1.000
G1 E0.80000 F2100.00000
M204 S800
G1 F900
G1 X123.710 Y91.255 E0.05876
G1 X123.710 Y120.991 E1.00652
G1 X121.974 Y120.991 E0.05876
G1 X121.974 Y91.315 E1.00449
M204 S1000
G1 X121.567 Y90.848 F10800.000
M204 S800
G1 F900
G1 X124.117 Y90.848 E0.08631
G1 X124.117 Y121.398 E1.03408
G1 X121.567 Y121.398 E0.08631
G1 X121.567 Y90.908 E1.03205
M204 S1000
G1 X121.918 Y91.039 F10800.000
G1 F8640
G1 X124.117 Y90.848 E-0.58897
G1 X124.117 Y91.589 E-0.17103
G1 E-0.04000 F2100.00000
G1 Z1.600 F10800.000
G1 X123.587 Y92.216
G1 Z1.000
G1 E0.80000 F2100.00000
M204 S1250
G1 F900
G1 X122.932 Y91.561 E0.03194
G1 X122.346 Y91.561 E0.02020
G1 X123.404 Y92.619 E0.05158
G1 X123.404 Y93.205 E0.02020
G1 X122.279 Y92.080 E0.05484
G1 X122.279 Y92.666 E0.02020
G1 X123.404 Y93.791 E0.05484
G1 X123.404 Y94.377 E0.02020
G1 X122.279 Y93.252 E0.05484
G1 X122.279 Y93.838 E0.02020
G1 X123.404 Y94.963 E0.05484
G1 X123.404 Y95.550 E0.02020
G1 X122.279 Y94.424 E0.05484
G1 X122.279 Y95.010 E0.02020
G1 X123.404 Y96.136 E0.05484
G1 X123.404 Y96.722 E0.02020
G1 X122.279 Y95.597 E0.05484
G1 X122.279 Y96.183 E0.02020
G1 X123.404 Y97.308 E0.05484
G1 X123.404 Y97.894 E0.02020
G1 X122.279 Y96.769 E0.05484
G1 X122.279 Y97.355 E0.02020
G1 X123.404 Y98.480 E0.05484
G1 X123.404 Y99.066 E0.02020
G1 X122.279 Y97.941 E0.05484
G1 X122.279 Y98.527 E0.02020
G1 X123.404 Y99.652 E0.05484
G1 X123.404 Y100.239 E0.02020
G1 X122.279 Y99.113 E0.05484
G1 X122.279 Y99.699 E0.02020
G1 X123.404 Y100.825 E0.05484
G1 X123.404 Y101.411 E0.02020
G1 X122.279 Y100.286 E0.05484
G1 X122.279 Y100.872 E0.02020
G1 X123.404 Y101.997 E0.05484
G1 X123.404 Y102.583 E0.02020
G1 X122.279 Y101.458 E0.05484
G1 X122.279 Y102.044 E0.02020
G1 X123.404 Y103.169 E0.05484
G1 X123.404 Y103.755 E0.02020
G1 X122.279 Y102.630 E0.05484
G1 X122.279 Y103.216 E0.02020
G1 X123.404 Y104.341 E0.05484
G1 X123.404 Y104.928 E0.02020
G1 X122.279 Y103.802 E0.05484
G1 X122.279 Y104.388 E0.02020
G1 X123.404 Y105.514 E0.05484
G1 X123.404 Y106.100 E0.02020
G1 X122.279 Y104.975 E0.05484
G1 X122.279 Y105.561 E0.02020
G1 X123.404 Y106.686 E0.05484
G1 X123.404 Y107.272 E0.02020
G1 X122.279 Y106.147 E0.05484
G1 X122.279 Y106.733 E0.02020
G1 X123.404 Y107.858 E0.05484
G1 X123.404 Y108.444 E0.02020
G1 X122.279 Y107.319 E0.05484
G1 X122.279 Y107.905 E0.02020
G1 X123.404 Y109.030 E0.05484
G1 X123.404 Y109.617 E0.02020
G1 X122.279 Y108.491 E0.05484
G1 X122.279 Y109.077 E0.02020
G1 X123.404 Y110.203 E0.05484
G1 X123.404 Y110.789 E0.02020
G1 X122.279 Y109.664 E0.05484
G1 X122.279 Y110.250 E0.02020
G1 X123.404 Y111.375 E0.05484
G1 X123.404 Y111.961 E0.02020
G1 X122.279 Y110.836 E0.05484
G1 X122.279 Y111.422 E0.02020
G1 X123.404 Y112.547 E0.05484
G1 X123.404 Y113.133 E0.02020
G1 X122.279 Y112.008 E0.05484
G1 X122.279 Y112.594 E0.02020
G1 X123.404 Y113.719 E0.05484
G1 X123.404 Y114.306 E0.02020
G1 X122.279 Y113.180 E0.05484
G1 X122.279 Y113.766 E0.02020
G1 X123.404 Y114.892 E0.05484
G1 X123.404 Y115.478 E0.02020
G1 X122.279 Y114.353 E0.05484
G1 X122.279 Y114.939 E0.02020
G1 X123.404 Y116.064 E0.05484
G1 X123.404 Y116.650 E0.02020
G1 X122.279 Y115.525 E0.05484
G1 X122.279 Y116.111 E0.02020
G1 X123.404 Y117.236 E0.05484
G1 X123.404 Y117.822 E0.02020
G1 X122.279 Y116.697 E0.05484
G1 X122.279 Y117.283 E0.02020
G1 X123.404 Y118.408 E0.05484
G1 X123.404 Y118.995 E0.02020
G1 X122.279 Y117.869 E0.05484
G1 X122.279 Y118.455 E0.02020
G1 X123.404 Y119.581 E0.05484
G1 X123.404 Y120.167 E0.02020
G1 X122.279 Y119.042 E0.05484
G1 X122.279 Y119.628 E0.02020
G1 X123.337 Y120.686 E0.05157
G1 X122.751 Y120.686 E0.02020
G1 X122.096 Y120.031 E0.03193
M204 S1000
;BEFORE_LAYER_CHANGE
G92 E0.0
;1.16446


G1 F8640
G1 X122.751 Y120.686 E-0.21397
G1 X123.337 Y120.686 E-0.13534
G1 X122.279 Y119.628 E-0.34555
G1 X122.279 Y119.346 E-0.06515
G1 E-0.04000 F2100.00000
G1 Z1.600 F10800.000
;AFTER_LAYER_CHANGE
;1.16446
G1 X126.094 Y122.229
G1 Z1.164
G1 E0.80000 F2100.00000
G1 F900
G1 X121.342 Y122.229 E0.14209
G1 X121.342 Y124.536 E0.06898
G1 X126.094 Y124.536 E0.14209
G1 F8640
G1 X122.803 Y124.536 E-0.76000
G1 E-0.04000 F2100.00000
G1 Z1.764 F10800.000
G1 X118.896 Y89.930
G1 Z1.164
G1 E0.80000 F2100.00000
G1 F900
G1 X128.263 Y89.930 E0.28005
G1 X128.263 Y87.623 E0.06898
G1 X119.035 Y87.623 E0.27591
G1 X121.342 Y87.623 E0.06898
G1 X121.342 Y85.316 E0.06898
G1 X123.787 Y85.316 E0.07311
;BEFORE_LAYER_CHANGE
G92 E0.0
;1.2


G1 F8640
G1 X121.342 Y85.316 E-0.56463
G1 X121.342 Y86.162 E-0.19537
G1 E-0.04000 F2100.00000
G1 Z1.764 F10800.000
;AFTER_LAYER_CHANGE
;1.2
G1 X121.974 Y91.255
G1 Z1.200
G1 E0.80000 F2100.00000
M204 S800
G1 F900
G1 X123.710 Y91.255 E0.05876
G1 X123.710 Y120.991 E1.00652
G1 X121.974 Y120.991 E0.05876
G1 X121.974 Y91.315 E1.00449
M204 S1000
G1 X121.567 Y90.848 F10800.000
M204 S800
G1 F900
G1 X124.117 Y90.848 E0.08631
G1 X124.117 Y121.398 E1.03408
G1 X121.567 Y121.398 E0.08631
G1 X121.567 Y90.908 E1.03205
M204 S1000
G1 X121.918 Y91.039 F10800.000
G1 F8640
G1 X124.117 Y90.848 E-0.58897
G1 X124.117 Y91.589 E-0.17103
G1 E-0.04000 F2100.00000
G1 Z1.800 F10800.000
G1 X122.934 Y91.377
G1 Z1.200
G1 E0.80000 F2100.00000
M204 S1250
G1 F900
G1 X122.279 Y92.033 E0.03193
G1 X122.279 Y92.619 E0.02020
G1 X123.337 Y91.561 E0.05157
G1 X123.404 Y91.561 E0.00231
G1 X123.404 Y92.080 E0.01789
G1 X122.279 Y93.205 E0.05484
G1 X122.279 Y93.791 E0.02020
G1 X123.404 Y92.666 E0.05484
G1 X123.404 Y93.252 E0.02020
G1 X122.279 Y94.377 E0.05484
G1 X122.279 Y94.963 E0.02020
G1 X123.404 Y93.838 E0.05484
G1 X123.404 Y94.424 E0.02020
G1 X122.279 Y95.549 E0.05484
G1 X122.279 Y96.136 E0.02020
G1 X123.404 Y95.010 E0.05484
G1 X123.404 Y95.596 E0.02020
G1 X122.279 Y96.722 E0.05484
G1 X122.279 Y97.308 E0.02020
G1 X123.404 Y96.183 E0.05484
G1 X123.404 Y96.769 E0.02020
G1 X122.279 Y97.894 E0.05484
G1 X122.279 Y98.480 E0.02020
G1 X123.404 Y97.355 E0.05484
G1 X123.404 Y97.941 E0.02020
G1 X122.279 Y99.066 E0.05484
G1 X122.279 Y99.652 E0.02020
G1 X123.404 Y98.527 E0.05484
G1 X123.404 Y99.113 E0.02020
G1 X122.279 Y100.238 E0.05484
G1 X122.279 Y100.825 E0.02020
G1 X123.404 Y99.699 E0.05484
G1 X123.404 Y100.285 E0.02020
G1 X122.279 Y101.411 E0.05484
G1 X122.279 Y101.997 E0.02020
G1 X123.404 Y100.872 E0.05484
G1 X123.404 Y101.458 E0.02020
G1 X122.279 Y102.583 E0.05484
G1 X122.279 Y103.169 E0.02020
G1 X123.404 Y102.044 E0.05484
