; generated by PrusaSlicer 2.0.0+win64 on 2020-09-14 at 14:07:48

; 

; external perimeters extrusion width = 0.45mm
; perimeters extrusion width = 0.45mm
; infill extrusion width = 0.45mm
; solid infill extrusion width = 0.45mm
; top infill extrusion width = 0.40mm
; first layer extrusion width = 0.42mm

M73 P0 R4
M73 Q0 S4
M201 X1000 Y1000 Z1000 E5000 ; sets maximum accelerations, mm/sec^2
M203 X200 Y200 Z12 E120 ; sets maximum feedrates, mm/sec
M204 P1250 R1250 T1250 ; sets acceleration (P, T) and retract acceleration (R), mm/sec^2
M205 X8.00 Y8.00 Z0.40 E1.50 ; sets the jerk limits, mm/sec
M205 S0 T0 ; sets the minimum extruding and travel feed rate, mm/sec
M107
M115 U3.8.0 ; tell printer latest fw version
G90 ; use absolute coordinates
M83 ; extruder relative mode
M104 S215 ; set extruder temp
M140 S67 ; set bed temp
M190 S67 ; wait for bed temp
M109 S215 ; wait for extruder temp
G28 W ; home all without mesh bed level
G80 ; mesh bed leveling
G1 Y-3.0 F1000.0 ; go outside print area
G92 E0.0
G1 X60.0 E9.0 F1000.0 ; intro line
M73 Q1 S4
M73 P1 R4
G1 X100.0 E12.5 F1000.0 ; intro line
G92 E0.0
M221 S95
M900 K30 ; Filament gcode
G21 ; set units to millimeters
G90 ; use absolute coordinates
M83 ; use relative distances for extrusion
;BEFORE_LAYER_CHANGE
G92 E0.0
;0.2


G1 E-0.80000 F2100.00000
G1 Z0.600 F10800.000
;AFTER_LAYER_CHANGE
;0.2
G1 X128.420 Y101.180
G1 Z0.200
G1 E0.80000 F2100.00000
M204 S1000
G1 F1200
G1 X129.003 Y100.274 E0.03378
G1 X129.570 Y99.606 E0.02746
G1 X130.223 Y99.002 E0.02789
G1 X131.403 Y98.222 E0.04434
G1 X132.035 Y97.927 E0.02186
G1 X132.675 Y97.698 E0.02132
G1 X133.744 Y97.460 E0.03433
G1 X134.590 Y97.389 E0.02662
G1 X135.419 Y97.415 E0.02602
G1 X136.290 Y97.546 E0.02760
G1 X137.032 Y97.748 E0.02411
G1 X137.723 Y98.015 E0.02325
G1 X138.381 Y98.351 E0.02314
G1 X138.968 Y98.729 E0.02191
G1 X139.528 Y99.172 E0.02238
G1 X140.055 Y99.684 E0.02304
G1 X140.475 Y100.178 E0.02032
G1 X140.886 Y100.765 E0.02248
G1 X141.456 Y101.875 E0.03913
G1 X141.715 Y102.632 E0.02508
G1 X141.879 Y103.339 E0.02273
G1 X141.966 Y104.036 E0.02204
G1 X141.976 Y105.014 E0.03067
G1 X141.852 Y106.001 E0.03119
G1 X141.658 Y106.760 E0.02455
G1 X141.398 Y107.459 E0.02340
G1 X141.057 Y108.145 E0.02400
G1 X140.673 Y108.753 E0.02256
G1 X140.243 Y109.303 E0.02187
G1 X139.632 Y109.932 E0.02750
G1 X138.964 Y110.471 E0.02693
G1 X138.207 Y110.944 E0.02798
G1 X137.082 Y111.433 E0.03846
G1 X136.375 Y111.632 E0.02305
G1 X135.629 Y111.762 E0.02373
G1 X134.914 Y111.810 E0.02247
G1 X134.232 Y111.792 E0.02138
G1 X133.404 Y111.680 E0.02620
G1 X132.689 Y111.504 E0.02308
G1 X131.685 Y111.116 E0.03376
G1 X130.918 Y110.694 E0.02745
G1 X130.242 Y110.208 E0.02611
G1 X129.680 Y109.705 E0.02364
G1 X129.174 Y109.143 E0.02370
G1 X128.742 Y108.552 E0.02297
G1 X128.323 Y107.835 E0.02603
G1 X127.881 Y108.532 E0.02589
G1 X127.465 Y109.066 E0.02122
G1 X126.858 Y109.695 E0.02740
G1 X126.192 Y110.236 E0.02692
G1 X125.468 Y110.695 E0.02688
G1 X124.265 Y111.221 E0.04115
G1 X123.564 Y111.416 E0.02284
G1 X122.837 Y111.541 E0.02313
G1 X122.103 Y111.590 E0.02304
G1 X121.380 Y111.567 E0.02271
G1 X120.631 Y111.463 E0.02371
G1 X119.897 Y111.284 E0.02368
G1 X118.915 Y110.906 E0.03297
G1 X118.164 Y110.497 E0.02682
G1 X117.416 Y109.961 E0.02887
G1 X116.859 Y109.455 E0.02358
G1 X116.369 Y108.906 E0.02307
G1 X115.949 Y108.330 E0.02234
G1 X115.585 Y107.709 E0.02259
G1 X115.202 Y106.836 E0.02989
G1 X114.930 Y105.885 E0.03102
G1 X114.798 Y105.013 E0.02764
G1 X114.771 Y104.313 E0.02197
G1 X114.807 Y103.649 E0.02086
G1 X114.910 Y102.964 E0.02171
G1 X115.112 Y102.187 E0.02518
G1 X115.336 Y101.577 E0.02036
G1 X115.616 Y100.988 E0.02046
G1 X116.181 Y100.094 E0.03314
G1 X116.794 Y99.369 E0.02979
G1 X117.479 Y98.744 E0.02908
G1 X118.636 Y97.987 E0.04333
G1 X119.227 Y97.713 E0.02042
G1 X119.837 Y97.491 E0.02035
G1 X120.951 Y97.239 E0.03583
G1 X121.754 Y97.169 E0.02527
G1 X122.581 Y97.190 E0.02594
G1 X123.520 Y97.331 E0.02975
G1 X124.277 Y97.539 E0.02463
G1 X124.948 Y97.803 E0.02261
G1 X125.572 Y98.121 E0.02195
G1 X126.160 Y98.497 E0.02188
G1 X126.750 Y98.964 E0.02360
G1 X127.288 Y99.490 E0.02360
G1 X127.693 Y99.970 E0.01968
G1 X128.066 Y100.498 E0.02029
G1 X128.393 Y101.126 E0.02219
G1 X128.433 Y102.032 F10800.000
G1 F1200
G1 X128.766 Y101.341 E0.02404
G1 X129.299 Y100.508 E0.03100
G1 X129.850 Y99.859 E0.02669
G1 X130.468 Y99.290 E0.02634
G1 X131.575 Y98.557 E0.04163
G1 X132.171 Y98.279 E0.02061
G1 X132.769 Y98.063 E0.01995
G1 X133.789 Y97.835 E0.03276
G1 X134.590 Y97.766 E0.02520
G1 X135.374 Y97.789 E0.02461
G1 X136.222 Y97.918 E0.02689
G1 X136.923 Y98.109 E0.02278
G1 X137.561 Y98.356 E0.02145
G1 X138.185 Y98.673 E0.02195
G1 X138.756 Y99.041 E0.02131
G1 X139.286 Y99.462 E0.02120
G1 X139.786 Y99.948 E0.02187
G1 X140.182 Y100.415 E0.01920
G1 X140.557 Y100.949 E0.02046
G1 X141.114 Y102.035 E0.03829
G1 X141.350 Y102.726 E0.02290
G1 X141.509 Y103.414 E0.02212
G1 X141.591 Y104.072 E0.02079
G1 X141.600 Y104.980 E0.02847
G1 X141.480 Y105.942 E0.03041
G1 X141.295 Y106.656 E0.02311
G1 X141.048 Y107.318 E0.02218
G1 X140.733 Y107.952 E0.02219
G1 X140.370 Y108.529 E0.02137
G1 X139.965 Y109.048 E0.02063
G1 X139.386 Y109.646 E0.02612
G1 X138.754 Y110.158 E0.02551
G1 X138.044 Y110.604 E0.02629
G1 X136.944 Y111.082 E0.03759
G1 X136.282 Y111.267 E0.02153
G1 X135.594 Y111.386 E0.02192
G1 X134.898 Y111.434 E0.02187
G1 X134.253 Y111.416 E0.02021
G1 X133.465 Y111.308 E0.02494
G1 X132.813 Y111.148 E0.02105
G1 X131.855 Y110.779 E0.03219
G1 X131.129 Y110.381 E0.02598
G1 X130.470 Y109.908 E0.02542
G1 X129.940 Y109.431 E0.02235
G1 X129.473 Y108.913 E0.02187
G1 X129.052 Y108.337 E0.02236
G1 X128.699 Y107.729 E0.02207
G1 X128.346 Y106.921 E0.02766
G1 X127.931 Y107.748 E0.02901
G1 X127.578 Y108.308 E0.02077
G1 X127.186 Y108.812 E0.02000
G1 X126.611 Y109.410 E0.02602
G1 X125.980 Y109.924 E0.02553
G1 X125.303 Y110.356 E0.02516
G1 X124.127 Y110.870 E0.04025
G1 X123.473 Y111.050 E0.02128
G1 X122.801 Y111.166 E0.02136
G1 X122.105 Y111.213 E0.02187
G1 X121.421 Y111.192 E0.02147
G1 X120.692 Y111.091 E0.02309
G1 X120.021 Y110.927 E0.02165
G1 X119.063 Y110.559 E0.03219
G1 X118.355 Y110.172 E0.02528
G1 X117.661 Y109.674 E0.02680
G1 X117.134 Y109.196 E0.02231
G1 X116.656 Y108.662 E0.02246
G1 X116.260 Y108.117 E0.02114
G1 X115.917 Y107.528 E0.02136
G1 X115.553 Y106.696 E0.02847
G1 X115.301 Y105.816 E0.02870
G1 X115.173 Y104.967 E0.02692
G1 X115.148 Y104.308 E0.02069
G1 X115.183 Y103.679 E0.01975
G1 X115.282 Y103.030 E0.02057
G1 X115.469 Y102.308 E0.02338
G1 X115.687 Y101.716 E0.01979
G1 X115.951 Y101.160 E0.01930
G1 X116.492 Y100.307 E0.03166
G1 X117.058 Y99.639 E0.02747
G1 X117.699 Y99.050 E0.02729
G1 X118.808 Y98.323 E0.04157
G1 X119.363 Y98.064 E0.01921
G1 X119.954 Y97.850 E0.01972
G1 X120.997 Y97.614 E0.03351
G1 X121.776 Y97.546 E0.02453
G1 X122.559 Y97.567 E0.02457
G1 X123.452 Y97.702 E0.02831
G1 X124.149 Y97.894 E0.02267
G1 X124.785 Y98.143 E0.02143
G1 X125.392 Y98.453 E0.02136
G1 X125.948 Y98.809 E0.02071
G1 X126.508 Y99.254 E0.02240
G1 X127.006 Y99.740 E0.02185
G1 X127.390 Y100.194 E0.01863
G1 X127.750 Y100.705 E0.01960
G1 X128.406 Y101.978 E0.04490
G1 X128.258 Y102.882 F10800.000
G1 F1200
G1 X128.540 Y102.896 E0.00886
G1 X128.817 Y102.106 E0.02627
G1 X129.090 Y101.533 E0.01989
G1 X129.595 Y100.742 E0.02944
G1 X130.114 Y100.128 E0.02519
G1 X130.712 Y99.577 E0.02549
G1 X131.747 Y98.893 E0.03891
G1 X132.322 Y98.624 E0.01990
G1 X132.885 Y98.422 E0.01876
G1 X133.834 Y98.209 E0.03049
G1 X134.590 Y98.143 E0.02379
G1 X135.329 Y98.164 E0.02318
G1 X136.155 Y98.289 E0.02617
G1 X136.814 Y98.470 E0.02143
G1 X137.415 Y98.704 E0.02024
G1 X137.989 Y98.996 E0.02019
G1 X138.529 Y99.342 E0.02012
G1 X139.044 Y99.751 E0.02059
G1 X139.516 Y100.211 E0.02068
G1 X139.888 Y100.652 E0.01809
G1 X140.227 Y101.133 E0.01845
G1 X140.772 Y102.195 E0.03743
G1 X140.985 Y102.821 E0.02072
G1 X141.139 Y103.489 E0.02152
G1 X141.215 Y104.107 E0.01953
G1 X141.225 Y104.946 E0.02628
G1 X141.107 Y105.883 E0.02962
G1 X140.933 Y106.551 E0.02164
G1 X140.698 Y107.177 E0.02096
G1 X140.409 Y107.760 E0.02041
G1 X140.066 Y108.305 E0.02020
G1 X139.686 Y108.793 E0.01939
G1 X139.139 Y109.361 E0.02473
G1 X138.542 Y109.846 E0.02410
G1 X137.880 Y110.264 E0.02457
G1 X136.806 Y110.731 E0.03671
G1 X136.191 Y110.901 E0.02000
G1 X135.558 Y111.011 E0.02014
G1 X134.881 Y111.057 E0.02127
G1 X134.274 Y111.039 E0.01904
G1 X133.545 Y110.939 E0.02309
G1 X132.937 Y110.792 E0.01960
G1 X132.003 Y110.432 E0.03139
G1 X131.321 Y110.056 E0.02441
G1 X130.714 Y109.620 E0.02342
G1 X130.213 Y109.171 E0.02109
G1 X129.760 Y108.668 E0.02125
G1 X129.373 Y108.139 E0.02052
G1 X129.030 Y107.549 E0.02140
G1 X128.696 Y106.778 E0.02636
G1 X128.495 Y106.083 E0.02267
G1 X128.221 Y106.075 E0.00861
G1 X127.905 Y106.957 E0.02939
G1 X127.607 Y107.555 E0.02095
G1 X127.274 Y108.085 E0.01962
G1 X126.907 Y108.558 E0.01878
G1 X126.363 Y109.125 E0.02463
G1 X125.768 Y109.613 E0.02413
G1 X125.113 Y110.030 E0.02434
G1 X124.014 Y110.510 E0.03761
G1 X123.399 Y110.680 E0.02000
G1 X122.766 Y110.790 E0.02014
G1 X122.089 Y110.836 E0.02127
G1 X121.462 Y110.817 E0.01966
G1 X120.771 Y110.722 E0.02189
G1 X120.145 Y110.571 E0.02019
G1 X119.210 Y110.212 E0.03139
G1 X118.547 Y109.847 E0.02372
G1 X117.906 Y109.387 E0.02475
G1 X117.408 Y108.937 E0.02105
G1 X116.956 Y108.433 E0.02123
G1 X116.571 Y107.903 E0.02053
G1 X116.248 Y107.348 E0.02011
G1 X115.904 Y106.557 E0.02705
G1 X115.672 Y105.748 E0.02639
G1 X115.547 Y104.922 E0.02620
G1 X115.525 Y104.303 E0.01941
G1 X115.559 Y103.710 E0.01865
G1 X115.653 Y103.097 E0.01944
G1 X115.826 Y102.429 E0.02161
G1 X116.031 Y101.870 E0.01869
G1 X116.287 Y101.333 E0.01865
G1 X116.803 Y100.521 E0.03017
G1 X117.338 Y99.892 E0.02589
G1 X117.920 Y99.357 E0.02478
G1 X118.979 Y98.659 E0.03979
G1 X119.515 Y98.410 E0.01851
G1 X120.071 Y98.208 E0.01857
G1 X121.042 Y97.988 E0.03121
G1 X121.798 Y97.923 E0.02378
G1 X122.537 Y97.943 E0.02318
G1 X123.384 Y98.073 E0.02686
G1 X124.021 Y98.249 E0.02073
G1 X124.623 Y98.483 E0.02025
G1 X125.197 Y98.775 E0.02019
G1 X125.722 Y99.111 E0.01953
G1 X126.251 Y99.530 E0.02118
G1 X126.736 Y100.004 E0.02125
G1 X127.096 Y100.431 E0.01753
G1 X127.421 Y100.890 E0.01762
G1 X127.980 Y101.975 E0.03826
G1 X128.187 Y102.583 E0.02015
G1 X128.244 Y102.823 E0.00775
G1 X127.638 Y102.134 F10800.000
G1 F1200
G1 X127.827 Y102.694 E0.01853
G1 X127.977 Y103.344 E0.02091
G1 X128.048 Y103.922 E0.01827
G1 X128.057 Y104.691 E0.02411
G1 X127.942 Y105.603 E0.02881
G1 X127.779 Y106.225 E0.02016
G1 X127.557 Y106.814 E0.01975
G1 X127.283 Y107.362 E0.01921
G1 X126.960 Y107.876 E0.01903
G1 X126.615 Y108.319 E0.01759
G1 X126.099 Y108.856 E0.02334
G1 X125.538 Y109.313 E0.02270
G1 X124.923 Y109.704 E0.02284
G1 X123.876 Y110.159 E0.03580
G1 X123.308 Y110.314 E0.01846
G1 X122.731 Y110.415 E0.01839
G1 X122.073 Y110.459 E0.02067
G1 X121.504 Y110.442 E0.01786
G1 X120.831 Y110.350 E0.02129
G1 X120.268 Y110.214 E0.01815
G1 X119.358 Y109.864 E0.03059
G1 X118.740 Y109.523 E0.02215
G1 X118.150 Y109.100 E0.02274
G1 X117.681 Y108.677 E0.01979
G1 X117.254 Y108.202 E0.02001
G1 X116.892 Y107.705 E0.01931
G1 X116.580 Y107.168 E0.01945
G1 X116.255 Y106.419 E0.02562
G1 X116.043 Y105.680 E0.02410
G1 X115.922 Y104.877 E0.02547
G1 X115.902 Y104.299 E0.01811
G1 X115.933 Y103.758 E0.01701
G1 X116.024 Y103.163 E0.01886
G1 X116.183 Y102.550 E0.01985
G1 X116.376 Y102.024 E0.01757
G1 X116.622 Y101.505 E0.01800
G1 X117.114 Y100.735 E0.02866
G1 X117.602 Y100.161 E0.02363
G1 X118.141 Y99.663 E0.02300
G1 X119.151 Y98.995 E0.03798
G1 X119.666 Y98.755 E0.01780
G1 X120.188 Y98.567 E0.01741
G1 X121.088 Y98.363 E0.02893
G1 X121.798 Y98.300 E0.02235
G1 X122.515 Y98.320 E0.02246
G1 X123.294 Y98.439 E0.02472
G1 X123.911 Y98.610 E0.02008
G1 X124.477 Y98.831 E0.01904
G1 X125.017 Y99.107 E0.01902
G1 X125.510 Y99.423 E0.01836
G1 X126.009 Y99.819 E0.01999
G1 X126.454 Y100.254 E0.01948
G1 X126.803 Y100.668 E0.01700
G1 X127.106 Y101.096 E0.01645
G1 X127.610 Y102.080 E0.03468
G1 X127.277 Y102.252 F10800.000
G1 F1200
G1 X127.462 Y102.789 E0.01781
G1 X127.604 Y103.400 E0.01968
G1 X127.671 Y103.938 E0.01699
G1 X127.681 Y104.658 E0.02258
G1 X127.574 Y105.520 E0.02723
G1 X127.422 Y106.102 E0.01886
G1 X127.214 Y106.655 E0.01854
G1 X126.959 Y107.170 E0.01802
G1 X126.656 Y107.652 E0.01786
G1 X126.336 Y108.065 E0.01637
G1 X125.852 Y108.571 E0.02194
G1 X125.309 Y109.013 E0.02197
G1 X124.734 Y109.377 E0.02132
G1 X123.764 Y109.799 E0.03317
G1 X123.217 Y109.948 E0.01776
G1 X122.695 Y110.039 E0.01662
G1 X122.057 Y110.082 E0.02005
G1 X121.526 Y110.065 E0.01666
G1 X120.892 Y109.978 E0.02005
G1 X120.369 Y109.851 E0.01689
G1 X119.529 Y109.528 E0.02822
G1 X118.932 Y109.198 E0.02138
G1 X118.379 Y108.800 E0.02136
G1 X117.942 Y108.404 E0.01850
G1 X117.542 Y107.958 E0.01878
G1 X117.203 Y107.491 E0.01810
G1 X116.911 Y106.989 E0.01820
G1 X116.613 Y106.302 E0.02346
G1 X116.414 Y105.611 E0.02256
G1 X116.296 Y104.832 E0.02472
G1 X116.279 Y104.296 E0.01680
G1 X116.309 Y103.789 E0.01593
G1 X116.395 Y103.230 E0.01772
G1 X116.546 Y102.655 E0.01866
G1 X116.726 Y102.163 E0.01644
G1 X116.958 Y101.678 E0.01682
G1 X117.410 Y100.969 E0.02640
G1 X117.867 Y100.430 E0.02215
G1 X118.385 Y99.950 E0.02215
G1 X119.323 Y99.331 E0.03525
G1 X119.802 Y99.107 E0.01656
G1 X120.305 Y98.926 E0.01678
G1 X121.134 Y98.737 E0.02665
G1 X121.820 Y98.676 E0.02160
G1 X122.492 Y98.696 E0.02105
G1 X123.205 Y98.806 E0.02262
G1 X123.784 Y98.965 E0.01883
G1 X124.314 Y99.171 E0.01785
G1 X124.822 Y99.430 E0.01786
G1 X125.284 Y99.725 E0.01718
G1 X125.753 Y100.096 E0.01878
G1 X126.171 Y100.504 E0.01832
G1 X126.500 Y100.893 E0.01595
G1 X126.790 Y101.303 E0.01577
G1 X127.249 Y102.198 E0.03154
G1 X126.916 Y102.369 F10800.000
G1 F1200
G1 X127.097 Y102.884 E0.01711
G1 X127.232 Y103.457 E0.01845
G1 X127.294 Y103.955 E0.01572
G1 X127.305 Y104.626 E0.02104
G1 X127.206 Y105.437 E0.02564
G1 X127.065 Y105.979 E0.01755
G1 X126.872 Y106.497 E0.01733
G1 X126.634 Y106.978 E0.01683
G1 X126.351 Y107.430 E0.01671
G1 X126.056 Y107.813 E0.01516
G1 X125.604 Y108.287 E0.02053
G1 X125.097 Y108.701 E0.02053
G1 X124.545 Y109.051 E0.02050
G1 X123.651 Y109.438 E0.03054
G1 X123.127 Y109.582 E0.01705
G1 X122.641 Y109.666 E0.01546
G1 X122.042 Y109.706 E0.01882
G1 X121.549 Y109.689 E0.01546
G1 X120.954 Y109.605 E0.01882
G1 X120.470 Y109.487 E0.01563
G1 X119.699 Y109.191 E0.02590
G1 X119.143 Y108.885 E0.01990
G1 X118.609 Y108.500 E0.02065
G1 X118.202 Y108.132 E0.01719
G1 X117.830 Y107.715 E0.01754
G1 X117.514 Y107.278 E0.01689
G1 X117.243 Y106.810 E0.01696
G1 X116.972 Y106.185 E0.02134
G1 X116.785 Y105.542 E0.02100
G1 X116.671 Y104.787 E0.02396
G1 X116.657 Y104.294 E0.01546
G1 X116.685 Y103.821 E0.01486
G1 X116.766 Y103.298 E0.01658
G1 X116.908 Y102.760 E0.01747
G1 X117.077 Y102.302 E0.01530
G1 X117.293 Y101.852 E0.01565
G1 X117.706 Y101.202 E0.02414
G1 X118.147 Y100.682 E0.02137
G1 X118.629 Y100.238 E0.02057
G1 X119.495 Y99.666 E0.03253
G1 X119.954 Y99.452 E0.01585
G1 X120.422 Y99.284 E0.01560
G1 X121.181 Y99.112 E0.02441
G1 X121.821 Y99.054 E0.02014
G1 X122.469 Y99.073 E0.02033
G1 X123.116 Y99.172 E0.02052
G1 X123.657 Y99.320 E0.01758
G1 X124.152 Y99.512 E0.01666
G1 X124.627 Y99.753 E0.01670
G1 X125.058 Y100.027 E0.01599
G1 X125.498 Y100.374 E0.01757
G1 X125.890 Y100.755 E0.01715
G1 X126.197 Y101.117 E0.01489
G1 X126.475 Y101.510 E0.01509
G1 X126.888 Y102.316 E0.02840
G1 X126.554 Y102.487 F10800.000
G1 F1200
G1 X126.732 Y102.980 E0.01643
G1 X126.859 Y103.515 E0.01723
G1 X126.917 Y103.972 E0.01446
G1 X126.929 Y104.594 E0.01950
G1 X126.838 Y105.356 E0.02405
G1 X126.708 Y105.857 E0.01625
G1 X126.529 Y106.339 E0.01612
G1 X126.309 Y106.787 E0.01565
G1 X126.046 Y107.208 E0.01555
G1 X125.776 Y107.560 E0.01394
G1 X125.355 Y108.003 E0.01913
G1 X124.886 Y108.389 E0.01906
G1 X124.356 Y108.724 E0.01967
G1 X123.539 Y109.078 E0.02790
G1 X123.036 Y109.216 E0.01634
G1 X122.587 Y109.293 E0.01429
G1 X122.027 Y109.329 E0.01759
G1 X121.573 Y109.312 E0.01427
G1 X121.017 Y109.234 E0.01759
G1 X120.572 Y109.124 E0.01438
G1 X119.870 Y108.855 E0.02358
G1 X119.335 Y108.561 E0.01913
G1 X118.838 Y108.201 E0.01922
G1 X118.464 Y107.860 E0.01588
